dr-yoon/TAILVAR/dataset/training_data/stoploss_gnomad_filtered.txt
Upload_variation	Chromosome	Position	Allele	Gene	Feature	Consequence	cDNA_position	CDS_position	Protein_position	Amino_acids	Codons_REF	Codons_ALT	REF_ALLELE	STRAND	VARIANT_CLASS	SYMBOL	BIOTYPE	CANONICAL	MANE	MANE_SELECT	ENSP	SOURCE	EXON	HGVSc	HGVSp	ALFA_Total_AF	AllofUs_POPMAX_AF	BayesDel_addAF	BayesDel_noAF	CADD	DANN	Eigen_PC	GERP	MutationTaster	RegeneronME_ALL_AF	VEST4	phastCons100	phyloP100	FATHMM_MKL	fitCons_int	GPN_MSA	ClinVar_CLNSIG	gnomAD4.1_nhomalt_joint	gnomAD4.1_AF_grpmax_joint	gnomAD4.1_AF_joint	extended_length	Uniprot
chr1_70007_A/G	chr1	70007	G	ENSG00000186092	ENST00000641515	stop_lost	1040	980	327	W	tAg	tGg	A	1	SNV	OR4F5	protein_coding	YES	MANE_Select	NM_001005484.2	ENSP00000493376	-	3/3	c.980A>G	p.Ter327TrpextTer11	0	0	-0.361613	-0.757209	10.08	0.589957183105964	2.86017	1.42	NA	0	NA	0	0.511	0.03232	0.061011	-1.29	-	1	8.99111e-06	4.71576e-06	11	-
chr1_10947665_A/G	chr1	10947665	G	ENSG00000175262	ENST00000377004	stop_lost	2509	2470	824	R	Tga	Cga	A	-1	SNV	C1orf127	protein_coding	YES	MANE_Select	NM_001170754.2	ENSP00000366203	-	12/13	c.2470T>C	p.Ter824ArgextTer22	9.88077201765365e-05	1.947e-05	-0.422599	-0.84481	0.335	0.473839303438363	1.899871	-1.21	0.16	2.859e-05	0	0	-0.846	0.0045	0.074636	-0.46	-	1	3.48476e-05	2.68374e-05	22	-
chr1_11846011_A/G	chr1	11846011	G	ENSG00000175206	ENST00000376480	stop_lost	553	454	152	R	Tga	Cga	A	-1	SNV	NPPA	protein_coding	YES	MANE_Select	NM_006172.4	ENSP00000365663	-	3/3	c.454T>C	p.Ter152ArgextTer2	0.164071659710172	0.4159	-0.579502	-0.461371	12.66	0.790296025254548	4.355228	0.954	0.1	0.1554	0.206	0.998	0.328	0.00117	0.093477	1.75	Benign	22231	0.408234	0.152622	2	P01160
chr1_12847410_A/T	chr1	12847410	T	ENSG00000179172	ENST00000317869	stop_lost	1101	880	294	K	Taa	Aaa	A	-1	SNV	HNRNPCL1	protein_coding	YES	MANE_Select	NM_001013631.3	ENSP00000365370	-	2/2	c.880T>A	p.Ter294LysextTer?	6.13823300732496e-05	0.0001679	-0.298114	-0.665997	0.915	0.367978695099598	1.830075	-0.244	0.06	6.813e-05	0.009	1	2.181	0.42504	0.074636	-7.3	-	5	0.000164799	7.09513e-05	?	O60812
chr1_12938675_T/A	chr1	12938675	A	ENSG00000232423	ENST00000376189	stop_lost	1517	1431	477	C	tgA	tgT	T	-1	SNV	PRAMEF6	protein_coding	YES	MANE_Select	NM_001010889.2	ENSP00000365360	-	4/4	c.1431A>T	p.Ter477CysextTer24	0	0	-0.731868	-0.874495	1.453	0.265925522994167	1.616965	-2.15	0.005	2.859e-05	0.009	0	-0.926	0.00062	0.074636	0.81	-	0	0.00112215	6.46705e-05	24	Q5VXH4
chr1_13049809_C/A	chr1	13049809	A	ENSG00000274764	ENST00000436041	stop_lost	1614	1436	479	L	tGa	tTa	C	-1	SNV	PRAMEF27	protein_coding	YES	MANE_Select	NM_001300891.2	ENSP00000393136	-	4/4	c.1436G>T	p.Ter479LeuextTer24	0	0	-0.603874	-1.1052	0.352	0.357901125151571	1.208971	-2	NA	0	0.012	0	-2.303	0.00186	0.061011	-0.78	-	1	1.86779e-06	1.43317e-06	24	A3QJZ7
chr1_13049809_C/G	chr1	13049809	G	ENSG00000274764	ENST00000436041	stop_lost	1614	1436	479	S	tGa	tCa	C	-1	SNV	PRAMEF27	protein_coding	YES	MANE_Select	NM_001300891.2	ENSP00000393136	-	4/4	c.1436G>C	p.Ter479SerextTer24	0	0	-0.609729	-1.11361	0.111	0.461197735390369	1.208971	-2	NA	0	0.012	0	-2.303	0.00082	0.061011	-0.61	-	1	7.47112e-06	5.7328e-06	24	A3QJZ7
chr1_43352772_A/G	chr1	43352772	G	ENSG00000117400	ENST00000372470	stop_lost	1939	1908	636	W	tgA	tgG	A	1	SNV	MPL	protein_coding	YES	MANE_Select	NM_005373.3	ENSP00000361548	-	12/12	c.1908A>G	p.Ter636TrpextTer13	0	0.000279	-0.503701	-0.552656	10.47	0.803752268640042	4.010345	1.47	0.03	1.034e-05	0.208	0.252	0.161	0.03407	0.078448	-3.52	Conflicting_classifications_of_pathogenicity	1	0.00334269	9.54144e-05	13	P40238
chr1_45509214_G/C	chr1	45509214	C	ENSG00000132763	ENST00000401061	stop_lost	881	848	283	S	tGa	tCa	G	1	SNV	MMACHC	protein_coding	YES	MANE_Select	NM_015506.3	ENSP00000383840	-	4/4	c.848G>C	p.Ter283SerextTer14	0.000109332343820403	0.007634	-0.478113	-0.594551	12.11	0.74051517368529	7.102379	3.51	0.715	0.0002409	0.23	0.962	1.351	0.82688	0.160901	-5.41	Conflicting_classifications_of_pathogenicity	1	0.00329924	0.000232352	14	Q9Y4U1
chr1_45509214_G/T	chr1	45509214	T	ENSG00000132763	ENST00000401061	stop_lost	881	848	283	L	tGa	tTa	G	1	SNV	MMACHC	protein_coding	YES	MANE_Select	NM_015506.3	ENSP00000383840	-	4/4	c.848G>T	p.Ter283LeuextTer14	0.000168968167722442	0.00549	-0.519086	-0.513281	14.17	0.756909853416667	7.102379	3.51	0.315	0.001648	0.23	0.962	1.351	0.82175	0.160901	-5.66	Conflicting_classifications_of_pathogenicity	4	0.00611789	0.000230493	14	Q9Y4U1
chr1_45569955_G/C	chr1	45569955	C	ENSG00000117448	ENST00000351829	stop_lost	1313	977	326	S	tGa	tCa	G	1	SNV	AKR1A1	protein_coding	YES	MANE_Select	NM_153326.3	ENSP00000312606	-	9/9	c.977G>C	p.Ter326SerextTer?	7.11743772241993e-05	0.000372	-0.326494	-0.406438	15.07	0.851087830295623	16.52696	4.93	0.865	1.947e-05	0.205	1	2.803	0.95299	0.17398	-8.65	-	1	0.000245076	2.91181e-05	?	P14550
chr1_46547732_A/G	chr1	46547732	G	ENSG00000162456	ENST00000481882	stop_lost	805	373	125	R	Tga	Cga	A	-1	SNV	KNCN	protein_coding	YES	MANE_Select	NM_001322255.2	ENSP00000419705	-	4/4	c.373T>C	p.Ter125ArgextTer4	0.000911935895391485	0.01359	-0.372965	-0.296838	15.73	0.802182539809241	7.356631	2.47	0.015	0.0009388	0.003	0.994	3.877	0.83954	0.095506	-6.04	-	10	0.0131439	0.000675177	4	A6PVL3
chr1_52608423_T/A	chr1	52608423	A	ENSG00000116157	ENST00000361314	stop_lost	601	562	188	K	Taa	Aaa	T	1	SNV	GPX7	protein_coding	YES	MANE_Select	NM_015696.5	ENSP00000354677	-	3/3	c.562T>A	p.Ter188LysextTer32	0	0.0008598	-0.224311	-0.18534	16.53	0.557168619872731	14.43458	5.46	0.84	2.555e-05	0.09	1	7.465	0.99496	0.322412	-10.56	-	1	0.000789363	4.48343e-05	32	Q96SL4
chr1_59762582_T/C	chr1	59762582	C	ENSG00000172456	ENST00000303721	stop_lost	1725	1654	552	R	Tga	Cga	T	1	SNV	FGGY	protein_coding	YES	MANE_Select	NM_018291.5	ENSP00000305922	-	16/16	c.1654T>C	p.Ter552ArgextTer28	5.83334143519644e-05	0.0009302	-0.298969	-0.347215	15.73	0.823669170121977	5.636741	3.73	0.81	6.693e-06	0.077	0.977	4.158	0.94753	0.162113	-6.32	-	1	0.00350212	9.79364e-05	28	Q96C11
chr1_59990675_A/C	chr1	59990675	C	ENSG00000162598	ENST00000371201	stop_lost	1747	1639	547	G	Tga	Gga	A	-1	SNV	C1orf87	protein_coding	YES	MANE_Select	NM_152377.3	ENSP00000360244	-	12/12	c.1639T>G	p.Ter547GlyextTer1	0	0.0006449	-0.284259	-0.340118	14.69	0.656318289065853	15.00914	4.89	0.345	1.764e-05	0.03	1	5.79	0.84767	0.078448	-9.98	-	1	0.00028552	1.61103e-05	1	Q8N0U7
chr1_64834564_A/G	chr1	64834564	G	ENSG00000162434	ENST00000342505	stop_lost	3757	3463	1155	Q	Taa	Caa	A	-1	SNV	JAK1	protein_coding	YES	MANE_Select	NM_002227.4	ENSP00000343204	-	25/25	c.3463T>C	p.Ter1155GlnextTer3	0	0.004084	-0.389793	-0.332421	13.77	0.872597982294759	7.703528	3.09	0.15	0.0001705	0.122	0.997	0.979	0.91848	0.322412	-3.71	Likely_benign	4	0.00467518	0.000286415	3	P23458
chr1_74469879_T/A	chr1	74469879	A	ENSG00000162621	ENST00000294635	stop_lost	3855	3743	1248	L	tAa	tTa	T	-1	SNV	LRRC53	protein_coding	YES	MANE_Select	NM_001382280.1	ENSP00000294635	-	5/5	c.3743A>T	p.Ter1248LeuextTer14	6.93481276005548e-05	0.0107	-0.339929	-0.249385	2.7	0.585408384038267	NA	-0.232	NA	0	0.006	0.813	-0.017	0.55646	0.061011	-5.06	-	2	0.00994227	0.00071895	14	A6NM62
chr1_84555000_C/G	chr1	84555000	G	ENSG00000117151	ENST00000370630	stop_lost	1182	1157	386	S	tGa	tCa	C	-1	SNV	CTBS	protein_coding	YES	MANE_Select	NM_004388.3	ENSP00000359664	-	7/7	c.1157G>C	p.Ter386SerextTer40	0.000635381682853771	0.002545	-0.736312	-0.860517	5.855	0.730027536044771	2.753512	-0.273	0.61	0.0003954	0.083	0	-0.073	0.3212	0.294411	-3.61	-	0	0.00181758	0.000295817	40	Q01459
chr1_109693294_A/G	chr1	109693294	G	ENSG00000134184	ENST00000309851	stop_lost	713	656	219	W	tAg	tGg	A	1	SNV	GSTM1	protein_coding	YES	MANE_Select	NM_000561.4	ENSP00000311469	-	8/8	c.656A>G	p.Ter219TrpextTer89	0	0	-0.0504762	-0.310282	17.06	0.879000498490331	9.188076	3.58	0.825	0	0.298	0.965	3.726	0.96893	0.294411	-5.65	-	1	0	2.52156e-06	89	P09488
chr1_120793818_T/C	chr1	120793818	C	ENSG00000286106	ENST00000624419	stop_lost	1056	823	275	R	Tga	Cga	T	1	SNV	NOTCH2NLR	protein_coding	YES	MANE_Select	NM_001396072.1	ENSP00000485259	-	5/5	c.823T>C	p.Ter275ArgextTer16	0	0	NA	NA	8.043	NA	NA	NA	NA	0	NA	0.844	0.254	NA	NA	-3.95	-	1	5.01153e-05	2.14274e-06	16	A0A096LNW5
chr1_149554737_A/T	chr1	149554737	T	ENSG00000271383	ENST00000651566	stop_lost	12317	11531	3844	L	tAg	tTg	A	1	SNV	NBPF19	protein_coding	YES	MANE_Select	NM_001351365.2	ENSP00000498781	-	94/94	c.11531A>T	p.Ter3844LeuextTer22	0	9.306e-05	NA	NA	0.271	NA	NA	NA	NA	0	0.013	0.009	-0.886	0.02412	0.294411	-5.83	-	2	5.0994e-06	3.73109e-06	22	A0A087WUL8
chr1_149791515_T/G	chr1	149791515	G	ENSG00000150337	ENST00000369168	stop_lost	1173	1123	375	E	Tag	Gag	T	1	SNV	FCGR1A	protein_coding	YES	MANE_Select	NM_000566.4	ENSP00000358165	-	6/6	c.1123T>G	p.Ter375GluextTer47	4.80122911465335e-05	0	-0.84393	-0.98995	0.003	0.553568611854321	1.314095	-2.79	0.265	0.0001898	0.088	0	-2.625	0.00394	0.053691	0.37	-	0	0.00230068	0.000121708	47	P12314
chr1_152350611_C/G	chr1	152350611	G	ENSG00000143520	ENST00000388718	stop_lost	7248	7175	2392	S	tGa	tCa	C	-1	SNV	FLG2	protein_coding	YES	MANE_Select	NM_001014342.3	ENSP00000373370	-	3/3	c.7175G>C	p.Ter2392SerextTer172	0.000263550110872805	0.005107	-0.786755	-0.900977	0.162	0.683508212475456	2.73856	-0.413	0.31	0.0003917	0.006	0	0.008	0.02722	0.061011	-1.45	Uncertain_significance	0	0.00551211	0.000295617	172	Q5D862
chr1_152798137_T/G	chr1	152798137	G	ENSG00000172155	ENST00000326233	stop_lost	416	343	115	G	Tga	Gga	T	1	SNV	LCE1D	protein_coding	YES	MANE_Select	NM_178352.3	ENSP00000316737	-	2/2	c.343T>G	p.Ter115GlyextTer4	0.0373832279197061	0.1021	-0.532132	-0.461491	6.887	0.564488463785114	6.107688	2.35	0.025	0.03532	0.007	0.933	0.83	0.36295	0.074636	-5.6	-	4991	0.090526	0.0504216	4	Q5T752
chr1_153149891_A/G	chr1	153149891	G	ENSG00000159516	ENST00000368748	stop_lost	280	220	74	Q	Taa	Caa	A	-1	SNV	SPRR2G	protein_coding	YES	MANE_Select	NM_001014291.4	ENSP00000357737	-	2/2	c.220T>C	p.Ter74GlnextTer3	0.000220118864186661	0.01806	-0.588199	-0.607295	4.65	0.649029390082439	3.616684	3.02	0.045	0.0004556	0.02	0.001	0.364	0.18046	0.061011	-1.87	-	18	0.0117712	0.000732314	3	Q9BYE4
chr1_153614885_T/C	chr1	153614885	C	ENSG00000189334	ENST00000344616	stop_lost	424	315	105	W	tgA	tgG	T	-1	SNV	S100A14	protein_coding	YES	MANE_Select	NM_020672.3	ENSP00000340463	-	4/4	c.315A>G	p.Ter105TrpextTer19	0	0	-0.401838	-0.509012	17.35	0.610681668231974	4.197758	3.81	0.565	3.65e-06	0.255	0.929	1.324	0.64072	0.162113	-5.42	-	1	0.000142955	8.06094e-06	19	Q9HCY8
chr1_153930297_C/A	chr1	153930297	A	ENSG00000198837	ENST00000361217	stop_lost	4932	4491	1497	Y	taG	taT	C	-1	SNV	DENND4B	protein_coding	YES	MANE_Select	NM_014856.3	ENSP00000354597	-	28/28	c.4491G>T	p.Ter1497TyrextTer3	0.000284697508896797	0.0001003	-0.358949	-0.556411	13.3	0.808133409693698	9.519419	4.23	0.275	1.338e-05	0.006	0.665	1.225	0.6812	0.256867	-4.55	-	0	0.00115094	2.35539e-05	3	O75064
chr1_159062694_A/C	chr1	159062694	C	ENSG00000163568	ENST00000368130	stop_lost	1184	1030	344	E	Tag	Gag	A	-1	SNV	AIM2	protein_coding	YES	MANE_Select	NM_004833.3	ENSP00000357112	-	6/6	c.1030T>G	p.Ter344GluextTer16	0.00344049784843013	0.03672	-0.825326	-0.930437	0.211	0.55497350109341	2.13258	-1.92	0.045	0.002663	0.31	0.001	-0.06	0.01249	0.295142	0.13	Conflicting_classifications_of_pathogenicity	53	0.0362435	0.00197058	16	O14862
chr1_160827814_T/G	chr1	160827814	G	ENSG00000122224	ENST00000263285	stop_lost	1980	1966	656	G	Tga	Gga	T	1	SNV	LY9	protein_coding	YES	MANE_Select	NM_002348.4	ENSP00000263285	-	10/10	c.1966T>G	p.Ter656GlyextTer59	0.000110704077935671	0.001272	-0.596193	-0.635643	7.886	0.715034261209745	6.142078	3.58	0.85	0.0001107	0.139	0.747	2.433	0.46704	0.164513	-6.56	-	0	0.00120825	8.59433e-05	59	Q9HBG7
chr1_161624517_A/G	chr1	161624517	G	ENSG00000162747	ENST00000650385	stop_lost	782	700	234	R	Tga	Cga	A	-1	SNV	FCGR3B	protein_coding	YES	MANE_Select	NM_001244753.2	ENSP00000497461	-	5/5	c.700T>C	p.Ter234ArgextTer21	0.000421514078570224	0	-0.654431	-0.788235	12.34	0.564963082456508	2.14906	-0.309	0.03	4.745e-05	0.292	0.015	1.485	0.00232	0.074388	0.98	-	16	0.00144801	0.00015681	21	O75015
chr1_161727661_G/C	chr1	161727661	C	ENSG00000162746	ENST00000367948	stop_lost	1514	1280	427	S	tGa	tCa	G	1	SNV	FCRLB	protein_coding	YES	MANE_Select	NM_001002901.4	ENSP00000356925	-	8/8	c.1280G>C	p.Ter427SerextTer48	0.000113584734211722	0.001687	-0.702153	-0.787847	14.42	0.6906837426966	4.094051	1.18	0.47	0.0001125	0.011	0.94	1.128	0.4772	0.119682	-5.21	-	1	0.00136664	6.98871e-05	48	Q6BAA4
chr1_175147071_A/G	chr1	175147071	G	ENSG00000120332	ENST00000239462	stop_lost	4038	3900	1300	W	tgA	tgG	A	1	SNV	TNN	protein_coding	YES	MANE_Select	NM_022093.2	ENSP00000239462	-	19/19	c.3900A>G	p.Ter1300TrpextTer4	0.000125782647584973	0.001186	-0.492595	-0.547831	14.17	0.841373659893245	7.859956	5.47	0.46	8.638e-05	0.231	0.998	3.508	0.43196	0.116174	-6.47	-	0	0.00103805	6.03544e-05	4	Q9UQP3
chr1_196831997_T/C	chr1	196831997	C	ENSG00000244414	ENST00000320493	stop_lost	1105	991	331	Q	Tag	Cag	T	1	SNV	CFHR1	protein_coding	YES	MANE_Select	NM_002113.3	ENSP00000314299	-	6/6	c.991T>C	p.Ter331GlnextTer4	0	0	-0.338324	-0.723755	0.001	0.510380837157058	2.866341	2.23	0.17	1.217e-06	0.108	0	-0.846	0.01091	0.294411	-0.52	-	1	1.7771e-06	1.31453e-06	4	Q03591
chr1_196831998_A/G	chr1	196831998	G	ENSG00000244414	ENST00000320493	stop_lost	1106	992	331	W	tAg	tGg	A	1	SNV	CFHR1	protein_coding	YES	MANE_Select	NM_002113.3	ENSP00000314299	-	6/6	c.992A>G	p.Ter331TrpextTer4	0.000255741394302082	0.008523	-0.589739	-0.721862	0.618	0.518957759975316	2.834318	2.18	0.13	0.0003869	0.108	0	-0.967	0.00656	0.294411	-0.85	Conflicting_classifications_of_pathogenicity	121	0.00486527	0.000416723	4	Q03591
chr1_197008681_T/C	chr1	197008681	C	ENSG00000134389	ENST00000256785	stop_lost	1817	1708	570	R	Tga	Cga	T	1	SNV	CFHR5	protein_coding	YES	MANE_Select	NM_030787.4	ENSP00000256785	-	10/10	c.1708T>C	p.Ter570ArgextTer37	3.40971085651937e-05	0.0003721	-0.721286	-0.953844	0.137	0.262528692587788	0.6383016	-6.79	0.21	6.691e-06	0.04	0	-1.125	0.01915	0.061011	-3.86	Uncertain_significance	0	0.00270162	7.63816e-05	37	Q9BXR6
chr1_209675995_A/G	chr1	209675995	G	ENSG00000123689	ENST00000367029	stop_lost	481	311	104	W	tAg	tGg	A	1	SNV	G0S2	protein_coding	YES	MANE_Select	NM_015714.4	ENSP00000355996	-	2/2	c.311A>G	p.Ter104TrpextTer58	0.000595581353576797	0.004691	-0.398656	-0.343775	17.03	0.813994584939769	6.255652	4.75	0.915	0.0003194	0.039	0.995	3.446	0.95559	0.110573	-5.55	-	0	0.00482487	0.000246681	58	P27469
chr1_225399269_A/T	chr1	225399269	T	ENSG00000185842	ENST00000682510	stop_lost	14048	13854	4618	Y	taA	taT	A	1	SNV	DNAH14	protein_coding	YES	MANE_Select	NM_001367479.1	ENSP00000508305	-	86/86	c.13854A>T	p.Ter4618TyrextTer?	0.00840092699884125	0.008968	-0.2275	-0.0891767	2.709	0.778261138646706	2.11208	3.25	0.17	0.007689	0.159	0.998	1.885	0.8519	0.106106	-6.92	Likely_benign	61	0.00925041	0.00798223	?	-
chr1_241592151_T/C	chr1	241592151	C	ENSG00000117009	ENST00000366559	stop_lost	1526	1459	487	R	Tga	Cga	T	1	SNV	KMO	protein_coding	YES	MANE_Select	NM_003679.5	ENSP00000355517	-	15/15	c.1459T>C	p.Ter487ArgextTer1	0.000468305110145362	0.002855	-0.633617	-0.684713	3.794	0.522615514905414	1.793925	-5.1	0.04	0.0002178	0.126	0	-0.279	0.04043	0.464309	-1.55	-	0	0.00310791	0.000152566	1	O15229
chr1_247876487_T/C	chr1	247876487	C	ENSG00000162722	ENST00000366481	stop_lost	1519	1459	487	Q	Taa	Caa	T	1	SNV	TRIM58	protein_coding	YES	MANE_Select	NM_015431.4	ENSP00000355437	-	6/6	c.1459T>C	p.Ter487GlnextTer9	0.00675542127851818	0.007963	-0.625911	-0.660178	6.284	0.729644428850369	3.883961	3.18	0.05	0.007329	0.003	0.003	0.216	0.04657	0.061011	-1.58	-	41	0.00904476	0.00742115	9	Q8NG06
chr1_248204004_T/A	chr1	248204004	A	ENSG00000228198	ENST00000641626	stop_lost	992	937	313	R	Tga	Aga	T	1	SNV	OR2M3	protein_coding	YES	MANE_Select	NM_001004689.2	ENSP00000492981	-	2/2	c.937T>A	p.Ter313ArgextTer3	0.00617510073787221	0.006379	-0.792485	-0.89487	1.909	0.374443507033159	1.162773	-0.316	0.01	0.006055	0	0	0.041	0.00949	0.061011	-1.63	-	48	0.00771899	0.00613174	3	Q8NG83
chr1_248453771_A/G	chr1	248453771	G	ENSG00000196240	ENST00000641925	stop_lost	1451	974	325	W	tAg	tGg	A	1	SNV	OR2T2	protein_coding	YES	MANE_Select	NM_001004136.2	ENSP00000492947	-	4/4	c.974A>G	p.Ter325TrpextTer81	0	0	-0.728242	-0.825322	8.732	0.567415337870835	3.061922	1.54	NA	1.399e-05	NA	0.006	2.001	0.01755	0.069865	-1.48	-	0	0.00204356	5.48964e-05	81	Q6IF00
chr1_248626178_C/A	chr1	248626178	A	ENSG00000279301	ENST00000641193	stop_lost	1149	951	317	Y	taG	taT	C	-1	SNV	OR2T11	protein_coding	YES	MANE_Select	NM_001001964.2	ENSP00000492951	-	2/2	c.951G>T	p.Ter317TyrextTer36	6.7999456004352e-05	5.552e-05	-0.550295	-0.915746	6.424	0.657374708285537	2.353378	0.663	NA	2.982e-05	NA	0.02	-0.097	0.01438	0.061011	-3.76	-	2	3.79572e-05	2.88199e-05	36	Q8NH01
chr10_1019517_T/A	chr10	1019517	A	ENSG00000148377	ENST00000277517	stop_lost	749	684	228	C	tgA	tgT	T	-1	SNV	IDI2	protein_coding	YES	MANE_Select	NM_033261.3	ENSP00000277517	-	5/5	c.684A>T	p.Ter228CysextTer23	0.0315622715086522	0.1425	-0.643292	-0.578689	3.849	0.583845897538723	3.58015	3.3	0.14	0.02942	0.004	0.192	1.403	0.39945	0.256867	-9.33	-	1269	0.141369	0.0284051	23	Q9BXS1
chr10_42831095_G/T	chr10	42831095	T	ENSG00000165733	ENST00000374518	stop_lost	3917	3848	1283	L	tGa	tTa	G	1	SNV	BMS1	protein_coding	YES	MANE_Select	NM_014753.4	ENSP00000363642	-	23/23	c.3848G>T	p.Ter1283LeuextTer14	0	3.894e-06	-0.49395	-0.947302	1.249	0.62487634310071	2.034317	-1.05	0.275	1.217e-06	0.005	0.017	-0.164	0.69247	0.295142	-1.63	-	1	2.71422e-05	2.56588e-06	14	Q14692
chr10_43481922_A/G	chr10	43481922	G	ENSG00000243660	ENST00000437590	stop_lost	869	624	208	W	tgA	tgG	A	1	SNV	ZNF487	protein_coding	YES	MANE_Select	NM_001355444.3	ENSP00000392335	-	4/4	c.624A>G	p.Ter208TrpextTer2	0.000213523131672598	0.01256	-0.732458	-0.817937	8.284	0.819617255349761	2.605647	0.342	0.01	0	NA	0	-0.588	0.00065	0.074636	-3.73	-	6	0.00286338	0.000298435	2	-
chr10_45825917_A/G	chr10	45825917	G	ENSG00000188234	ENST00000616763	stop_lost	2212	2059	687	Q	Tag	Cag	A	-1	SNV	AGAP4	protein_coding	YES	MANE_Select	NM_001276343.3	ENSP00000483751	-	8/8	c.2059T>C	p.Ter687GlnextTer50	0	0	-0.341517	-0.728342	7.907	0.414059561521564	2.946092	NA	0.165	1.217e-05	0.009	0.987	0.108	0.09662	0.294411	-0.34	-	6	2.0604e-05	1.52569e-05	50	-
chr10_47502154_A/G	chr10	47502154	G	ENSG00000204172	ENST00000452145	stop_lost	2087	1975	659	R	Tga	Cga	A	-1	SNV	AGAP9	protein_coding	YES	MANE_Select	NM_001190810.1	ENSP00000392206	-	8/8	c.1975T>C	p.Ter659ArgextTer31	0	3.493e-05	NA	NA	14.38	0.87309883685568	3.62407	NA	0.375	1.035e-05	0.014	1	4.718	0.7302	0.294411	-5.14	-	1	8.66674e-06	7.01979e-06	31	Q5VTM2
chr10_68231220_T/G	chr10	68231220	G	ENSG00000179774	ENST00000373673	stop_lost	894	458	153	S	tAg	tCg	T	-1	SNV	ATOH7	protein_coding	YES	MANE_Select	NM_145178.4	ENSP00000362777	-	1/1	c.458A>C	p.Ter153SerextTer32	0	0	-0.246022	-0.59117	16.73	0.722886347880503	5.68519	2.75	0.655	3.042e-06	0.065	0.993	1.829	0.80398	0.11394	-6.52	-	1	5.26773e-06	3.91874e-06	32	Q8N100
chr10_72885820_T/A	chr10	72885820	A	ENSG00000156026	ENST00000373053	stop_lost	1063	1054	352	R	Tga	Aga	T	1	SNV	MCU	protein_coding	YES	MANE_Select	NM_138357.3	ENSP00000362144	-	8/8	c.1054T>A	p.Ter352ArgextTer6	0.00233635366299622	0.002636	-0.270252	-0.158641	18.03	0.860684753403196	14.85095	5.13	0.24	0.002458	0.383	1	6.125	0.97367	0.360877	-9.63	Benign	19	0.00324575	0.00295971	6	Q8NE86
chr10_94852914_A/C	chr10	94852914	C	ENSG00000165841	ENST00000371321	stop_lost	1498	1473	491	C	tgA	tgC	A	1	SNV	CYP2C19	protein_coding	YES	MANE_Select	NM_000769.4	ENSP00000360372	-	9/9	c.1473A>C	p.Ter491CysextTer26	0.000427867629980074	0.001409	-0.632476	-0.688548	6.374	0.589818057785549	3.956278	2.67	0.245	8.759e-05	0.085	0.011	2.388	0.28899	0.080754	-3.64	drug_response	0	0.00125487	6.25851e-05	26	P33261
chr10_101609471_G/T	chr10	101609471	T	ENSG00000166171	ENST00000370151	stop_lost	628	612	204	Y	taG	taT	G	1	SNV	DPCD	protein_coding	YES	MANE_Select	NM_015448.3	ENSP00000359170	-	6/6	c.612G>T	p.Ter204TyrextTer?	0.000140000908113999	0.003142	-0.644798	-0.703287	12.56	0.780231443902901	6.383706	3.95	0.79	0.0001892	0.011	0.959	1.606	0.9196	0.283894	-6.74	-	1	0.00283796	0.000140037	?	Q9BVM2
chr10_123688158_T/G	chr10	123688158	G	ENSG00000154478	ENST00000284674	stop_lost	1065	1012	338	G	Tga	Gga	T	1	SNV	GPR26	protein_coding	YES	MANE_Select	NM_153442.4	ENSP00000284674	-	3/3	c.1012T>G	p.Ter338GlyextTer11	0.000300475213106267	0.003691	-0.428771	-0.38882	14.36	0.673833539918498	13.20474	5.59	0.28	0.0002643	0.005	1	2.368	0.91847	0.051841	-7.59	-	2	0.00379913	0.00018637	11	Q8NDV2
chr10_133625101_A/C	chr10	133625101	C	ENSG00000225899	ENST00000425520	stop_lost	888	835	279	G	Tga	Gga	A	-1	SNV	FRG2B	protein_coding	YES	MANE_Select	NM_001080998.2	ENSP00000401310	-	4/4	c.835T>G	p.Ter279GlyextTer3	0.0340281612368857	0	-0.559097	-1.04088	0.014	0.147570397833028	0.9979239	-0.218	0.005	0.0004266	0.012	0.011	-2.354	2e-04	0.061011	0.27	-	17	0.162709	0.0738218	3	Q96QU4
chr11_2317923_G/T	chr11	2317923	T	ENSG00000064201	ENST00000182290	stop_lost	1099	962	321	L	tGa	tTa	G	1	SNV	TSPAN32	protein_coding	YES	MANE_Select	NM_139022.3	ENSP00000182290	-	10/10	c.962G>T	p.Ter321LeuextTer26	0	0.000215	-0.626229	-0.836987	4.073	0.74238608173703	2.07263	-1.77	0.215	1.037e-05	0.011	0	-0.293	0.00765	0.053691	-1.47	-	1	0.000288307	2.28598e-05	26	Q96QS1
chr11_4233872_A/G	chr11	4233872	G	ENSG00000284018	ENST00000639584	stop_lost	656	585	195	W	tgA	tgG	A	1	SNV	SSU72L5	protein_coding	YES	MANE_Select	NM_001414002.2	ENSP00000491949	-	1/1	c.585A>G	p.Ter195TrpextTer14	8.43028157140448e-05	0	NA	NA	14.43	0.693013310338081	NA	1.3	NA	0	NA	1	7.257	0.95062	0.061011	-8.35	-	1	0.000475737	0.000174648	14	A0A1W2PQ64
chr11_4338661_C/G	chr11	4338661	G	ENSG00000284438	ENST00000524542	stop_lost	685	584	195	S	tGa	tCa	C	-1	SNV	SSU72L1	protein_coding	YES	MANE_Select	NM_001413998.1	ENSP00000491894	-	1/1	c.584G>C	p.Ter195SerextTer14	0	0	NA	NA	7.788	0.738196690636837	NA	1.05	NA	0	NA	1	2.576	0.83528	0.061011	-9.56	-	3	0.000351448	3.1854e-05	14	A0A1W2PQ27
chr11_5664810_C/G	chr11	5664810	G	ENSG00000132256	ENST00000380034	stop_lost	1749	1481	494	S	tGa	tCa	C	-1	SNV	TRIM5	protein_coding	YES	MANE_Select	NM_033034.3	ENSP00000369373	-	8/8	c.1481G>C	p.Ter494SerextTer50	0	0	-0.597494	-0.973491	1.818	0.421520877576165	2.017291	-1.85	0.275	6.083e-07	0.068	0.001	-0.166	0.14707	0.295142	-2.22	-	1	4.73608e-05	2.52544e-06	50	Q9C035
chr11_6482219_T/G	chr11	6482219	G	ENSG00000132286	ENST00000254616	stop_lost	326	310	104	E	Tag	Gag	T	1	SNV	TIMM10B	protein_coding	YES	MANE_Select	NM_012192.4	ENSP00000254616	-	3/3	c.310T>G	p.Ter104GluextTer16	0.00255049158967069	0.03293	-0.446895	-0.390335	17.47	0.799217196269066	10.67835	4.62	0.195	0.002974	0.023	0.465	1.785	0.50581	0.12189	-6.16	-	50	0.0339392	0.00219028	16	Q9Y5J6
chr11_6571986_A/T	chr11	6571986	T	ENSG00000179532	ENST00000254579	stop_lost	14842	14262	4754	C	tgA	tgT	A	1	SNV	DNHD1	protein_coding	YES	MANE_Select	NM_144666.3	ENSP00000254579	-	43/43	c.14262A>T	p.Ter4754CysextTer6	0.000130219637121278	0.000215	-0.0864057	-0.177249	12.31	0.4581685638533	8.489596	4.75	0.265	3.954e-05	0.089	0.999	2.827	0.8773	0.322412	-7.28	-	1	0.000167954	4.51189e-05	6	Q96M86
chr11_31789936_A/T	chr11	31789936	T	ENSG00000007372	ENST00000640368	stop_lost	1833	1309	437	K	Taa	Aaa	A	-1	SNV	PAX6	protein_coding	YES	MANE_Select	NM_001368894.2	ENSP00000492024	-	14/14	c.1309T>A	p.Ter437LysextTer14	0	0	-0.0117127	-0.254601	13.4	0.623491557666947	17.72279	6.16	0.985	0	0.658	1	4.953	0.98869	0.553676	-8.42	Likely_benign	0	0.0249353	0.0040276	14	P26367
chr11_34882719_A/T	chr11	34882719	T	ENSG00000149089	ENST00000395787	stop_lost	822	727	243	K	Taa	Aaa	A	-1	SNV	APIP	protein_coding	YES	MANE_Select	NM_015957.4	ENSP00000379133	-	7/7	c.727T>A	p.Ter243LysextTer11	6.93481276005548e-05	0.003009	-0.696044	-0.778143	15.72	0.657077366566728	9.811495	5.36	0.095	7.606e-05	0.01	1	7.774	0.98063	0.322412	-9.88	-	2	0.00230643	0.000137387	11	Q96GX9
chr11_47571628_G/C	chr11	47571628	C	ENSG00000110536	ENST00000326674	stop_lost	629	605	202	S	tGa	tCa	G	1	SNV	PTPMT1	protein_coding	YES	MANE_Select	NM_175732.3	ENSP00000325958	-	4/4	c.605G>C	p.Ter202SerextTer38	0.00359154070122217	0.02042	-0.708386	-0.774067	11.32	0.812049822148461	4.519161	3.83	0.105	0.004004	0.047	0.275	1.475	0.23723	0.295142	-4.5	Benign	45	0.0214336	0.00438681	38	Q8WUK0
chr11_55269336_T/A	chr11	55269336	A	ENSG00000150244	ENST00000417545	stop_lost	786	673	225	R	Tga	Aga	T	1	SNV	TRIM48	protein_coding	YES	MANE_Select	NM_024114.5	ENSP00000402414	-	5/6	c.673T>A	p.Ter225ArgextTer167	0	4.677e-05	-0.411513	-0.828887	1.108	0.781382488459318	1.411992	0.596	0.085	5.477e-06	0.004	0.001	-2.973	0.00044	0.061011	1.99	-	1	4.07952e-05	2.5411e-06	167	Q8IWZ4
chr11_55269336_T/C	chr11	55269336	C	ENSG00000150244	ENST00000417545	stop_lost	786	673	225	R	Tga	Cga	T	1	SNV	TRIM48	protein_coding	YES	MANE_Select	NM_024114.5	ENSP00000402414	-	5/6	c.673T>C	p.Ter225ArgextTer167	0.0351061254136067	0.06793	-0.794661	-0.86869	1.207	0.776085214133498	1.411992	0.596	0.085	0.06122	0.004	0.001	-2.973	0.00014	0.061011	-0.1	-	12903	0.0706781	0.0650494	167	Q8IWZ4
chr11_55651838_A/G	chr11	55651838	G	ENSG00000174982	ENST00000641692	stop_lost	1195	935	312	W	tAg	tGg	A	1	SNV	OR4S2	protein_coding	YES	MANE_Select	NM_001004059.3	ENSP00000493389	-	2/2	c.935A>G	p.Ter312TrpextTer6	0	0	-0.327464	-0.708156	8.32	0.490392421621058	2.43402	1.99	NA	0	NA	0.053	3.184	0.00907	0.061011	-3.87	-	1	2.05734e-06	1.4906e-06	6	Q8NH73
chr11_55891632_A/C	chr11	55891632	C	ENSG00000124900	ENST00000449290	stop_lost	1451	1359	453	C	tgA	tgC	A	1	SNV	TRIM51	protein_coding	YES	MANE_Select	NM_032681.4	ENSP00000395086	-	7/7	c.1359A>C	p.Ter453CysextTer31	0.000143520068889633	0.005089	-0.709559	-0.797247	3.423	0.46061130364928	2.670048	1.36	0.12	0.0002324	0.012	0.002	0.12	0.00385	0.061011	-1.5	-	2	0.00515635	0.000247393	31	Q9BSJ1
chr11_58215722_A/G	chr11	58215722	G	ENSG00000280204	ENST00000641544	stop_lost	1112	939	313	W	tgA	tgG	A	1	SNV	OR1S1	protein_coding	YES	MANE_Select	NM_001004458.4	ENSP00000493053	-	2/2	c.939A>G	p.Ter313TrpextTer73	0.328918366529075	0.7719	-0.758506	-0.718497	8.307	0.746086690438538	3.21121	2.61	NA	0.3508	NA	0.029	0.942	0.00966	0.061011	-3.33	-	103191	0.730384	0.348336	73	-
chr11_58358127_A/G	chr11	58358127	G	ENSG00000197786	ENST00000357377	stop_lost	943	943	315	Q	Taa	Caa	A	-1	SNV	OR5B17	protein_coding	YES	MANE_Select	NM_001005489.2	ENSP00000349945	-	1/1	c.943T>C	p.Ter315GlnextTer?	0.000586358152069732	0.003448	-0.792685	-0.915405	0.063	0.720652707636635	1.548249	-1.76	0.03	0.0002398	0	0	-2.073	0.01478	0.061011	-1.69	-	1	0.00310868	0.000191827	?	Q8NGF7
chr11_59896213_G/T	chr11	59896213	T	ENSG00000285231	ENST00000646438	stop_lost	609	582	194	Y	taG	taT	G	1	SNV	OOSP3	protein_coding	YES	MANE_Select	NM_001395255.1	ENSP00000495263	-	5/5	c.582G>T	p.Ter194TyrextTer7	0	0.001272	NA	NA	3.293	0.7721183754035	NA	0.918	NA	0	NA	0.135	1.14	0.01339	0.077785	-2.87	-	0	0.00189155	5.02137e-05	7	A0A2R8YFM6
chr11_62392283_A/C	chr11	62392283	C	ENSG00000162174	ENST00000415229	stop_lost	1141	926	309	S	tAa	tCa	A	1	SNV	ASRGL1	protein_coding	YES	MANE_Select	NM_001083926.2	ENSP00000400057	-	7/7	c.926A>C	p.Ter309SerextTer10	0	0.001505	-0.724554	-0.838176	0.636	0.69698026291391	2.091546	-1.17	0.06	5.779e-05	0.012	0.001	-0.287	0.1431	0.295142	-2.08	Uncertain_significance	1	0.00166982	0.00010166	10	Q7L266
chr11_63163826_A/C	chr11	63163826	C	ENSG00000196600	ENST00000306494	stop_lost	2803	1642	548	E	Tag	Gag	A	-1	SNV	SLC22A25	protein_coding	YES	MANE_Select	NM_199352.6	ENSP00000307443	-	12/12	c.1642T>G	p.Ter548GluextTer41	0.000305723137127018	0.001404	-0.409096	-0.825414	0.049	0.793587634665281	3.05392	2.57	0.085	0.0003011	0.005	0	-1.675	0.01517	0.06567	-0.97	-	5	0.000300451	0.000295245	41	Q6T423
chr11_64571042_G/T	chr11	64571042	T	ENSG00000168065	ENST00000301891	stop_lost	1712	1653	551	Y	taG	taT	G	1	SNV	SLC22A11	protein_coding	YES	MANE_Select	NM_018484.4	ENSP00000301891	-	10/10	c.1653G>T	p.Ter551TyrextTer89	0	0.0004299	-0.600367	-0.795615	10.24	0.780345001857743	4.473093	1.27	0.475	1.095e-05	0.149	0.928	1.081	0.3886	0.053691	-5.34	-	1	0.000274466	1.61066e-05	89	Q9NSA0
chr11_72238353_A/G	chr11	72238353	G	ENSG00000165458	ENST00000298229	stop_lost	3995	3777	1259	W	tgA	tgG	A	1	SNV	INPPL1	protein_coding	YES	MANE_Select	NM_001567.4	ENSP00000298229	-	28/28	c.3777A>G	p.Ter1259TrpextTer1	0	0.000215	-0.355349	-0.532875	16.38	0.818129103607312	9.107684	4.71	0.35	6.083e-06	0.135	0.998	4.749	0.2515	0.205481	-7.94	-	1	0.00022678	1.16804e-05	1	O15357
chr11_73235292_A/G	chr11	73235292	G	ENSG00000175591	ENST00000393597	stop_lost	1484	1133	378	W	tAg	tGg	A	1	SNV	P2RY2	protein_coding	YES	MANE_Select	NM_002564.4	ENSP00000377222	-	3/3	c.1133A>G	p.Ter378TrpextTer38	0	1.558e-05	-0.339184	-0.724991	10.91	0.77925201922747	5.523513	3.5	0.795	6.083e-07	0.388	0.005	1.016	0.68554	0.162113	-3.75	-	1	5.23093e-06	3.87171e-06	38	P41231
chr11_75006492_A/T	chr11	75006492	T	ENSG00000162139	ENST00000294064	stop_lost	1514	1386	462	Y	taA	taT	A	1	SNV	NEU3	protein_coding	YES	MANE_Select	NM_006656.6	ENSP00000294064	-	3/3	c.1386A>T	p.Ter462TyrextTer3	0.000972342264477096	0.004618	-0.648513	-0.704602	7.535	0.750652025398887	2.887438	0.896	0.035	0.004677	0.216	0.006	1.002	0.26648	0.322412	-1.52	-	31	0.00604825	0.00478059	3	Q9UQ49
chr11_89973887_T/C	chr11	89973887	C	ENSG00000204450	ENST00000533122	stop_lost	1468	1348	450	R	Tga	Cga	T	1	SNV	TRIM64	protein_coding	YES	MANE_Select	NM_001136486.2	ENSP00000483764	-	7/7	c.1348T>C	p.Ter450ArgextTer20	0	0	-0.464316	-0.904734	7.264	0.718332963568014	NA	1.42	NA	2.434e-06	0.018	0.01	0.41	0.00516	0.061011	-1.46	-	2	1.23285e-05	9.47831e-06	20	A6NGJ6
chr11_93148539_A/C	chr11	93148539	C	ENSG00000180773	ENST00000326402	stop_lost	1672	1513	505	E	Tag	Gag	A	-1	SNV	SLC36A4	protein_coding	YES	MANE_Select	NM_152313.4	ENSP00000317382	-	11/11	c.1513T>G	p.Ter505GluextTer1	5.94071169726133e-05	0.002794	-0.419738	-0.377491	16.33	0.834990100472599	13.22161	5.52	0.225	0.0001423	0.014	1	3.657	0.97273	0.294411	-7.34	-	3	0.00341239	0.000228756	1	Q6YBV0
chr11_102713349_C/G	chr11	102713349	G	ENSG00000118113	ENST00000236826	stop_lost	1502	1403	468	S	tGa	tCa	C	-1	SNV	MMP8	protein_coding	YES	MANE_Select	NM_002424.3	ENSP00000236826	-	10/10	c.1403G>C	p.Ter468SerextTer34	4.34103142906755e-05	0.001163	-0.773351	-0.881307	0.351	0.589815882215289	2.816673	-0.00997	0.175	0.0004612	0.073	0	-0.569	0.0409	0.06567	-4.1	-	0	0.00202186	7.59335e-05	34	P22894
chr11_102863100_C/G	chr11	102863100	G	ENSG00000262406	ENST00000571244	stop_lost	1458	1413	471	Y	taG	taC	C	-1	SNV	MMP12	protein_coding	YES	MANE_Select	NM_002426.6	ENSP00000458585	-	10/10	c.1413G>C	p.Ter471TyrextTer5	0.000157686069562083	0.0009004	-0.435316	-0.522529	4.63	0.65623440000604	NA	4.04	NA	0.0002945	0.111	0.198	0.567	0.89216	0.061011	-4.2	-	2	0.000860467	0.000216247	5	P39900
chr11_106052851_C/G	chr11	106052851	G	ENSG00000182359	ENST00000531837	stop_lost	2087	1838	613	S	tGa	tCa	C	-1	SNV	KBTBD3	protein_coding	YES	MANE_Select	NM_198439.3	ENSP00000432163	-	4/4	c.1838G>C	p.Ter613SerextTer3	0.000284697508896797	0.00101	-0.760016	-0.920835	0.886	0.802751498047372	3.711179	2.16	0.2	8.395e-05	0.164	0.019	0.741	0.31634	0.074636	-3.41	-	0	0.00114253	5.79054e-05	3	Q8NAB2
chr11_106096907_A/G	chr11	106096907	G	ENSG00000149313	ENST00000278618	stop_lost	979	930	310	W	tgA	tgG	A	1	SNV	AASDHPPT	protein_coding	YES	MANE_Select	NM_015423.3	ENSP00000278618	-	6/6	c.930A>G	p.Ter310TrpextTer1	0	0.000215	-0.412786	-0.500713	17.11	0.791018154840087	7.003964	2.22	0.325	1.582e-05	0.014	1	2.184	0.81347	0.295142	-5.14	-	1	0.000539771	2.94474e-05	1	Q9NRN7
chr11_130473819_T/A	chr11	130473819	A	ENSG00000166106	ENST00000299164	stop_lost	3180	2851	951	R	Tga	Aga	T	1	SNV	ADAMTS15	protein_coding	YES	MANE_Select	NM_139055.4	ENSP00000299164	-	8/8	c.2851T>A	p.Ter951ArgextTer14	0	0	0.0313419	-0.192756	17.19	0.909163024190497	18.05521	5.77	0.795	0	0.009	1	7.487	0.97834	0.090766	-11.75	-	1	2.21283e-05	1.25734e-06	14	Q8TE58
chr12_908790_T/A	chr12	908790	A	ENSG00000060237	ENST00000315939	stop_lost	8134	7147	2383	K	Tag	Aag	T	1	SNV	WNK1	protein_coding	YES	MANE_Select	NM_018979.4	ENSP00000313059	-	28/28	c.7147T>A	p.Ter2383LysextTer2	0	0.003889	-0.304896	-0.246116	16.58	0.896524984287291	17.05113	5.24	0.41	1.217e-05	0.348	1	7.21	0.97133	0.295142	-10.74	Uncertain_significance	0	0.00212048	3.71493e-05	2	Q9H4A3
chr12_2803256_T/C	chr12	2803256	C	ENSG00000004478	ENST00000001008	stop_lost	1548	1378	460	Q	Tag	Cag	T	1	SNV	FKBP4	protein_coding	YES	MANE_Select	NM_002014.4	ENSP00000001008	-	10/10	c.1378T>C	p.Ter460GlnextTer30	0	0.001272	-0.099978	-0.381388	14.38	0.835756605947161	7.155793	3.38	0.825	7.3e-06	0.043	1	2.912	0.8011	0.295142	-4.6	-	0	0.00259171	1.52664e-05	30	Q02790
chr12_8138285_T/C	chr12	8138285	C	ENSG00000111729	ENST00000229332	stop_lost	974	712	238	R	Tga	Cga	T	1	SNV	CLEC4A	protein_coding	YES	MANE_Select	NM_016184.4	ENSP00000229332	-	6/6	c.712T>C	p.Ter238ArgextTer6	0.00169430994244329	0.01597	-0.32669	-0.228418	11.52	0.810842838191216	4.305428	1.65	0.425	0.001336	0.391	0.472	0.892	0.36722	0.164513	-4.42	Benign	11	0.0157491	0.00108539	6	Q9UMR7
chr12_10431118_T/G	chr12	10431118	G	ENSG00000205809	ENST00000381902	stop_lost	719	695	232	S	tAg	tCg	T	-1	SNV	KLRC2	protein_coding	YES	MANE_Select	NM_002260.4	ENSP00000371327	-	6/6	c.695A>C	p.Ter232SerextTer2	0	4.057e-06	-0.52769	-0.995766	0.698	0.515492126661962	1.47883	-2.65	0.085	7.91e-06	0.264	0	-0.827	0.00343	0.084033	-1.53	-	2	1.17573e-05	9.24168e-06	2	P26717
chr12_11021672_T/C	chr12	11021672	C	ENSG00000212124	ENST00000390673	stop_lost	949	900	300	W	tgA	tgG	T	-1	SNV	TAS2R19	protein_coding	YES	MANE_Select	NM_176888.2	ENSP00000375091	-	1/1	c.900A>G	p.Ter300TrpextTer10	0.186287575892196	0	-0.343497	-0.731186	0.263	0.457213293112923	2.291279	-1.29	0.015	2.434e-06	0.001	0	-2.561	0.00067	0.099367	0.52	-	0	0.284534	0.0913698	10	P59542
chr12_11091301_T/G	chr12	11091301	G	ENSG00000255374	ENST00000531678	stop_lost	1013	929	310	S	tAg	tCg	T	-1	SNV	TAS2R43	protein_coding	YES	MANE_Select	NM_176884.2	ENSP00000431719	-	1/1	c.929A>C	p.Ter310SerextTer?	0	0.0005273	-0.483942	-0.932926	1.104	0.532409295813891	2.448978	0.0399	0.025	3.286e-05	0.011	0	0.303	0.01007	0.088506	-1.55	-	9	0.000371471	2.15858e-05	?	P59537
chr12_18648027_G/C	chr12	18648027	C	ENSG00000139144	ENST00000538779	stop_lost	4598	4460	1487	S	tGa	tCa	G	1	SNV	PIK3C2G	protein_coding	YES	MANE_Select	NM_001288772.2	ENSP00000445381	-	33/33	c.4460G>C	p.Ter1487SerextTer4	0.0160556852632679	0.01716	-0.480236	-0.447666	14.3	0.768961267969694	8.921796	3.17	0.025	0.01489	0.015	1	1.721	0.85941	0.061011	-5.52	-	248	0.0190417	0.0157339	4	O75747
chr12_22201554_A/G	chr12	22201554	G	ENSG00000111728	ENST00000396037	stop_lost	1544	1069	357	Q	Tag	Cag	A	-1	SNV	ST8SIA1	protein_coding	YES	MANE_Select	NM_003034.4	ENSP00000379353	-	5/5	c.1069T>C	p.Ter357GlnextTer19	0	0	-0.10098	-0.200681	16.65	0.767222178831368	15.9056	5.73	0.75	1.217e-06	0.008	1	4.519	0.95194	0.074636	-7.08	-	1	1.70291e-06	1.24915e-06	19	Q92185
chr12_25204311_G/T	chr12	25204311	T	ENSG00000205707	ENST00000381356	stop_lost	410	272	91	L	tGa	tTa	G	1	SNV	ETFRF1	protein_coding	YES	MANE_Select	NM_001001660.3	ENSP00000370761	-	3/3	c.272G>T	p.Ter91LeuextTer5	0	0.003348	-0.405026	-0.351956	9.395	0.743929118357549	4.838173	1.11	0.005	3.468e-05	0.042	0.973	1.032	0.57289	0.322412	-4.81	-	1	0.00339259	0.000110792	5	Q6IPR1
chr12_27502121_A/C	chr12	27502121	C	ENSG00000165935	ENST00000535986	stop_lost	1132	1032	344	Y	taA	taC	A	1	SNV	SMCO2	protein_coding	YES	MANE_Select	NM_001395208.2	ENSP00000441688	-	9/9	c.1032A>C	p.Ter344TyrextTer?	4.07166123778502e-05	3.899e-05	-0.0581558	-0.152185	7.603	0.84781282472191	6.929084	2.98	0.37	5.779e-05	0.202	0.917	0.464	0.45364	0.080785	-4.5	-	2	7.75606e-05	5.83897e-05	?	A6NFE2
chr12_55453152_G/C	chr12	55453152	C	ENSG00000179695	ENST00000641202	stop_lost	1910	939	313	Y	taG	taC	G	1	SNV	OR6C2	protein_coding	YES	MANE_Select	NM_054105.2	ENSP00000493222	-	2/2	c.939G>C	p.Ter313TyrextTer3	9.36329588014981e-05	0	-0.52132	-0.707181	0.057	0.816738185788731	2.597587	-3.78	NA	8.517e-06	NA	0	-5.088	0.01324	0.061011	-1.41	-	1	0.00016575	9.95762e-06	3	Q9NZP2
chr12_56005025_T/A	chr12	56005025	A	ENSG00000139531	ENST00000266971	stop_lost	1819	1636	546	R	Tga	Aga	T	1	SNV	SUOX	protein_coding	YES	MANE_Select	NM_001032386.2	ENSP00000266971	-	5/5	c.1636T>A	p.Ter546ArgextTer14	0	0.0006449	-0.265322	-0.183972	14.37	0.848514776625658	7.784781	4.42	0.755	4.745e-05	0.442	0.987	2.142	0.54453	0.262962	-4.95	Conflicting_classifications_of_pathogenicity	3	0.00161414	9.37429e-05	14	P51687
chr12_56952031_A/G	chr12	56952031	G	ENSG00000139547	ENST00000398138	stop_lost	1098	952	318	R	Tga	Cga	A	-1	SNV	RDH16	protein_coding	YES	MANE_Select	NM_003708.5	ENSP00000381206	-	4/4	c.952T>C	p.Ter318ArgextTer2	0	3.894e-06	-0.462359	-0.605731	12.08	0.86693274117393	3.627696	3.03	0.1	1.156e-05	0.003	0.005	2.091	0.02001	0.080785	-2.05	-	1	0.000164962	9.91439e-06	2	O75452
chr12_70353913_T/A	chr12	70353913	A	ENSG00000111596	ENST00000229195	stop_lost	1764	1621	541	K	Taa	Aaa	T	1	SNV	CNOT2	protein_coding	YES	MANE_Select	NM_014515.7	ENSP00000229195	-	16/16	c.1621T>A	p.Ter541LysextTer65	0	0	0.0635537	-0.146486	17.53	0.662065152393233	15.49993	4.67	0.925	0	0.067	1	8.017	0.98381	0.706548	-9.82	-	0	0.00283927	0.000984303	65	Q9NZN8
chr12_79775931_A/T	chr12	79775931	T	ENSG00000058272	ENST00000450142	stop_lost	3257	3091	1031	K	Taa	Aaa	A	-1	SNV	PPP1R12A	protein_coding	YES	MANE_Select	NM_002480.3	ENSP00000389168	-	25/25	c.3091T>A	p.Ter1031LysextTer71	0.00774086378737542	0	0.00932134	-0.224387	13.15	0.805231378291058	15.5009	4.7	0.955	0	0.609	1	6.752	0.98499	0.322412	-7.64	-	0	0.00631453	0.00242345	71	O14974
chr12_109447180_T/C	chr12	109447180	C	ENSG00000174527	ENST00000310903	stop_lost	3176	3115	1039	R	Tga	Cga	T	1	SNV	MYO1H	protein_coding	YES	MANE_Select	NM_001101421.4	ENSP00000439182	-	32/32	c.3115T>C	p.Ter1039ArgextTer1	0.000408964501881237	0.001613	-0.0534869	0.143609	17.71	0.864582667962995	13.4279	5.42	0.535	0.000132	0.015	1	4.116	0.97779	0.099367	-8.04	-	0	0.00193866	9.83103e-05	1	-
chr12_117028170_T/G	chr12	117028170	G	ENSG00000174989	ENST00000652555	stop_lost	1883	1795	599	E	Tag	Gag	T	1	SNV	FBXW8	protein_coding	YES	MANE_Select	NM_153348.3	ENSP00000498999	-	11/11	c.1795T>G	p.Ter599GluextTer20	0	0.0003893	-0.468337	-0.594354	5.933	0.673715325084527	4.608304	3.76	0.71	6.265e-05	0.014	0.801	1.742	0.84698	0.295142	-4.53	-	1	0.000495213	2.60231e-05	20	Q8N3Y1
chr12_123466279_T/C	chr12	123466279	C	ENSG00000184209	ENST00000526639	stop_lost	820	739	247	Q	Tag	Cag	T	1	SNV	SNRNP35	protein_coding	YES	MANE_Select	NM_022717.4	ENSP00000432595	-	2/2	c.739T>C	p.Ter247GlnextTer9	0.000328904091566899	0.001048	-0.411377	-0.369549	15.28	0.774552024397672	8.512399	4.71	0.39	7.908e-05	0.013	1	1.14	0.91649	0.322412	-4.56	-	1	0.00142414	7.12121e-05	9	Q16560
chr12_128794196_T/C	chr12	128794196	C	ENSG00000139370	ENST00000266771	stop_lost	1749	1734	578	W	tgA	tgG	T	-1	SNV	SLC15A4	protein_coding	YES	MANE_Select	NM_145648.4	ENSP00000266771	-	8/8	c.1734A>G	p.Ter578TrpextTer3	0	0.000186	-0.219103	-0.260354	15.03	0.86716391392683	8.360766	5.11	0.485	3.043e-06	0.046	1	5.17	0.96915	0.295142	-8.21	-	0	0.00176206	4.90685e-05	3	Q8N697
chr13_36304367_A/T	chr13	36304367	T	ENSG00000133104	ENST00000438666	stop_lost	2171	1999	667	R	Tga	Aga	A	-1	SNV	SPART	protein_coding	YES	MANE_Select	NM_015087.5	ENSP00000406061	-	9/9	c.1999T>A	p.Ter667ArgextTer1	3.38401840906015e-05	0.004403	-0.527665	-0.530327	15.56	0.895675782254745	5.432852	3.92	0.225	0.0002804	0.161	0.01	1.976	0.14239	0.295142	-7.06	Likely_benign	1	0.00413091	0.000206317	1	Q8N0X7
chr13_72759797_A/G	chr13	72759797	G	ENSG00000083520	ENST00000377767	stop_lost	2943	2875	959	Q	Tag	Cag	A	-1	SNV	DIS3	protein_coding	YES	MANE_Select	NM_014953.5	ENSP00000366997	-	21/21	c.2875T>C	p.Ter959GlnextTer14	0.0024029975536494	0.003049	-0.369057	-0.303046	15.53	0.890176948485444	14.04957	6.06	0.83	0.002533	0.183	1	4.271	0.94695	0.322412	-4.76	Likely_benign	11	0.00325608	0.00261131	14	Q9Y2L1
chr13_96986746_T/A	chr13	96986746	A	ENSG00000165621	ENST00000541038	stop_lost	1470	1014	338	C	tgA	tgT	T	-1	SNV	OXGR1	protein_coding	YES	MANE_Select	NM_001346194.2	ENSP00000437356	-	4/4	c.1014A>T	p.Ter338CysextTer6	0.000717160046216981	0.0008567	-0.552475	-0.6494	6.924	0.489479210200521	5.378715	3.38	0.37	0.0003814	0.047	0.105	1.427	0.91923	0.078448	-6.16	-	1	0.000433789	0.000349242	6	Q96P68
chr14_21522705_C/G	chr14	21522705	G	ENSG00000165821	ENST00000537235	stop_lost	3236	3017	1006	S	tGa	tCa	C	-1	SNV	SALL2	protein_coding	YES	MANE_Select	NM_001364564.1	ENSP00000438493	-	2/2	c.3017G>C	p.Ter1006SerextTer28	0	3.894e-06	-0.34859	-0.738502	12.79	0.771026195217025	6.616915	4	NA	4.258e-06	0.109	0.978	0.716	0.81969	0.298561	-6.24	-	1	0.000178444	7.9046e-06	28	-
chr14_22633768_C/G	chr14	22633768	G	ENSG00000255804	ENST00000540461	stop_lost	1326	1044	348	Y	taG	taC	C	-1	SNV	OR6J1	protein_coding	YES	MANE_Select	NM_001348233.2	ENSP00000437629	-	2/2	c.1044G>C	p.Ter348TyrextTer12	0.00131761442441054	0.005014	-0.639792	-0.69084	5.506	0.745575360415457	3.204329	0.397	0.07	0	0.001	0	-0.066	0.0489	0.06567	-1.35	-	1	0.00546516	0.000529514	12	Q8NGC5
chr14_23272889_T/C	chr14	23272889	C	ENSG00000215277	ENST00000430154	stop_lost	1022	901	301	Q	Tag	Cag	T	1	SNV	RNF212B	protein_coding	YES	MANE_Select	NM_001282322.3	ENSP00000397830	-	15/15	c.901T>C	p.Ter301GlnextTer6	0.00278539084842707	0.009232	-0.396674	-0.336315	9.2	0.669969750282676	4.892248	2.6	0.06	0.0006597	0.045	0.948	0.645	0.58458	0.162113	-2.16	-	4	0.00869421	0.000464479	6	A8MTL3
chr14_24606604_T/A	chr14	24606604	A	ENSG00000100450	ENST00000216338	stop_lost	812	740	247	L	tAa	tTa	T	-1	SNV	GZMH	protein_coding	YES	MANE_Select	NM_033423.5	ENSP00000216338	-	5/5	c.740A>T	p.Ter247LeuextTer4	0.000641891891891892	0.04412	-0.616236	-0.624376	3.182	0.441051124296898	2.557732	-1.67	0.04	0.003374	0.025	0	-0.386	0.0692	0.074898	-1.48	Benign	77	0.0451425	0.00239633	4	P20718
chr14_55044362_T/C	chr14	55044362	C	ENSG00000180008	ENST00000555846	stop_lost	1776	1321	441	Q	Tag	Cag	T	1	SNV	SOCS4	protein_coding	YES	MANE_Select	NM_199421.2	ENSP00000452522	-	3/3	c.1321T>C	p.Ter441GlnextTer1	0	0.0006449	-0.578934	-0.737311	7.993	0.777121405544176	5.388268	1.29	0.31	3.164e-05	0.301	0.931	1.003	0.8433	0.322412	-4.27	-	1	0.000960061	4.51286e-05	1	Q8WXH5
chr14_55145269_T/A	chr14	55145269	A	ENSG00000131981	ENST00000254301	stop_lost	804	751	251	K	Taa	Aaa	T	1	SNV	LGALS3	protein_coding	YES	MANE_Select	NM_002306.4	ENSP00000254301	-	6/6	c.751T>A	p.Ter251LysextTer41	0	0	-0.144978	-0.2645	14.18	0.752388654974073	11.30031	5.31	0.96	1.829e-06	0.163	1	4.951	0.95428	0.295142	-9.13	-	1	6.59428e-05	4.34069e-06	41	P17931
chr14_59504070_T/C	chr14	59504070	C	ENSG00000050130	ENST00000616435	stop_lost	1007	934	312	R	Tga	Cga	T	1	SNV	JKAMP	protein_coding	YES	MANE_Select	NM_016475.5	ENSP00000479775	-	7/7	c.934T>C	p.Ter312ArgextTer2	5.81440421738119e-05	3.894e-05	0.131392	0.131255	18.82	0.878154540512875	18.27067	5.72	0.405	1.643e-05	0.033	1	7.892	0.99093	0.322412	-10.48	-	1	6.60531e-05	2.43369e-05	2	Q9P055
chr14_69380538_T/A	chr14	69380538	A	ENSG00000100632	ENST00000557016	stop_lost	381	315	105	Y	taA	taT	T	-1	SNV	ERH	protein_coding	YES	MANE_Select	NM_004450.3	ENSP00000451080	-	4/4	c.315A>T	p.Ter105TyrextTer28	0	0	-0.121999	-0.413019	11.99	0.790586266701867	5.35888	1.78	0.695	0	0.118	0.98	0.799	0.84232	0.295142	-7.96	-	0	0.00145114	0.00109098	28	P84090
chr14_73712579_C/G	chr14	73712579	G	ENSG00000176903	ENST00000316836	stop_lost	1806	1061	354	S	tGa	tCa	C	-1	SNV	PNMA1	protein_coding	YES	MANE_Select	NM_006029.5	ENSP00000318914	-	1/1	c.1061G>C	p.Ter354SerextTer11	0.000303872200034728	0.0002005	-0.314741	-0.669609	14.84	0.830239085800349	7.663384	3.71	0.355	2.129e-05	0.002	1	1.69	0.46157	0.12189	-5.33	-	1	1.89068e-05	3.79095e-05	11	Q8ND90
chr14_77331194_A/G	chr14	77331194	G	ENSG00000100577	ENST00000216465	stop_lost	783	650	217	W	tAg	tGg	A	1	SNV	GSTZ1	protein_coding	YES	MANE_Select	NM_145870.3	ENSP00000216465	-	9/9	c.650A>G	p.Ter217TrpextTer19	0.000157872421041236	0.002545	-0.359241	-0.324179	18.18	0.818822967806836	11.98725	4.07	0.345	0.0001113	0.597	1	4.783	0.897	0.184171	-5.3	-	3	0.00181818	0.000151915	19	-
chr15_20534261_A/G	chr15	20534261	G	ENSG00000277322	ENST00000619213	stop_lost,splice_region_variant	2264	2173	725	Q	Tag	Cag	A	-1	SNV	GOLGA6L6	protein_coding	YES	MANE_Select	NM_001145004.2	ENSP00000480376	-	8/9	c.2173T>C	p.Ter725GlnextTer8	0.0122862286228623	0	-0.716576	-0.784503	1.221	0.517610467354658	0.7340253	NA	NA	0.02611	0.002	0	-0.777	0.00179	0.061011	0.26	-	378	0.173924	0.0783748	8	A8MZA4
chr15_22095470_T/A	chr15	22095470	A	ENSG00000183706	ENST00000328795	stop_lost	949	949	317	R	Tga	Aga	T	1	SNV	OR4N4	protein_coding	YES	MANE_Select	NM_001005241.4	ENSP00000332500	-	1/1	c.949T>A	p.Ter317ArgextTer20	0	0	-0.291992	-0.657203	1.968	0.784526101699969	2.410264	-0.915	NA	1.218e-06	0.001	0	-2.315	0.02356	0.053691	-0.84	-	1	3.02792e-05	1.24571e-05	20	Q8N0Y3
chr15_22466823_T/C	chr15	22466823	C	ENSG00000277865	ENST00000622895	stop_lost,splice_region_variant	2654	2563	855	Q	Tag	Cag	T	1	SNV	GOLGA6L22	protein_coding	YES	MANE_Select	NM_001396956.1	ENSP00000483673	-	8/9	c.2563T>C	p.Ter855GlnextTer8	0.0432721712538226	0	NA	NA	1.679	NA	NA	NA	NA	0.02184	NA	0	-1.117	NA	NA	0.27	-	2056	0.429768	0.202223	8	H0YM25
chr15_30562499_T/G	chr15	30562499	G	ENSG00000178115	ENST00000562783	stop_lost	1925	1897	633	E	Taa	Gaa	T	1	SNV	GOLGA8Q	protein_coding	YES	MANE_Select	NM_001355476.2	ENSP00000457904	-	19/19	c.1897T>G	p.Ter633GluextTer13	0	0	-0.459423	-0.897706	5.437	0.61805835598259	NA	0.861	NA	0	0.016	1	2.291	0.25747	0.074636	-3.96	-	1	3.2652e-05	1.16021e-05	13	H3BV12
chr15_40393596_A/C	chr15	40393596	C	ENSG00000128944	ENST00000249776	stop_lost	1065	950	317	S	tAa	tCa	A	1	SNV	KNSTRN	protein_coding	YES	MANE_Select	NM_033286.4	ENSP00000249776	-	9/9	c.950A>C	p.Ter317SerextTer13	0.00120091498284407	0.0146	-0.480058	-0.445426	13.04	0.802957390892116	6.022518	2.97	0.255	0.0001624	0.037	1	1.82	0.69504	0.295142	-2.71	Benign	7	0.0163412	0.000541803	13	Q9Y448
chr15_40771022_A/C	chr15	40771022	C	ENSG00000188277	ENST00000344320	stop_lost	1043	527	176	S	tAa	tCa	A	1	SNV	C15orf62	protein_coding	YES	MANE_Select	NM_001130448.3	ENSP00000341178	-	1/1	c.527A>C	p.Ter176SerextTer3	0	0	-0.118528	-0.408034	14.26	0.699903362431681	6.504289	4.14	NA	2.433e-06	0.011	1	3.105	0.84629	0.106106	-1.58	-	1	8.20367e-05	3.87004e-06	3	A8K5M9
chr15_44978626_T/C	chr15	44978626	C	ENSG00000167014	ENST00000340827	stop_lost	693	661	221	Q	Tag	Cag	T	1	SNV	TERB2	protein_coding	YES	MANE_Select	NM_152448.3	ENSP00000340644	-	7/7	c.661T>C	p.Ter221GlnextTer1	0	0.000558	-0.500997	-0.597739	11.54	0.921020293574413	4.142584	2.55	NA	6.084e-06	0.02	0.784	1.257	0.20426	0.053691	-3.41	-	1	0.00408475	0.000117599	1	Q8NHR7
chr15_45433016_A/G	chr15	45433016	G	ENSG00000166920	ENST00000396650	stop_lost	325	252	84	W	tgA	tgG	A	1	SNV	C15orf48	protein_coding	YES	MANE_Select	NM_197955.3	ENSP00000379887	-	5/5	c.252A>G	p.Ter84TrpextTer8	0	0.002511	-0.338532	-0.258239	16.71	0.853557393951769	11.343	6.08	NA	1.703e-05	0.012	0.998	4.629	0.91262	0.074636	-5.42	-	1	0.00305326	8.92662e-05	8	Q9C002
chr15_55418568_T/C	chr15	55418568	C	ENSG00000261652	ENST00000569691	stop_lost	638	364	122	R	Tga	Cga	T	1	SNV	PIERCE2	protein_coding	YES	MANE_Select	NM_001198784.2	ENSP00000456337	-	2/2	c.364T>C	p.Ter122ArgextTer33	0.00470454427958435	0.01105	-0.095659	0.100204	18.65	0.88833547399626	NA	5.82	0.275	0.0007044	0.022	1	5.159	0.94397	0.074636	-6.65	-	5	0.00991457	0.000533653	33	H3BRN8
chr15_56429102_C/A	chr15	56429102	A	ENSG00000138587	ENST00000260453	stop_lost	1652	1487	496	L	tGa	tTa	C	-1	SNV	MNS1	protein_coding	YES	MANE_Select	NM_018365.4	ENSP00000260453	-	10/10	c.1487G>T	p.Ter496LeuextTer16	0.00130172748586799	0.01206	-0.756833	-0.849526	10.91	0.507873463917914	2.425332	-1.62	0.15	0.0008138	0.003	0.061	0.159	0.16215	0.17398	-2.41	Benign	4	0.0118082	0.000585548	16	Q8NEH6
chr15_66548491_C/G	chr15	66548491	G	ENSG00000188501	ENST00000695545	stop_lost	1867	1703	568	S	tGa	tCa	C	-1	SNV	LCTL	protein_coding	YES	MANE_Select	NM_207338.4	ENSP00000512002	-	14/14	c.1703G>C	p.Ter568SerextTer10	0	3.343e-05	-0.396643	-0.464796	14.9	0.822513158151234	8.838106	4.66	NA	1.461e-05	0.017	1	2.495	0.97265	0.359288	-4.95	-	1	0.000505277	3.06651e-05	10	Q6UWM7
chr15_68194015_T/C	chr15	68194015	C	ENSG00000129007	ENST00000467889	stop_lost	547	462	154	W	tgA	tgG	T	-1	SNV	CALML4	protein_coding	YES	MANE_Select	NM_033429.3	ENSP00000419081	-	5/5	c.462A>G	p.Ter154TrpextTer17	0.000596212630244069	0.004273	-0.464002	-0.439017	16.71	0.842630150600119	7.374367	4.9	NA	0.0003072	NA	1	5.073	0.93829	0.256867	-6.97	-	0	0.00433403	0.000223947	17	Q96GE6
chr15_75270198_A/G	chr15	75270198	G	ENSG00000167195	ENST00000300576	stop_lost	2346	2081	694	W	tAg	tGg	A	1	SNV	GOLGA6C	protein_coding	YES	MANE_Select	NM_001164404.2	ENSP00000300576	-	18/18	c.2081A>G	p.Ter694TrpextTer29	0	0	-0.146509	-0.448226	4.965	0.670155548106714	3.148015	NA	NA	0	0.005	1	1.134	0.29049	0.074636	0.56	-	1	7.13165e-05	1.88333e-06	29	A6NDK9
chr15_75294475_G/C	chr15	75294475	C	ENSG00000140478	ENST00000434739	stop_lost	2123	2082	694	Y	taG	taC	G	1	SNV	GOLGA6D	protein_coding	YES	MANE_Select	NM_001145224.3	ENSP00000391085	-	18/18	c.2082G>C	p.Ter694TyrextTer29	0.000111607142857143	0	-0.209628	-0.538892	4.932	0.531464105769492	3.040121	0.749	0.1	3.042e-06	0.016	1	2.953	0.93425	0.074636	-4.76	-	1	5.9764e-06	4.41121e-06	29	P0CG33
chr15_75933102_A/T	chr15	75933102	T	ENSG00000167196	ENST00000308275	stop_lost	1298	1212	404	Y	taA	taT	A	1	SNV	FBXO22	protein_coding	YES	MANE_Select	NM_147188.3	ENSP00000307833	-	7/7	c.1212A>T	p.Ter404TyrextTer1	0.000319628865226206	0.001272	-0.327126	-0.541814	11.63	0.841548008299078	4.485053	4.06	0.265	8.03e-05	0.008	0.128	2.918	0.41144	0.295142	-6.63	-	0	0.00101626	9.95744e-05	1	Q8NEZ5
chr15_99386102_A/G	chr15	99386102	G	ENSG00000168904	ENST00000301981	stop_lost	1225	1104	368	W	tgA	tgG	A	1	SNV	LRRC28	protein_coding	YES	MANE_Select	NM_144598.5	ENSP00000304923	-	10/10	c.1104A>G	p.Ter368TrpextTer1	3.67971739770386e-05	0.006664	-0.341043	-0.265397	18.36	0.864791639359618	17.30663	5.81	0.55	0.0001442	0.012	1	6.101	0.94807	0.423528	-6.97	-	2	0.00382124	0.000225573	1	Q86X40
chr16_173598_T/C	chr16	173598	C	ENSG00000188536	ENST00000251595	stop_lost	464	427	143	Q	Taa	Caa	T	1	SNV	HBA2	protein_coding	YES	MANE_Select	NM_000517.6	ENSP00000251595	-	3/3	c.427T>C	p.Ter143GlnextTer31	8.99750640536766e-05	0.0009318	-0.15463	-0.0968585	15.22	0.84561512497359	13.21643	4.43	1	2.737e-05	0.156	1	4.118	0.97452	0.095506	-8.06	Pathogenic/Likely_pathogenic	1	0.000334582	2.23844e-05	31	P69905
chr16_1968923_T/C	chr16	1968923	C	ENSG00000179580	ENST00000569714	stop_lost	762	736	246	Q	Tag	Cag	T	1	SNV	RNF151	protein_coding	YES	MANE_Select	NM_174903.6	ENSP00000456566	-	4/4	c.736T>C	p.Ter246GlnextTer?	0	0.000279	-0.612606	-0.785678	6.654	0.402569867329886	2.834992	-1.02	NA	9.124e-06	0.007	0.891	1.254	0.43835	0.078448	-3.15	-	1	0.000342075	1.51181e-05	?	Q2KHN1
chr16_3658129_T/G	chr16	3658129	G	ENSG00000126602	ENST00000246957	stop_lost	2131	2115	705	C	tgA	tgC	T	-1	SNV	TRAP1	protein_coding	YES	MANE_Select	NM_016292.3	ENSP00000246957	-	18/18	c.2115A>C	p.Ter705CysextTer8	0.00156708263844959	0.0149	-0.393971	-0.326364	15.52	0.68719712448559	6.557125	4.04	0.105	0.001127	0.152	1	7.255	0.94269	0.295142	-8.75	Benign	6	0.0145789	0.000794972	8	Q12931
chr16_4697030_A/G	chr16	4697030	G	ENSG00000168096	ENST00000304283	stop_lost	2373	1969	657	Q	Tag	Cag	A	-1	SNV	ANKS3	protein_coding	YES	MANE_Select	NM_133450.4	ENSP00000304586	-	17/18	c.1969T>C	p.Ter657GlnextTer6	0	3.343e-05	-0.22447	-0.459582	11.85	0.894037940885261	10.78771	5.22	NA	1.217e-06	0.143	0.967	2.678	0.86904	0.184171	-5.93	-	1	4.40781e-05	2.48176e-06	6	Q6ZW76
chr16_11273286_A/G	chr16	11273286	G	ENSG00000178257	ENST00000327157	stop_lost	344	310	104	R	Tga	Cga	A	-1	SNV	PRM3	protein_coding	YES	MANE_Select	NM_021247.3	ENSP00000325638	-	1/1	c.310T>C	p.Ter104ArgextTer27	0.0271205187707389	0.1419	NA	NA	17.47	NA	NA	NA	NA	0.01408	0.019	1	3.288	NA	NA	-4.95	-	847	0.143532	0.0113594	27	Q9NNZ6
chr16_19497965_G/C	chr16	19497965	C	ENSG00000103534	ENST00000542583	stop_lost	3537	3020	1007	S	tGa	tCa	G	1	SNV	TMC5	protein_coding	YES	MANE_Select	NM_001261841.2	ENSP00000446274	-	22/22	c.3020G>C	p.Ter1007SerextTer1	0	0.0008598	-0.715356	-0.937376	0.045	0.59325578904285	3.055778	0.125	0.28	8.516e-06	0.091	0.736	1.028	0.32809	0.088506	-4.61	-	1	0.000351332	1.98278e-05	1	Q6UXY8
chr16_30378436_A/T	chr16	30378436	T	ENSG00000180096	ENST00000321367	stop_lost	1136	1117	373	R	Tga	Aga	A	-1	SNV	SEPTIN1	protein_coding	YES	MANE_Select	NM_001365977.2	ENSP00000324511	-	11/11	c.1117T>A	p.Ter373ArgextTer95	0.0002803355400772	0.001675	-0.243635	-0.158119	18.54	0.846328849074132	9.212478	5.42	0.735	0.0001296	NA	0.018	0.915	0.617	0.08998	-5.92	-	1	0.00196895	0.000248502	95	Q8WYJ6
chr16_66480925_A/C	chr16	66480925	C	ENSG00000166546	ENST00000536005	stop_lost	999	780	260	C	tgA	tgC	A	1	SNV	BEAN1	protein_coding	YES	MANE_Select	NM_001178020.3	ENSP00000442793	-	5/5	c.780A>C	p.Ter260CysextTer59	6.44329896907217e-05	6.685e-05	-0.202238	-0.528278	15	0.814322952976923	6.636853	4.26	0.225	3.651e-06	0.016	0.77	1.912	0.65141	0.056701	-7.58	-	2	5.47775e-06	0.000325303	59	Q3B7T3
chr16_82098435_A/G	chr16	82098435	G	ENSG00000086696	ENST00000199936	stop_lost	1335	1163	388	W	tAg	tGg	A	1	SNV	HSD17B2	protein_coding	YES	MANE_Select	NM_002153.3	ENSP00000199936	-	5/5	c.1163A>G	p.Ter388TrpextTer12	0.00831542029641362	0.05785	-0.697282	-0.731879	5.045	0.755079917617493	3.00094	0.667	0.07	0.006437	0.061	0.005	0.26	0.02201	0.218109	-1.54	-	270	0.0563363	0.00700352	12	P37059
chr17_4745989_G/T	chr17	4745989	T	ENSG00000141497	ENST00000433935	stop_lost	2476	2228	743	L	tGa	tTa	G	1	SNV	ZMYND15	protein_coding	YES	MANE_Select	NM_001136046.3	ENSP00000391742	-	14/14	c.2228G>T	p.Ter743LeuextTer5	0	0.000215	-0.385789	-0.477678	14.7	0.783657868126627	5.113712	3.25	NA	4.258e-06	0.041	1	1.654	0.86627	0.11394	-8.24	-	1	0.000164607	7.63135e-06	5	Q9H091
chr17_18018551_A/G	chr17	18018551	G	ENSG00000171953	ENST00000474627	stop_lost	1023	868	290	R	Tga	Cga	A	-1	SNV	ATPAF2	protein_coding	YES	MANE_Select	NM_145691.4	ENSP00000417190	-	8/8	c.868T>C	p.Ter290ArgextTer10	0	0.000186	0.014521	0.0834059	18.05	0.86731641723514	18.36842	5.31	NA	1.825e-06	0.01	1	9.208	0.99253	0.464309	-7.95	Uncertain_significance	1	0.000312152	8.67834e-06	10	Q8N5M1
chr17_20449975_A/G	chr17	20449975	G	ENSG00000170298	ENST00000423676	stop_lost	1138	1069	357	Q	Tag	Cag	A	-1	SNV	LGALS9B	protein_coding	YES	MANE_Select	NM_001367292.2	ENSP00000388841	-	11/11	c.1069T>C	p.Ter357GlnextTer183	0	0	-0.165778	-0.475905	15.6	0.74741641492452	4.228309	1.74	NA	2.436e-06	0.017	0.6	2.288	0.62709	0.164513	-4.74	-	1	5.21667e-05	5.28084e-06	183	Q3B8N2
chr17_34928049_C/A	chr17	34928049	A	ENSG00000132141	ENST00000314144	stop_lost	1659	1592	531	L	tGa	tTa	C	-1	SNV	CCT6B	protein_coding	YES	MANE_Select	NM_006584.4	ENSP00000327191	-	14/14	c.1592G>T	p.Ter531LeuextTer1	0.00369103665702564	0.004435	-0.412187	-0.36071	15.21	0.779764301224257	10.1494	3.18	0.465	0.00403	0.193	1	4.4	0.94914	0.294411	-6.93	-	12	0.00543531	0.00411285	1	Q92526
chr17_35764617_G/C	chr17	35764617	C	ENSG00000270806	ENST00000605587	stop_lost	579	524	175	S	tGa	tCa	G	1	SNV	C17orf50	protein_coding	YES	MANE_Select	NM_145272.4	ENSP00000475146	-	3/3	c.524G>C	p.Ter175SerextTer72	0.000292977553412062	0.003568	NA	NA	5.846	NA	NA	NA	NA	0.0002569	0.007	0.006	0.183	0.36275	0.199473	-1.45	-	0	0.00344741	0.000169212	72	Q8WW18
chr17_38322595_A/C	chr17	38322595	C	ENSG00000278845	ENST00000613675	stop_lost	937	921	307	C	tgA	tgC	A	1	SNV	MRPL45	protein_coding	YES	MANE_Select	NM_032351.6	ENSP00000484903	-	8/8	c.921A>C	p.Ter307CysextTer1	0.000440553112448205	0.001272	NA	NA	15.16	NA	NA	NA	NA	0.0002403	0.009	0.96	1.983	0.83148	0.295142	-5.12	-	1	0.00163458	0.000228464	1	-
chr17_40698237_T/G	chr17	40698237	G	ENSG00000167916	ENST00000264651	stop_lost	1637	1578	526	Y	taA	taC	T	-1	SNV	KRT24	protein_coding	YES	MANE_Select	NM_019016.3	ENSP00000264651	-	8/8	c.1578A>C	p.Ter526TyrextTer27	0	0	-0.487647	-0.734648	6.832	0.588940873762629	3.56833	1.21	NA	3.653e-06	0.008	0	0.005	0.83238	0.06567	-5.28	-	1	0.00015471	8.7677e-06	27	Q2M2I5
chr17_41084674_A/G	chr17	41084674	G	ENSG00000240871	ENST00000391417	stop_lost	525	468	156	W	tgA	tgG	A	1	SNV	KRTAP4-7	protein_coding	YES	MANE_Select	NM_033061.4	ENSP00000375236	-	1/1	c.468A>G	p.Ter156TrpextTer25	0	0.0003823	-0.347532	-0.452269	14.21	0.828110111828887	6.302412	4.14	0.195	1.825e-06	0.016	0	0.049	0.5106	0.06567	-3.66	-	0	0.00115999	3.71403e-05	25	Q9BYR0
chr17_43861910_A/G	chr17	43861910	G	ENSG00000161649	ENST00000317310	stop_lost	1039	998	333	W	tAg	tGg	A	1	SNV	CD300LG	protein_coding	YES	MANE_Select	NM_145273.4	ENSP00000321005	-	7/7	c.998A>G	p.Ter333TrpextTer11	0.000627737226277372	0.001272	-0.618062	-0.71102	10.57	0.783348303767853	5.271739	4.18	NA	8.091e-05	0.004	0.579	2.11	0.40513	0.06567	-4.31	-	2	0.000976589	4.80012e-05	11	Q6UXG3
chr17_49838644_A/C	chr17	49838644	C	ENSG00000176358	ENST00000436235	stop_lost	374	322	108	E	Taa	Gaa	A	-1	SNV	TAC4	protein_coding	YES	MANE_Select	NM_001077506.2	ENSP00000399702	-	5/5	c.322T>G	p.Ter108GluextTer22	0.00294092119933504	0.02687	-0.566445	-0.564805	6.943	0.696529855938907	3.998288	0.904	0.04	0.002144	0.208	0.972	0.978	0.65841	0.078448	-4.87	Benign	38	0.0299669	0.0016254	22	Q86UU9
chr17_63872128_A/G	chr17	63872128	G	ENSG00000213218	ENST00000392886	stop_lost	715	652	218	Q	Tag	Cag	A	-1	SNV	CSH2	protein_coding	YES	MANE_Select	NM_020991.4	ENSP00000376623	-	5/5	c.652T>C	p.Ter218GlnextTer?	0.00397266804385826	0.004565	-0.362703	-0.29227	16.91	0.667614649101019	8.406355	3.97	0.45	0.003854	0.303	1	6.012	0.97926	0.06567	-5.72	Benign	70	0.00496296	0.00424942	?	P0DML3
chr17_63895023_T/G	chr17	63895023	G	ENSG00000136488	ENST00000316193	stop_lost	716	653	218	S	tAg	tCg	T	-1	SNV	CSH1	protein_coding	YES	MANE_Select	NM_001317.6	ENSP00000316416	-	5/5	c.653A>C	p.Ter218SerextTer4	0.000268528464017186	0.0008653	-0.517721	-0.572794	15.27	0.670297642878496	5.260096	1.47	0.165	9.307e-05	0.132	0.992	2.409	0.62052	0.078448	-5.91	-	3	0.000645144	5.88972e-05	4	P0DML2
chr17_81720077_A/C	chr17	81720077	C	ENSG00000183048	ENST00000350690	stop_lost	1007	864	288	C	tgA	tgC	A	1	SNV	SLC25A10	protein_coding	YES	MANE_Select	NM_012140.5	ENSP00000345580	-	11/11	c.864A>C	p.Ter288CysextTer14	0.000131578947368421	0	0.0577093	-0.154881	17.12	0.705209835863906	9.684979	3.25	NA	0	0.026	0.999	4.071	0.98256	0.256867	-10.86	-	0	0.00177624	0.000167786	14	Q9UBX3
chr18_13124770_A/T	chr18	13124770	T	ENSG00000101639	ENST00000506447	stop_lost	7694	7614	2538	Y	taA	taT	A	1	SNV	CEP192	protein_coding	YES	MANE_Select	NM_032142.4	ENSP00000427550	-	45/45	c.7614A>T	p.Ter2538TyrextTer7	8.54408749145591e-05	0.008598	-0.58976	-0.613528	1.961	0.758156115385595	3.165586	0.0555	0.01	0.0003443	0.163	0.006	0.498	0.07735	0.295142	-2.29	-	14	0.00917087	0.000543247	7	Q8TEP8
chr18_57550712_T/G	chr18	57550712	G	ENSG00000066926	ENST00000262093	stop_lost	1354	1272	424	C	tgA	tgC	T	-1	SNV	FECH	protein_coding	YES	MANE_Select	NM_000140.5	ENSP00000262093	-	11/11	c.1272A>C	p.Ter424CysextTer26	0.000668764752163651	0	0.0521783	-0.162826	18.82	0.71206988366173	15.47595	5.84	0.91	0	0.1	1	6.364	0.92735	0.295142	-10.16	-	0	0.00348432	0.000518208	26	P22830
chr18_59296698_T/A	chr18	59296698	A	ENSG00000166569	ENST00000299721	stop_lost	670	483	161	C	tgA	tgT	T	-1	SNV	CPLX4	protein_coding	YES	MANE_Select	NM_181654.4	ENSP00000299721	-	3/3	c.483A>T	p.Ter161CysextTer42	0	0	0.013946	-0.217744	16.88	0.655618988583345	13.9084	5.66	0.85	0	0.006	1	3.695	0.95715	0.061011	-10.38	-	0	0.0321838	0.0174667	42	Q7Z7G2
chr18_63723397_T/G	chr18	63723397	G	ENSG00000206072	ENST00000544088	stop_lost	1239	1177	393	E	Taa	Gaa	T	1	SNV	SERPINB11	protein_coding	YES	MANE_Select	NM_001370475.1	ENSP00000441497	-	8/8	c.1177T>G	p.Ter393GluextTer43	0.00125491190264926	0.01059	-0.640053	-0.684206	15.16	0.827335880671827	10.73059	5.46	0	0.000702	0.133	0.972	2.603	0.87841	0.053691	-7.36	-	1	0.0100632	0.000497352	43	Q96P15
chr18_80138807_T/A	chr18	80138807	A	ENSG00000101544	ENST00000262198	stop_lost	3618	3394	1132	K	Taa	Aaa	T	1	SNV	ADNP2	protein_coding	YES	MANE_Select	NM_014913.4	ENSP00000262198	-	4/4	c.3394T>A	p.Ter1132LysextTer12	0	0	-0.463845	-0.904057	1.848	0.348618837599301	3.014004	1.55	NA	0	0.011	0	0.004	0.18462	0.322412	-1.08	-	0	0.00164555	0.000330591	12	Q6IQ32
chr19_1277298_T/C	chr19	1277298	C	ENSG00000310576	ENST00000409293	stop_lost,splice_region_variant	417	397	133	R	Tga	Cga	T	1	SNV	FAM174C	protein_coding	YES	MANE_Select	NM_017914.4	ENSP00000386557	-	2/3	c.397T>C	p.Ter133ArgextTer2	0.000296169540608135	0.0002843	-0.237263	-0.272611	18.21	0.800430381455149	7.687343	4.38	NA	0.0001357	0.174	1	2.316	0.81851	0.295142	-5.36	-	1	0.000275201	0.000103618	2	Q9BVV8
chr19_1783028_T/C	chr19	1783028	C	ENSG00000130270	ENST00000310127	stop_lost	4142	3903	1301	W	tgA	tgG	T	-1	SNV	ATP8B3	protein_coding	YES	MANE_Select	NM_138813.4	ENSP00000311336	-	29/29	c.3903A>G	p.Ter1301TrpextTer245	0.0558632997647495	0.193	-0.736463	-0.686835	3.356	0.479635220591879	1.558977	-0.957	0.02	0.05294	0.022	0	-1.168	0.00083	0.360735	1.12	-	3416	0.191646	0.053846	245	O60423
chr19_7768988_G/T	chr19	7768988	T	ENSG00000104938	ENST00000327325	stop_lost	1224	1200	400	Y	taG	taT	G	1	SNV	CLEC4M	protein_coding	YES	MANE_Select	NM_014257.5	ENSP00000316228	-	7/7	c.1200G>T	p.Ter400TyrextTer5	0.000212647626525338	0.0001671	-0.650924	-0.913105	0.657	0.697875969619197	2.358564	-0.308	0.375	0.0001715	0.27	0	-0.838	0.00838	0.080785	-1.31	-	1	0.000237353	0.000185288	5	Q9H2X3
chr19_10333859_A/T	chr19	10333859	T	ENSG00000076662	ENST00000160262	stop_lost	1652	1642	548	R	Tga	Aga	A	-1	SNV	ICAM3	protein_coding	YES	MANE_Select	NM_002162.5	ENSP00000160262	-	7/7	c.1642T>A	p.Ter548ArgextTer21	0	0.0001205	-0.289501	-0.653624	6.028	0.571648998933055	1.523694	-1.55	0.14	1.095e-05	0.226	0	-0.243	0.02195	0.08998	0.63	-	1	0.000120186	8.05781e-06	21	P32942
chr19_10573067_T/C	chr19	10573067	C	ENSG00000129354	ENST00000250244	stop_lost	1352	1271	424	W	tAg	tGg	T	-1	SNV	AP1M2	protein_coding	YES	MANE_Select	NM_005498.5	ENSP00000250244	-	12/12	c.1271A>G	p.Ter424TrpextTer8	0	0	-0.145006	-0.151233	18.69	0.896481844174878	10.20745	4.63	0.62	1.156e-05	0.011	0.998	2.038	0.73751	0.252514	-4.79	-	1	0.000283239	1.53408e-05	8	Q9Y6Q5
chr19_10573068_A/G	chr19	10573068	G	ENSG00000129354	ENST00000250244	stop_lost	1351	1270	424	Q	Tag	Cag	A	-1	SNV	AP1M2	protein_coding	YES	MANE_Select	NM_005498.5	ENSP00000250244	-	12/12	c.1270T>C	p.Ter424GlnextTer8	0	3.898e-06	0.0460116	-0.171684	17.98	0.839922196669379	12.65124	4.63	0.7	3.65e-06	0.011	1	5.515	0.94712	0.252514	-8.13	-	1	7.13335e-05	5.11357e-06	8	Q9Y6Q5
chr19_12349703_A/T	chr19	12349703	T	ENSG00000198342	ENST00000242804	stop_lost	2515	1882	628	K	Taa	Aaa	A	-1	SNV	ZNF442	protein_coding	YES	MANE_Select	NM_030824.3	ENSP00000242804	-	6/6	c.1882T>A	p.Ter628LysextTer7	0.00143806667718911	0.002206	-0.707255	-0.824077	2.837	0.835089679763869	2.526594	0.195	0.055	0.0009447	0.01	0	-1.57	0.00307	0.078448	-1.26	-	5	0.00437563	0.000987704	7	Q9H7R0
chr19_12390467_T/A	chr19	12390467	A	ENSG00000196466	ENST00000430385	stop_lost	2132	1931	644	L	tAg	tTg	T	-1	SNV	ZNF799	protein_coding	YES	MANE_Select	NM_001080821.3	ENSP00000411084	-	4/4	c.1931A>T	p.Ter644LeuextTer4	8.47505508785807e-05	0.001294	-0.616829	-0.735514	0.911	0.801980823660543	2.075235	-1.69	0.04	8.882e-05	0.002	0	-1.591	0.02935	0.106106	-1.29	-	1	0.000835716	0.000100463	4	Q96GE5
chr19_12430157_T/A	chr19	12430157	A	ENSG00000180855	ENST00000301547	stop_lost	2122	2015	672	L	tAg	tTg	T	-1	SNV	ZNF443	protein_coding	YES	MANE_Select	NM_005815.5	ENSP00000301547	-	4/4	c.2015A>T	p.Ter672LeuextTer4	0.209953280520008	0.3824	-0.824557	-0.813376	1.537	0.578245508848783	2.00461	-1.27	0.025	0.2295	0	0	-1.613	0.00435	0.106106	-1.71	-	39560	0.368832	0.21198	4	Q9Y2A4
chr19_12804301_T/C	chr19	12804301	C	ENSG00000284491	ENST00000639810	stop_lost	349	346	116	R	Tga	Cga	T	1	SNV	THSD8	protein_coding	YES	MANE_Select	NM_001386800.1	ENSP00000491231	-	2/2	c.346T>C	p.Ter116ArgextTer?	0.00374479889042996	0.0173	NA	NA	17.41	0.716680099352022	NA	5.2	NA	0	NA	0.977	2.099	0.87149	0.056701	-6.44	-	11	0.0168698	0.00216508	?	A0A1W2PP97
chr19_18929445_A/G	chr19	18929445	G	ENSG00000051128	ENST00000392351	stop_lost	1318	1084	362	R	Tga	Cga	A	-1	SNV	HOMER3	protein_coding	YES	MANE_Select	NM_004838.4	ENSP00000376162	-	10/10	c.1084T>C	p.Ter362ArgextTer7	5.93049460324991e-05	0.00558	-0.497398	-0.483807	16.55	0.878627001515151	6.238992	4.04	0.59	4.387e-05	0.067	0.996	2.919	0.76943	0.256867	-6.41	-	5	0.00884916	0.000253603	7	Q9NSC5
chr19_20950300_T/C	chr19	20950300	C	ENSG00000105750	ENST00000328178	stop_lost	1936	1786	596	R	Tga	Cga	T	1	SNV	ZNF85	protein_coding	YES	MANE_Select	NM_003429.5	ENSP00000329793	-	4/4	c.1786T>C	p.Ter596ArgextTer27	3.41997264021888e-05	0.0007443	-0.528994	-0.568018	6.3	0.730763269306842	2.71915	1.27	0.275	9.125e-06	0.011	0.367	0.432	0.02053	0.162113	-3.63	-	0	0.00104408	3.09974e-05	27	Q03923
chr19_21971191_C/G	chr19	21971191	G	ENSG00000160321	ENST00000397126	stop_lost	3992	3843	1281	Y	taG	taC	C	-1	SNV	ZNF208	protein_coding	YES	MANE_Select	NM_007153.3	ENSP00000380315	-	4/4	c.3843G>C	p.Ter1281TyrextTer158	0.00700246677806955	0.004918	-0.54273	-1.01737	0.085	0.332824874316394	0.6913708	-5.69	0	1.886e-05	0.002	0	-0.518	7e-05	0.061011	-0.37	not_provided	0	0.00248307	0.000249375	158	O43345
chr19_32879164_A/G	chr19	32879164	G	ENSG00000121289	ENST00000305768	stop_lost	2434	2350	784	Q	Tag	Cag	A	-1	SNV	CEP89	protein_coding	YES	MANE_Select	NM_032816.5	ENSP00000306105	-	19/19	c.2350T>C	p.Ter784GlnextTer8	0.314028453388419	0.353	-0.897704	-0.918446	5.302	0.598518965079735	1.305113	1.07	0.065	0.3036	0.007	0.054	0.919	3e-04	0.162113	4.72	Benign	89061	0.364322	0.321048	8	Q96ST8
chr19_34685235_T/C	chr19	34685235	C	ENSG00000089335	ENST00000505242	stop_lost	1692	1198	400	Q	Tag	Cag	T	1	SNV	ZNF302	protein_coding	YES	MANE_Select	NM_001289187.2	ENSP00000421028	-	5/5	c.1198T>C	p.Ter400GlnextTer149	0	0.0001125	-0.49072	-0.766815	8.673	0.397075179563564	1.941567	-1.16	0.39	4.866e-06	0.038	0	-1.399	0.0307	0.262962	4.19	-	1	0.000350573	1.61192e-05	149	Q9NR11
chr19_35716750_T/A	chr19	35716750	A	ENSG00000011590	ENST00000392197	stop_lost	1749	1462	488	R	Tga	Aga	T	1	SNV	ZBTB32	protein_coding	YES	MANE_Select	NM_014383.3	ENSP00000376035	-	7/7	c.1462T>A	p.Ter488ArgextTer23	0.000340475758126021	0.0003008	-0.0945423	-0.358094	18.17	0.854967073891146	4.863655	2.11	0.57	4.866e-05	0.049	0.008	-0.009	0.08577	0.08998	-5.17	-	1	9.41853e-06	5.8162e-05	23	Q9Y2Y4
chr19_35755523_T/A	chr19	35755523	A	ENSG00000004776	ENST00000004982	stop_lost	503	482	161	L	tAg	tTg	T	-1	SNV	HSPB6	protein_coding	YES	MANE_Select	NM_144617.3	ENSP00000004982	-	3/3	c.482A>T	p.Ter161LeuextTer22	0	0.0001302	0.13206	-0.0480809	15.58	0.87510221795022	7.439337	4.53	0.75	0	0.31	0.996	1.221	0.79214	0.092769	-5.81	-	0	0.00894249	0.00514033	22	O14558
chr19_36891494_A/T	chr19	36891494	T	ENSG00000185869	ENST00000391711	stop_lost	1662	1297	433	R	Tga	Aga	A	-1	SNV	ZNF829	protein_coding	YES	MANE_Select	NM_001037232.4	ENSP00000429266	-	6/6	c.1297T>A	p.Ter433ArgextTer5	6.29279097865485e-05	0.00127	-0.435839	-0.44927	12.76	0.897179988858593	4.479239	2.59	0.03	0.000101	0.008	0	0.161	0.05929	0.106106	-2.34	-	1	0.00125979	7.126e-05	5	Q3KNS6
chr19_43648892_A/G	chr19	43648892	G	ENSG00000011422	ENST00000340093	stop_lost	1055	1006	336	Q	Taa	Caa	A	-1	SNV	PLAUR	protein_coding	YES	MANE_Select	NM_002659.4	ENSP00000339328	-	7/7	c.1006T>C	p.Ter336GlnextTer2	0.000306905141669206	0.003817	-0.405453	-0.405622	16.3	0.749878873644745	8.760233	3.84	0.2	0.0003711	0.396	1	2.096	0.70045	0.295142	-2.81	-	4	0.00191304	0.000290076	2	Q03405
chr19_45306752_A/G	chr19	45306752	G	ENSG00000104879	ENST00000221476	stop_lost	1217	1144	382	Q	Tag	Cag	A	-1	SNV	CKM	protein_coding	YES	MANE_Select	NM_001824.5	ENSP00000221476	-	8/8	c.1144T>C	p.Ter382GlnextTer87	0.0011168341067877	0.001328	-0.330915	-0.298553	16.49	0.858040458820986	18.49634	5.49	0.92	0.0008425	0.055	1	8.92	0.98129	0.045349	-10.64	Likely_benign	4	0.00105932	0.00103279	87	P06732
chr19_46120331_T/A	chr19	46120331	A	ENSG00000188624	ENST00000341415	stop_lost	416	377	126	L	tAa	tTa	T	-1	SNV	IGFL3	protein_coding	YES	MANE_Select	NM_207393.2	ENSP00000344860	-	4/4	c.377A>T	p.Ter126LeuextTer33	2.82294489611563e-05	0.001272	-0.285926	-0.64849	4.727	0.549472608593115	2.382511	0.113	0.185	1.338e-05	0.001	0.017	0.201	0.0039	0.078448	-0.1	-	1	0.000495704	1.24137e-05	33	Q6UXB1
chr19_48286876_T/G	chr19	48286876	G	ENSG00000178150	ENST00000595607	stop_lost	1767	1252	418	G	Tga	Gga	T	1	SNV	ZNF114	protein_coding	YES	MANE_Select	NM_153608.4	ENSP00000469998	-	6/6	c.1252T>G	p.Ter418GlyextTer17	0.000505093925976873	0.0005179	-0.606423	-0.745828	0.692	0.513985851948887	3.646281	1.02	0.59	0.0005225	0.024	0.99	2.252	0.64971	0.115753	-5.56	-	1	0.00071249	0.000572122	17	Q8NC26
chr19_49035611_T/G	chr19	49035611	G	ENSG00000267631	ENST00000301407	stop_lost	651	467	156	S	tAg	tCg	T	-1	SNV	CGB1	protein_coding	YES	MANE_Select	NM_033377.2	ENSP00000301407	-	3/3	c.467A>C	p.Ter156SerextTer8	0.0199688594783963	0	-0.822529	-0.953329	5.719	0.756183159370511	1.728599	1.28	0.02	0.002886	0.005	0.001	0.348	3e-04	0.053691	1.26	-	675	0.0968824	0.00583871	8	A6NKQ9
chr19_50320248_A/C	chr19	50320248	C	ENSG00000131398	ENST00000477616	stop_lost	2567	2272	758	E	Tag	Gag	A	-1	SNV	KCNC3	protein_coding	YES	MANE_Select	NM_004977.3	ENSP00000434241	-	4/5	c.2272T>G	p.Ter758GluextTer29	0	0	-0.191969	-0.513527	17.07	0.848163460627181	6.863555	2.34	0.58	0	0.058	1	1.221	0.59551	0.090766	-8.77	-	0	0.00104822	0.000425967	29	Q14003
chr19_50819194_T/G	chr19	50819194	G	ENSG00000167748	ENST00000301420	stop_lost	828	789	263	C	tgA	tgC	T	-1	SNV	KLK1	protein_coding	YES	MANE_Select	NM_002257.4	ENSP00000301420	-	5/5	c.789A>C	p.Ter263CysextTer10	0	0.00129	-0.511931	-0.515393	17.93	0.653810547695556	4.782599	2.49	0.325	5.536e-05	0.104	0.985	2.423	0.85544	0.235384	-6.75	-	0	0.00164061	9.62141e-05	10	P06870
chr19_51872532_T/G	chr19	51872532	G	ENSG00000161551	ENST00000638348	stop_lost	2807	1458	486	Y	taA	taC	T	-1	SNV	ZNF577	protein_coding	YES	MANE_Select	NM_001370449.1	ENSP00000491936	-	6/6	c.1458A>C	p.Ter486TyrextTer3	0.000213435782508938	0.00114	-0.558421	-0.615443	9.504	0.796788497443498	3.066803	1.96	0.005	8.705e-05	0.016	0.06	1.483	0.09333	0.156188	-1.72	-	0	0.00117634	6.21234e-05	3	Q9BSK1
chr19_51964856_A/G	chr19	51964856	G	ENSG00000256683	ENST00000243644	stop_lost	1839	1597	533	Q	Tag	Cag	A	-1	SNV	ZNF350	protein_coding	YES	MANE_Select	NM_021632.4	ENSP00000243644	-	5/5	c.1597T>C	p.Ter533GlnextTer16	0.000649960280205099	0.002418	-0.573841	-0.603227	5.349	0.411016397434379	2.425603	0.961	0.09	2.494e-05	0.042	0	0.368	0.10573	0.156188	-0.65	-	3	0.00600197	0.00025433	16	Q9GZX5
chr19_54238953_T/A	chr19	54238953	A	ENSG00000244482	ENST00000396365	stop_lost	1485	1446	482	C	tgA	tgT	T	-1	SNV	LILRA6	protein_coding	YES	MANE_Select	NM_024318.5	ENSP00000379651	-	8/8	c.1446A>T	p.Ter482CysextTer29	0	0	-0.281138	-0.641612	6.905	0.633555816497734	2.567884	0.963	0.37	0	0.012	0.003	2.038	0.02068	0.06567	-1.64	-	1	2.20027e-05	1.24152e-06	29	Q6PI73
chr19_54510567_T/A	chr19	54510567	A	ENSG00000167618	ENST00000301202	stop_lost	545	457	153	R	Tga	Aga	T	1	SNV	LAIR2	protein_coding	YES	MANE_Select	NM_002288.6	ENSP00000301202	-	5/5	c.457T>A	p.Ter153ArgextTer?	0.0663139681905903	0.07433	-0.799263	-0.864157	3.262	0.648343139182642	2.225216	-0.424	0.045	0.04547	0.007	0.003	-0.458	0.00163	0.078448	-1.52	-	2808	0.0524434	0.048404	?	Q6ISS4
chr19_54752517_T/A	chr19	54752517	A	ENSG00000243772	ENST00000342376	stop_lost	1057	1024	342	R	Tga	Aga	T	1	SNV	KIR2DL3	protein_coding	YES	MANE_Select	NM_015868.3	ENSP00000342215	-	8/8	c.1024T>A	p.Ter342ArgextTer8	0.0954167346273039	0.3028	-0.481943	-0.930054	4.524	0.761375770191925	1.698415	0.635	0	0.003355	0.065	0.002	0.816	2e-05	0.061011	2.34	-	1481	0.0540062	0.00559435	8	P43628
chr19_54752519_A/G	chr19	54752519	G	ENSG00000243772	ENST00000342376	stop_lost	1059	1026	342	W	tgA	tgG	A	1	SNV	KIR2DL3	protein_coding	YES	MANE_Select	NM_015868.3	ENSP00000342215	-	8/8	c.1026A>G	p.Ter342TrpextTer8	0	0	-0.457216	-0.894536	3.461	0.577829909517262	2.47904	0.635	0	2.433e-06	0.065	0	-0.414	0.00115	0.061011	-1.94	-	1	3.71644e-06	2.73338e-06	8	P43628
chr19_54830273_T/C	chr19	54830273	C	ENSG00000167633	ENST00000391728	stop_lost	1366	1333	445	R	Tga	Cga	T	1	SNV	KIR3DL1	protein_coding	YES	MANE_Select	NM_013289.4	ENSP00000375608	-	9/9	c.1333T>C	p.Ter445ArgextTer11	0.000595541943168283	0.3184	-0.434208	-0.624817	0.226	0.773278108111785	2.547871	0.736	0.215	9.8e-05	0.229	0	-1.049	0.00922	0.061011	-3.22	-	9	0.00699228	0.000616171	11	P43629
chr19_54830274_G/C	chr19	54830274	C	ENSG00000167633	ENST00000391728	stop_lost	1367	1334	445	S	tGa	tCa	G	1	SNV	KIR3DL1	protein_coding	YES	MANE_Select	NM_013289.4	ENSP00000375608	-	9/9	c.1334G>C	p.Ter445SerextTer11	0	0	-0.459164	-0.897334	1.454	0.692403115008185	2.677954	0.736	0.25	8.644e-05	0.229	0.003	0.405	0.01795	0.061011	-4.06	-	8	0.00699719	0.000623488	11	P43629
chr19_55159062_T/C	chr19	55159062	C	ENSG00000167646	ENST00000524407	stop_lost	1721	1626	542	W	tgA	tgG	T	-1	SNV	DNAAF3	protein_coding	YES	MANE_Select	NM_001256715.2	ENSP00000432046	-	12/12	c.1626A>G	p.Ter542TrpextTer4	0.000257731958762887	0.001659	-0.74829	-0.866658	7.123	0.798556814334955	2.552008	-1.98	0.09	0.0001089	0.017	0.001	0.2	0.01577	0.114469	-1.58	Uncertain_significance	0	0.00157664	8.55092e-05	4	Q8N9W5
chr19_55987913_G/C	chr19	55987913	C	ENSG00000179709	ENST00000291971	stop_lost	3218	3147	1049	Y	taG	taC	G	1	SNV	NLRP8	protein_coding	YES	MANE_Select	NM_176811.2	ENSP00000291971	-	10/10	c.3147G>C	p.Ter1049TyrextTer10	0.727471616646427	0.7803	-0.968647	-1.02035	0.046	0.507483836480081	0.863954	0.372	0.01	0.7356	0.012	0	-1.258	0.00013	0.053691	0.71	-	438626	0.793224	0.738048	10	Q86W28
chr19_56088024_T/C	chr19	56088024	C	ENSG00000142409	ENST00000610935	stop_lost	1282	1148	383	W	tAg	tGg	T	-1	SNV	ZNF787	protein_coding	YES	MANE_Select	NM_001002836.4	ENSP00000478557	-	3/3	c.1148A>G	p.Ter383TrpextTer59	8.43028157140448e-05	0	-0.135731	-0.432744	15.15	0.852727412647249	4.974487	2.95	NA	0	0	0	-0.135	0.15836	0.092769	-3.42	-	0	0.0147681	0.00119884	59	Q6DD87
chr19_56088025_A/C	chr19	56088025	C	ENSG00000142409	ENST00000610935	stop_lost	1281	1147	383	E	Tag	Gag	A	-1	SNV	ZNF787	protein_coding	YES	MANE_Select	NM_001002836.4	ENSP00000478557	-	3/3	c.1147T>G	p.Ter383GluextTer59	0	0	-0.33603	-0.720461	13.75	0.758266219550108	4.96916	2.95	NA	0	0	0	-0.073	0.13323	0.092769	-3.1	-	0	0.00876729	0.000700714	59	Q6DD87
chr19_56578581_T/C	chr19	56578581	C	ENSG00000197016	ENST00000330619	stop_lost	2881	2152	718	Q	Tag	Cag	T	1	SNV	ZNF470	protein_coding	YES	MANE_Select	NM_001001668.4	ENSP00000333223	-	6/6	c.2152T>C	p.Ter718GlnextTer8	0.000352459534934162	0.004023	-0.68118	-0.75335	10.7	0.777957974927642	4.320486	2.85	0.01	0.00025	0.006	0.002	1.171	0.10063	0.322412	-2.97	-	2	0.00298495	0.000156567	8	Q6ECI4
chr19_57507422_T/G	chr19	57507422	G	ENSG00000152439	ENST00000282292	stop_lost	1470	1327	443	G	Tga	Gga	T	1	SNV	ZNF773	protein_coding	YES	MANE_Select	NM_198542.3	ENSP00000282292	-	4/4	c.1327T>G	p.Ter443GlyextTer2	3.03137472843935e-05	0.001272	-0.736377	-0.925617	0.015	0.336021307004263	1.75551	-1.76	0.01	3.954e-05	0.002	0	-4.289	0.0143	0.156188	-1.49	-	1	0.00101902	5.56055e-05	2	Q6PK81
chr2_26456517_A/C	chr2	26456517	C	ENSG00000157856	ENST00000288710	stop_lost	2293	2223	741	C	tgA	tgC	A	1	SNV	DRC1	protein_coding	YES	MANE_Select	NM_145038.5	ENSP00000288710	-	17/17	c.2223A>C	p.Ter741CysextTer13	0.000511712531271321	0.004847	-0.603199	-0.638963	11.27	0.78355441158505	3.377331	0.409	0.085	0.0003388	0.037	0.061	0.375	0.13728	0.074636	-2.26	Benign/Likely_benign	4	0.00454412	0.000230473	13	Q96MC2
chr2_54254920_T/A	chr2	54254920	A	ENSG00000178021	ENST00000317802	stop_lost	1310	1232	411	L	tAa	tTa	T	-1	SNV	TSPYL6	protein_coding	YES	MANE_Select	NM_001003937.3	ENSP00000417919	-	1/1	c.1232A>T	p.Ter411LeuextTer42	0	0	-0.0672006	-0.231362	7.934	0.937037151282837	4.793089	1.83	0.73	4.258e-06	0.003	0.014	0.969	0.2123	0.078448	-2.17	-	1	7.77363e-05	4.35237e-06	42	Q8N831
chr2_98312347_T/A	chr2	98312347	A	ENSG00000168658	ENST00000477737	stop_lost	4112	3883	1295	K	Taa	Aaa	T	1	SNV	VWA3B	protein_coding	YES	MANE_Select	NM_144992.5	ENSP00000417955	-	28/28	c.3883T>A	p.Ter1295LysextTer32	0	0.0004653	-0.632538	-0.854224	0.805	0.35071233334412	1.582438	-2.78	0.31	7.299e-06	0.005	0	0.014	0.06043	0.126639	-1.81	-	0	0.00279767	7.90818e-05	32	Q502W6
chr2_111117814_T/C	chr2	111117814	C	ENSG00000153093	ENST00000439055	stop_lost	1965	1741	581	Q	Taa	Caa	T	1	SNV	ACOXL	protein_coding	YES	MANE_Select	NM_001142807.4	ENSP00000407761	-	18/18	c.1741T>C	p.Ter581GlnextTer144	0.00255431971029488	0.02045	-0.425805	-0.368159	13.2	0.808686475802642	3.926398	2.82	0.315	0.001454	0.04	0.009	0.52	0.05027	0.162408	-4.08	-	16	0.0206008	0.00112637	144	Q9NUZ1
chr2_113500482_A/G	chr2	113500482	G	ENSG00000184492	ENST00000306507	stop_lost	1818	1226	409	W	tAg	tGg	A	1	SNV	FOXD4L1	protein_coding	YES	MANE_Select	NM_012184.5	ENSP00000302756	-	1/1	c.1226A>G	p.Ter409TrpextTer76	8.43028157140448e-05	0.0008904	-0.236073	-0.576879	7.683	0.775425573974599	3.146511	1.22	0.525	4.452e-05	0.001	0	-0.584	0.04535	0.095506	-2.01	-	6	2.48842e-05	1.84496e-05	76	Q9NU39
chr2_130190625_A/T	chr2	130190625	T	ENSG00000152082	ENST00000281871	stop_lost	497	476	159	L	tAg	tTg	A	1	SNV	MZT2B	protein_coding	YES	MANE_Select	NM_025029.5	ENSP00000281871	-	3/3	c.476A>T	p.Ter159LeuextTer27	0	9.306e-05	-0.461624	-0.523813	11.86	0.714165169187281	3.904176	1.49	0.63	6.691e-06	0.012	0.621	0.799	0.45346	0.67177	-7.71	-	0	0.00245352	6.86861e-05	27	Q6NZ67
chr2_131533398_A/G	chr2	131533398	G	ENSG00000163040	ENST00000409856	stop_lost	1022	939	313	W	tgA	tgG	A	1	SNV	CCDC74A	protein_coding	YES	MANE_Select	NM_001258306.3	ENSP00000387009	-	8/8	c.939A>G	p.Ter313TrpextTer24	0	0	-0.212485	-0.542997	10.66	0.857177602635892	4.340589	3.07	0.52	3.041e-06	0.008	0.261	1.441	0.27037	0.295142	-5.83	-	1	0.000169033	3.71881e-06	24	Q96AQ1
chr2_184939026_G/C	chr2	184939026	C	ENSG00000170396	ENST00000302277	stop_lost	4061	3630	1210	Y	taG	taC	G	1	SNV	ZNF804A	protein_coding	YES	MANE_Select	NM_194250.2	ENSP00000303252	-	4/4	c.3630G>C	p.Ter1210TyrextTer4	0.000173656334114787	0.01088	-0.478583	-0.582497	9.611	0.813329148700055	5.718283	4.1	0.405	9.55e-05	0.227	0.995	2.103	0.9194	0.164513	-6.21	-	1	0.000512843	9.36641e-05	4	Q7Z570
chr2_189666109_T/C	chr2	189666109	C	ENSG00000286053	ENST00000607829	stop_lost	351	289	97	Q	Tag	Cag	T	1	SNV	ASDURF	protein_coding	YES	MANE_Select	NM_001353493.2	ENSP00000475224	-	4/4	c.289T>C	p.Ter97GlnextTer3	0.000208044382801664	0.002814	-0.497815	-0.488134	11.82	0.677725682946774	NA	3.25	0.175	0.0001722	0.122	1	1.734	0.9357	0.322412	-4.25	-	11	0.00985772	0.000277793	3	L0R819
chr2_206738484_T/G	chr2	206738484	G	ENSG00000138400	ENST00000374412	stop_lost	1613	1556	519	S	tAa	tCa	T	-1	SNV	MDH1B	protein_coding	YES	MANE_Select	NM_001039845.3	ENSP00000363533	-	12/12	c.1556A>C	p.Ter519SerextTer15	0	1.251e-05	-0.492103	-0.944648	0.301	0.316289555948591	1.526932	-3.53	0.28	1.703e-05	0.012	0	0.02	0.06204	0.074636	-1.1	-	1	1.89857e-05	1.45387e-05	15	Q5I0G3
chr2_207613048_A/G	chr2	207613048	G	ENSG00000144401	ENST00000411432	stop_lost	1017	655	219	Q	Taa	Caa	A	-1	SNV	METTL21A	protein_coding	YES	MANE_Select	NM_001127395.5	ENSP00000415115	-	4/4	c.655T>C	p.Ter219GlnextTer15	0.00050312797391535	0.003817	-0.243921	-0.173593	17.96	0.813933999853581	17.1449	4.76	0.82	0.0004033	0.132	1	7.915	0.99662	0.322412	-7.87	-	2	0.00382742	0.000365961	15	Q8WXB1
chr2_232768193_A/G	chr2	232768193	G	ENSG00000115474	ENST00000233826	stop_lost	1218	1081	361	Q	Taa	Caa	A	-1	SNV	KCNJ13	protein_coding	YES	MANE_Select	NM_002242.4	ENSP00000233826	-	3/3	c.1081T>C	p.Ter361GlnextTer6	0	0.000279	-0.153262	-0.288799	16.95	0.921976174809229	18.19765	6.17	NA	4.258e-06	0.214	0.999	4.288	0.98293	0.106106	-8.35	Uncertain_significance	0	0.00202718	5.63838e-05	6	O60928
chr2_241894214_C/G	chr2	241894214	G	ENSG00000216921	ENST00000404031	stop_lost	382	287	96	S	tGa	tCa	C	-1	SNV	FAM240C	protein_coding	YES	MANE_Select	NM_001382368.1	ENSP00000490626	-	3/3	c.287G>C	p.Ter96SerextTer46	0.00190942582442268	0.001872	NA	NA	3.291	0.659622703933271	5.020755	2.02	0.37	0.0003254	NA	0.182	0.32	0.46064	0.078448	-3.59	-	3	0.000665557	0.00040157	46	A0A1B0GVR7
chr20_259305_A/C	chr20	259305	C	ENSG00000186458	ENST00000382376	stop_lost	342	287	96	S	tAa	tCa	A	1	SNV	DEFB132	protein_coding	YES	MANE_Select	NM_207469.3	ENSP00000371813	-	2/2	c.287A>C	p.Ter96SerextTer1	0.00127071061289624	0.001484	-0.744754	-0.848422	0.807	0.373136815230515	2.128051	-0.491	0	0.001214	0.011	0	-0.311	0.00495	0.095506	1.46	-	2	0.00166279	0.00150127	1	Q7Z7B7
chr20_1566156_C/G	chr20	1566156	G	ENSG00000101307	ENST00000381605	stop_lost	1261	1196	399	S	tGa	tCa	C	-1	SNV	SIRPB1	protein_coding	YES	MANE_Select	NM_006065.5	ENSP00000371018	-	5/6	c.1196G>C	p.Ter399SerextTer12	0.00031768507424754	0.008906	-0.735544	-0.830173	10.97	0.865193727381632	3.445938	1.2	0.065	0.0005116	0.031	0.004	0.722	0.06881	0.078448	-1.62	-	2	0.00430321	0.0004471	12	O00241
chr20_45123846_T/A	chr20	45123846	A	ENSG00000168703	ENST00000372785	stop_lost	354	336	112	C	tgA	tgT	T	-1	SNV	WFDC12	protein_coding	YES	MANE_Select	NM_080869.2	ENSP00000361871	-	3/3	c.336A>T	p.Ter112CysextTer69	0.00013869625520111	0.00172	-0.724855	-0.818284	4.167	0.471413037335297	2.903206	1.75	0.325	7.786e-05	0.005	0	0.008	0.01493	0.06567	-1.48	-	0	0.00191179	0.000128345	69	Q8WWY7
chr20_45293768_C/A	chr20	45293768	A	ENSG00000124159	ENST00000372756	stop_lost	1904	1745	582	L	tGa	tTa	C	-1	SNV	MATN4	protein_coding	YES	MANE_Select	NM_001393530.1	ENSP00000361842	-	10/10	c.1745G>T	p.Ter582LeuextTer49	0	0	-0.279207	-0.379159	19.95	0.905947008182178	12.45383	3.92	0.945	1.034e-05	0.279	1	6.151	0.9369	0.110573	-9.95	-	1	0.000253282	1.61765e-05	49	O95460
chr20_58160820_T/C	chr20	58160820	C	ENSG00000124237	ENST00000371168	stop_lost	475	412	138	R	Tga	Cga	T	1	SNV	CIMIP1	protein_coding	YES	MANE_Select	NM_178456.3	ENSP00000360210	-	4/4	c.412T>C	p.Ter138ArgextTer51	0	0.000186	0.159961	-0.008004	17.94	0.840170847991439	12.51266	5.28	0.895	1.217e-06	0.007	1	3.847	0.94914	0.053691	-8.05	-	1	0.000222896	6.20842e-06	51	Q9H1P6
chr20_58218495_C/A	chr20	58218495	A	ENSG00000124227	ENST00000457363	stop_lost	1038	1038	346	Y	taG	taT	C	-1	SNV	ANKRD60	protein_coding	YES	MANE_Select	NM_001304369.2	ENSP00000396747	-	4/4	c.1038G>T	p.Ter346TyrextTer9	0	0	-0.443282	-0.874521	3.169	0.714795733566319	2.895143	0.424	0	0	0.008	0.006	0.548	0.07269	0.06567	-1.71	-	1	2.3872e-05	1.29229e-06	9	Q9BZ19
chr21_13641564_T/C	chr21	13641564	C	ENSG00000166351	ENST00000299443	stop_lost	2205	1753	585	Q	Taa	Caa	T	1	SNV	POTED	protein_coding	YES	MANE_Select	NM_174981.6	ENSP00000299443	-	11/11	c.1753T>C	p.Ter585GlnextTer6	0	0	-0.516123	-0.979152	0.452	0.34424832980549	1.03811	-4.2	0.035	1.83e-06	0.028	0.012	-0.308	0.00485	0.061011	-2.43	-	2	7.91045e-05	7.66836e-06	6	Q86YR6
chr21_42372764_A/G	chr21	42372764	G	ENSG00000160183	ENST00000644384	stop_lost	1522	1360	454	R	Tga	Cga	A	-1	SNV	TMPRSS3	protein_coding	YES	MANE_Select	NM_001256317.3	ENSP00000494414	-	13/13	c.1360T>C	p.Ter454ArgextTer9	0.000292024539877301	0.002966	-0.582617	-0.612716	10.3	0.804066112827079	6.631083	3.7	0.11	0.0002287	0.143	1	2.361	0.79523	0.262962	-5.29	Conflicting_classifications_of_pathogenicity	0	0.0032283	0.000167914	9	P57727
chr21_44574964_A/C	chr21	44574964	C	ENSG00000215454	ENST00000400374	stop_lost	1236	1206	402	C	tgA	tgC	A	1	SNV	KRTAP10-4	protein_coding	YES	MANE_Select	NM_198687.2	ENSP00000383225	-	1/1	c.1206A>C	p.Ter402CysextTer10	0.0262056636736684	0.2156	-0.642388	-0.551702	8.646	0.610600552789299	5.159361	4.38	0.09	0.02574	0	0	0.111	0.05915	0.056701	5.79	-	1946	0.215675	0.0221488	10	P60372
chr22_18530458_A/C	chr22	18530458	C	ENSG00000278558	ENST00000612978	stop_lost	1219	1040	347	S	tAa	tCa	A	1	SNV	TMEM191B	protein_coding	YES	MANE_Select	NM_001242313.1	ENSP00000481358	-	9/9	c.1040A>C	p.Ter347SerextTer?	0	0	NA	NA	9.335	NA	NA	NA	NA	4.813e-05	0.009	0.449	1.011	0.04937	0.078448	-3.88	-	32	0.000182417	0.000143004	?	P0C7N4
chr22_29313301_T/G	chr22	29313301	G	ENSG00000100276	ENST00000216101	stop_lost	1063	612	204	C	tgA	tgC	T	-1	SNV	RASL10A	protein_coding	YES	MANE_Select	NM_006477.5	ENSP00000216101	-	3/3	c.612A>C	p.Ter204CysextTer13	0	3.752e-05	-0.0287017	-0.238284	18.11	0.794301899653895	12.32444	5.29	0.53	3.65e-06	0.004	1	3.914	0.98709	0.060513	-10.56	-	1	4.44464e-05	3.31133e-06	13	Q92737
chr22_40826539_T/G	chr22	40826539	G	ENSG00000100380	ENST00000216218	stop_lost	1208	1109	370	S	tAa	tCa	T	-1	SNV	ST13	protein_coding	YES	MANE_Select	NM_003932.5	ENSP00000216218	-	12/12	c.1109A>C	p.Ter370SerextTer6	0.000811688311688312	0.005061	-0.456204	-0.426853	11.67	0.72000259958582	6.831459	4.65	0.75	0.000295	0.096	1	4.128	0.98058	0.295142	-7.97	-	0	0.00438948	0.000215294	6	P50502
chr22_42078071_T/C	chr22	42078071	C	ENSG00000177096	ENST00000321753	stop_lost	968	778	260	Q	Taa	Caa	T	1	SNV	PHETA2	protein_coding	YES	MANE_Select	NM_001002034.3	ENSP00000312753	-	3/3	c.778T>C	p.Ter260GlnextTer5	5.26057375324402e-05	0.000215	-0.316408	-0.287873	12.57	0.738751372792152	5.094539	4.31	0.52	0.0001131	0.019	0.02	0.386	0.20786	0.295142	-2.4	-	1	0.00101884	0.00012437	5	Q6ICB4
chr22_43039778_A/G	chr22	43039778	G	ENSG00000100271	ENST00000266254	stop_lost	1474	1270	424	R	Tga	Cga	A	-1	SNV	TTLL1	protein_coding	YES	MANE_Select	NM_012263.5	ENSP00000266254	-	11/11	c.1270T>C	p.Ter424ArgextTer17	0	0.001488	-0.167283	-0.0130748	19.13	0.813490242252545	13.82837	4.44	0.79	1.825e-05	0.232	1	8.782	0.98431	0.252514	-8.92	-	0	0.00183552	5.21911e-05	17	O95922
chr22_44862593_T/G	chr22	44862593	G	ENSG00000241484	ENST00000356099	stop_lost	1424	1300	434	E	Tag	Gag	T	1	SNV	ARHGAP8	protein_coding	YES	MANE_Select	NM_181335.3	ENSP00000348407	-	12/12	c.1300T>G	p.Ter434GluextTer33	0	0.002399	-0.767247	-0.8689	3.476	0.550906174665103	3.038642	1.76	0.31	1.886e-05	0.05	0	0.224	0.0363	0.262962	-1.91	-	0	0.0033293	9.60725e-05	33	P85298
chr22_50217367_T/C	chr22	50217367	C	ENSG00000073169	ENST00000380903	stop_lost	2034	2008	670	Q	Taa	Caa	T	1	SNV	SELENOO	protein_coding	YES	MANE_Select	NM_031454.2	ENSP00000370288	-	9/9	c.2008T>C	p.Ter670GlnextTer?	0	0.0006449	-0.31634	-0.319912	15.4	0.745141487571261	6.71156	4.32	0.22	4.197e-05	NA	1	5.622	0.92142	0.256867	-7.74	-	3	0.000999253	6.44965e-05	?	Q9BVL4
chr22_50217367_T/G	chr22	50217367	G	ENSG00000073169	ENST00000380903	stop_lost	2034	2008	670	E	Taa	Gaa	T	1	SNV	SELENOO	protein_coding	YES	MANE_Select	NM_031454.2	ENSP00000370288	-	9/9	c.2008T>G	p.Ter670GluextTer?	0	0.002551	-0.21287	-0.543549	15.3	0.753763139654517	6.71156	4.32	0.22	4.258e-06	NA	1	5.622	0.96457	0.256867	-10.72	-	1	0.00148564	8.06148e-06	?	Q9BVL4
chr3_9838018_A/C	chr3	9838018	C	ENSG00000156990	ENST00000383820	stop_lost	1048	1030	344	E	Tag	Gag	A	-1	SNV	RPUSD3	protein_coding	YES	MANE_Select	NM_173659.5	ENSP00000373331	-	9/9	c.1030T>G	p.Ter344GluextTer6	0.000270953757225433	0.0004012	-0.507694	-0.833882	2.243	0.805763981831787	2.455382	-3.52	0.045	4.501e-05	NA	0	-0.166	0.07771	0.322412	-1.57	-	1	9.54675e-06	6.27034e-05	6	Q6P087
chr3_15451646_A/G	chr3	15451646	G	ENSG00000206561	ENST00000383788	stop_lost	1447	1366	456	R	Tga	Cga	A	-1	SNV	COLQ	protein_coding	YES	MANE_Select	NM_005677.4	ENSP00000373298	-	17/17	c.1366T>C	p.Ter456ArgextTer3	0	0.000279	0.126407	-0.0562021	19.07	0.883783614679296	16.51347	5.49	0.605	6.692e-06	0.332	1	8.78	0.99149	0.162113	-9.85	Uncertain_significance	1	0.00193833	5.38988e-05	3	Q9Y215
chr3_17089910_T/G	chr3	17089910	G	ENSG00000154822	ENST00000615277	stop_lost	3467	3382	1128	G	Tga	Gga	T	1	SNV	PLCL2	protein_coding	YES	MANE_Select	NM_001144382.2	ENSP00000478458	-	6/6	c.3382T>G	p.Ter1128GlyextTer5	0.00291635428201971	0.02632	-0.504621	-0.477358	14.18	0.668083500057661	8.416221	5.91	0.625	0.002043	0.057	1	4.307	0.83597	0.295142	-6.64	Benign	31	0.0258591	0.00140726	5	Q9UPR0
chr3_25794492_T/C	chr3	25794492	C	ENSG00000151093	ENST00000280701	stop_lost	1467	1378	460	Q	Tag	Cag	T	1	SNV	OXSM	protein_coding	YES	MANE_Select	NM_017897.3	ENSP00000280701	-	3/3	c.1378T>C	p.Ter460GlnextTer3	0.0163197214767535	0.1425	-0.231605	0.0126704	14.61	0.854354956230239	15.23006	5.13	0.155	0.01056	0.002	1	7.077	0.99163	0.156188	-8.53	-	752	0.143131	0.00781814	3	Q9NWU1
chr3_36715330_A/C	chr3	36715330	C	ENSG00000163673	ENST00000636136	stop_lost	2742	2452	818	E	Tag	Gag	A	-1	SNV	DCLK3	protein_coding	YES	MANE_Select	NM_001394672.2	ENSP00000489900	-	5/5	c.2452T>G	p.Ter818GluextTer27	0.000415980032958418	0.003883	-0.751108	-0.854428	5.384	0.707859069969409	3.601643	2.71	0.375	0.0002853	0.009	0.075	1.539	0.1787	0.074636	-2.23	-	0	0.00358418	0.00019701	27	-
chr3_46409113_A/C	chr3	46409113	C	ENSG00000121797	ENST00000399036	stop_lost	1290	1034	345	S	tAa	tCa	A	1	SNV	CCRL2	protein_coding	YES	MANE_Select	NM_003965.5	ENSP00000381994	-	2/2	c.1034A>C	p.Ter345SerextTer10	0.000909192950948479	0.008925	-0.730546	-0.815333	1.1	0.476587369911253	1.898665	-3.51	0.16	0.0006168	0.179	0	0.219	0.19441	0.089122	-1.36	Benign	3	0.00911748	0.000456234	10	O00421
chr3_52214178_T/G	chr3	52214178	G	ENSG00000023330	ENST00000484952	stop_lost	2226	1921	641	G	Tga	Gga	T	1	SNV	ALAS1	protein_coding	YES	MANE_Select	NM_000688.6	ENSP00000418779	-	12/12	c.1921T>G	p.Ter641GlyextTer2	0	0.0008371	-0.196608	-0.157157	14.59	0.790813821529911	14.47057	5.14	0.47	1.825e-06	0.524	1	6.818	0.99808	0.295142	-10.81	-	0	0.00139778	3.90251e-05	2	P13196
chr3_54918460_C/A	chr3	54918460	A	ENSG00000144771	ENST00000273286	stop_lost	1185	1037	346	L	tGa	tTa	C	-1	SNV	LRTM1	protein_coding	YES	MANE_Select	NM_020678.4	ENSP00000273286	-	3/3	c.1037G>T	p.Ter346LeuextTer19	0	0.0001397	-0.2506	-0.400775	11.68	0.7706293298919	8.628064	2.57	0.71	1.825e-06	0.014	0.998	0.812	0.93079	0.084033	-7.89	-	1	0.00013395	4.9724e-06	19	Q9HBL6
chr3_75736880_A/C	chr3	75736880	C	ENSG00000227124	ENST00000652011	stop_lost	2911	2743	915	G	Tga	Gga	A	-1	SNV	ZNF717	protein_coding	YES	MANE_Select	NM_001290208.3	ENSP00000498738	-	5/5	c.2743T>G	p.Ter915GlyextTer42	0	0	-0.477712	-0.923977	0.331	0.609569841431917	1.575101	-2.87	0.045	0.2151	0.004	0.002	0.478	0.00563	0.156188	-1.66	-	1	0.373575	0.359263	42	Q9BY31
chr3_132356876_T/C	chr3	132356876	C	ENSG00000014257	ENST00000336375	stop_lost	1209	1159	387	Q	Tag	Cag	T	1	SNV	ACP3	protein_coding	YES	MANE_Select	NM_001099.5	ENSP00000337471	-	10/10	c.1159T>C	p.Ter387GlnextTer7	0.000184619171675316	0.004743	-0.716462	-0.799312	11.47	0.705141417892505	1.57111	3.95	0.31	2.676e-05	0.097	0.111	1.994	0.38271	0.162113	-4.32	-	1	0.00258894	7.573e-05	7	P15309
chr3_148742115_A/G	chr3	148742115	G	ENSG00000144891	ENST00000349243	stop_lost	1436	1080	360	W	tgA	tgG	A	1	SNV	AGTR1	protein_coding	YES	MANE_Select	NM_000685.5	ENSP00000273430	-	3/3	c.1080A>G	p.Ter360TrpextTer9	0	0.000215	-0.235519	-0.394555	15.76	0.851982441804041	12.06961	5.54	0.71	4.866e-06	0.43	1	4.448	0.96324	0.061011	-6.75	Uncertain_significance	1	9.88272e-05	6.19541e-06	9	P30556
chr3_151828170_T/C	chr3	151828170	C	ENSG00000114771	ENST00000232892	stop_lost	1245	1198	400	Q	Tag	Cag	T	1	SNV	AADAC	protein_coding	YES	MANE_Select	NM_001086.3	ENSP00000232892	-	5/5	c.1198T>C	p.Ter400GlnextTer1	0.00563701136611492	0.006115	-0.387604	-0.323569	13.15	0.901235871263909	8.67615	4.79	0.14	0.005203	0.006	1	5.333	0.91913	0.074636	-6.4	Likely_benign	89	0.00676797	0.00536705	1	P22760
chr3_172889572_A/G	chr3	172889572	G	ENSG00000144962	ENST00000351008	stop_lost	1859	1708	570	Q	Tag	Cag	A	-1	SNV	SPATA16	protein_coding	YES	MANE_Select	NM_031955.6	ENSP00000341765	-	11/11	c.1708T>C	p.Ter570GlnextTer9	0.000772511364216763	0.0124	-0.546497	-0.547393	14.55	0.662505591313162	9.91002	4.55	0.405	0.0009289	0.009	0.985	1.186	0.86354	0.074636	-4.69	Benign	5	0.0110548	0.000607347	9	Q9BXB7
chr4_2833834_A/G	chr4	2833834	G	ENSG00000087266	ENST00000503393	stop_lost	1744	1686	562	W	tgA	tgG	A	1	SNV	SH3BP2	protein_coding	YES	MANE_Select	NM_001122681.2	ENSP00000422168	-	13/13	c.1686A>G	p.Ter562TrpextTer30	0.000892564077463045	0.0007866	-0.41855	-0.373041	16.88	0.830414311315231	12.30669	5.6	0	0.0006448	NA	1	6.387	0.96838	0.256867	-8.26	Benign/Likely_benign	2	0.000910504	0.000812058	30	P78314
chr4_68537625_C/G	chr4	68537625	G	ENSG00000197888	ENST00000317746	stop_lost	2029	1593	531	Y	taG	taC	C	-1	SNV	UGT2B17	protein_coding	YES	MANE_Select	NM_001077.4	ENSP00000320401	-	7/7	c.1593G>C	p.Ter531TyrextTer9	0	1.755e-05	-0.430602	-0.856307	1.025	0.751155951148266	2.946189	1.03	0.29	5.475e-06	0.047	0.001	-0.246	0.11777	0.053691	-5.02	-	1	9.55617e-06	8.06071e-06	9	O75795
chr4_69294808_A/T	chr4	69294808	T	ENSG00000135226	ENST00000335568	stop_lost	1615	1589	530	L	tAg	tTg	A	1	SNV	UGT2B28	protein_coding	YES	MANE_Select	NM_053039.2	ENSP00000334276	-	6/6	c.1589A>T	p.Ter530LeuextTer59	0	0	-0.313127	-0.687561	3.983	0.662332028150798	4.043588	1.85	0.505	0	0.003	0.038	1.557	0.72892	0.061011	-3.78	-	1	2.44469e-05	1.29225e-06	59	Q9BY64
chr4_76021932_A/G	chr4	76021932	G	ENSG00000169245	ENST00000306602	stop_lost	361	295	99	Q	Taa	Caa	A	-1	SNV	CXCL10	protein_coding	YES	MANE_Select	NM_001565.4	ENSP00000305651	-	4/4	c.295T>C	p.Ter99GlnextTer37	0.000202161686028461	0.001601	-0.795076	-0.950226	0.155	0.548286719734993	2.516749	-3.03	0.08	0.0001983	0.117	0	-0.274	0.00707	0.360877	-2.16	-	0	0.00141615	0.000112293	37	P02778
chr4_76034794_T/A	chr4	76034794	A	ENSG00000169248	ENST00000306621	stop_lost	367	284	95	L	tAa	tTa	T	-1	SNV	CXCL11	protein_coding	YES	MANE_Select	NM_005409.5	ENSP00000306884	-	4/4	c.284A>T	p.Ter95LeuextTer6	0.0023306971141256	0.002562	-0.550209	-0.567729	0.043	0.730132737247691	2.552541	1.88	0.03	0.001944	0.387	0.003	-0.5	0.00294	0.078448	1.69	-	10	0.00232135	0.00192909	6	O14625
chr4_76283457_A/G	chr4	76283457	G	ENSG00000189157	ENST00000424749	stop_lost	1207	1181	394	W	tAg	tGg	A	1	SNV	FAM47E	protein_coding	YES	MANE_Select	NM_001136570.3	ENSP00000409423	-	8/8	c.1181A>G	p.Ter394TrpextTer30	0.000102278771018287	0.0004252	-0.446963	-0.584973	3.946	0.727830646961606	3.463435	1.4	0.565	5.294e-05	0.008	0.001	0.063	0.10672	0.078448	-1.54	-	0	0.00101215	5.11168e-05	30	Q6ZV65
chr4_121816854_T/G	chr4	121816854	G	ENSG00000123737	ENST00000243498	stop_lost	1420	1318	440	E	Taa	Gaa	T	1	SNV	EXOSC9	protein_coding	YES	MANE_Select	NM_005033.3	ENSP00000243498	-	12/12	c.1318T>G	p.Ter440GluextTer2	0.000547789123099172	0.000964	-0.390754	-0.390416	17.24	0.893407622978859	9.916224	3.77	0.305	6.753e-05	0.034	1	3.486	0.82629	0.322412	-5.06	Uncertain_significance	0	0.0010376	5.37502e-05	2	Q06265
chr4_151291451_T/G	chr4	151291451	G	ENSG00000189099	ENST00000455694	stop_lost	997	985	329	E	Taa	Gaa	T	1	SNV	PRSS48	protein_coding	YES	MANE_Select	NM_183375.5	ENSP00000401328	-	5/5	c.985T>G	p.Ter329GluextTer18	0.926900634059497	0.9644	-0.882358	-0.896403	2.655	0.511868180164577	2.065179	0.679	0	0.9272	0.027	0.005	-0.332	0.00236	0.057505	2.69	-	692572	0.966687	0.927004	18	Q7RTY5
chr4_174977986_T/C	chr4	174977986	C	ENSG00000168594	ENST00000359240	stop_lost	3131	2461	821	Q	Tag	Cag	T	1	SNV	ADAM29	protein_coding	YES	MANE_Select	NM_014269.4	ENSP00000352177	-	5/5	c.2461T>C	p.Ter821GlnextTer61	0.0266955806475735	0.001929	-0.79044	-0.864167	0.706	0.525043240793547	1.239013	-0.888	0.41	0.0001454	0.04	0.001	-0.146	3e-05	0.074636	2.07	-	0	0.00261091	0.00064127	61	Q9UKF5
chr4_190175046_T/C	chr4	190175046	C	ENSG00000260596	ENST00000565211	stop_lost	1273	1273	425	Q	Tag	Cag	T	1	SNV	DUX4	protein_coding	YES	MANE_Select	NM_001306068.3	ENSP00000458065	-	1/2	c.1273T>C	p.Ter425GlnextTer48	0	0	NA	NA	9.175	NA	NA	NA	NA	0	0.181	0.001	0.032	NA	NA	-0.99	-	0	0.047619	0.0117432	48	Q9UBX2
chr5_1246076_T/A	chr5	1246076	A	ENSG00000164363	ENST00000324642	stop_lost	1982	1885	629	R	Tga	Aga	T	1	SNV	SLC6A18	protein_coding	YES	MANE_Select	NM_182632.3	ENSP00000323549	-	12/12	c.1885T>A	p.Ter629ArgextTer37	7.21552781585973e-05	0.0003267	-0.388751	-0.506047	6.606	0.663416637733671	2.507382	0.853	0.73	4.137e-05	0.002	0	-0.641	0.01353	0.056701	-1.52	-	1	0.000391744	2.92596e-05	37	Q96N87
chr5_17491326_T/C	chr5	17491326	C	ENSG00000268799	ENST00000600799	stop_lost	751	443	148	W	tAg	tGg	T	-1	SNV	H3Y2	protein_coding	YES	MANE_Select	NM_001371919.1	ENSP00000497053	-	1/1	c.443A>G	p.Ter148TrpextTer19	0	0.0001115	NA	NA	3.84	0.490264904491718	NA	-1.84	NA	0	NA	0.014	-0.039	0.00492	0.053691	-0.41	-	1	8.27301e-05	9.78024e-06	19	P0DPK5
chr5_55114218_C/G	chr5	55114218	G	ENSG00000164287	ENST00000381375	stop_lost	1737	1560	520	Y	taG	taC	C	-1	SNV	CDC20B	protein_coding	YES	MANE_Select	NM_001170402.1	ENSP00000370781	-	12/12	c.1560G>C	p.Ter520TyrextTer14	7.11743772241993e-05	0.001505	-0.596464	-0.722292	8.897	0.706646456292806	4.440958	3.07	0.745	2.19e-05	0.026	0.011	2.208	0.19246	0.074636	-3.18	-	1	0.00060421	3.90508e-05	14	Q86Y33
chr5_71564883_T/G	chr5	71564883	G	ENSG00000145734	ENST00000358731	stop_lost	8100	7873	2625	E	Taa	Gaa	T	1	SNV	BDP1	protein_coding	YES	MANE_Select	NM_018429.3	ENSP00000351575	-	39/39	c.7873T>G	p.Ter2625GluextTer11	0.000483007271731524	0.008906	-0.613886	-0.695114	15	0.770277816700726	8.503361	4.47	0.6	0.0005907	0.07	1	2.616	0.81862	0.163922	-7.09	Conflicting_classifications_of_pathogenicity	3	0.00233427	0.000625271	11	A6H8Y1
chr5_90461169_A/T	chr5	90461169	T	ENSG00000176055	ENST00000316610	stop_lost	1317	838	280	K	Tag	Aag	A	-1	SNV	MBLAC2	protein_coding	YES	MANE_Select	NM_203406.2	ENSP00000314776	-	2/2	c.838T>A	p.Ter280LysextTer4	0	0.00172	-0.435138	-0.443374	16.26	0.470802984754139	15.71999	6.08	0.535	4.197e-05	0.021	1	5.511	0.98323	0.164513	-9.63	-	1	0.00113305	6.62055e-05	4	Q68D91
chr5_95450280_T/C	chr5	95450280	C	ENSG00000153347	ENST00000283357	stop_lost	1381	1357	453	Q	Taa	Caa	T	1	SNV	FAM81B	protein_coding	YES	MANE_Select	NM_152548.3	ENSP00000283357	-	10/10	c.1357T>C	p.Ter453GlnextTer38	0.000143391956098809	0.002365	-0.399286	-0.352799	15.4	0.683420069772582	8.10679	5.71	0.73	0.0001728	0.008	0.943	3.214	0.8558	0.053691	-6.28	-	1	0.00189239	0.000200425	38	Q96LP2
chr5_95464607_T/G	chr5	95464607	G	ENSG00000198677	ENST00000358746	stop_lost	4964	4695	1565	Y	taA	taC	T	-1	SNV	SKIC3	protein_coding	YES	MANE_Select	NM_014639.4	ENSP00000351596	-	43/43	c.4695A>C	p.Ter1565TyrextTer6	0	0.000215	-0.363101	-0.561703	1.311	0.814744909322398	3.696935	0.907	0.22	1.156e-05	0.005	0.004	0.067	0.30293	0.322412	-3.59	Uncertain_significance	1	0.000110397	9.93888e-06	6	Q6PGP7
chr5_102236860_A/G	chr5	102236860	G	ENSG00000173930	ENST00000310954	stop_lost	2195	2173	725	R	Tga	Cga	A	-1	SNV	SLCO4C1	protein_coding	YES	MANE_Select	NM_180991.5	ENSP00000309741	-	13/13	c.2173T>C	p.Ter725ArgextTer42	0.000594305268497278	0.004514	-0.59352	-0.62396	14.75	0.761167431122884	5.618432	4.68	0.24	0.0004106	0.005	0.662	4.356	0.72528	0.074636	-5.04	Likely_benign	4	0.00526398	0.000496153	42	Q6ZQN7
chr5_116026116_T/C	chr5	116026116	C	ENSG00000172901	ENST00000357872	stop_lost	3114	2971	991	Q	Tag	Cag	T	1	SNV	LVRN	protein_coding	YES	MANE_Select	NM_173800.5	ENSP00000350541	-	20/20	c.2971T>C	p.Ter991GlnextTer13	0	0	-0.410142	-0.590248	10.22	0.769138271211824	5.631907	3.9	0.59	9.124e-06	0.005	0.037	1.965	0.10128	0.074636	-4.56	-	1	0.000164719	9.29549e-06	13	Q6Q4G3
chr5_132867580_T/G	chr5	132867580	G	ENSG00000164405	ENST00000378670	stop_lost	306	247	83	G	Tga	Gga	T	1	SNV	UQCRQ	protein_coding	YES	MANE_Select	NM_014402.5	ENSP00000367939	-	3/3	c.247T>G	p.Ter83GlyextTer23	0	1.168e-05	0.00466953	-0.231069	15.43	0.801174493903075	11.07519	4.54	0.755	6.083e-07	0.011	1	6.891	0.95652	0.12189	-10.43	-	2	2.54304e-06	0.000104732	23	O14949
chr5_137936408_T/C	chr5	137936408	C	ENSG00000078795	ENST00000508883	stop_lost	1908	1873	625	Q	Tag	Cag	T	1	SNV	PKD2L2	protein_coding	YES	MANE_Select	NM_001300921.2	ENSP00000424725	-	14/15	c.1873T>C	p.Ter625GlnextTer2	0.000170881749829118	0.008813	-0.793708	-0.912891	1.126	0.37685849860936	0.36728	-1.92	0.14	0.0002232	0.086	0	-0.281	0.00138	0.088506	2.2	-	6	0.00490371	0.000319152	2	Q9NZM6
chr5_138115682_T/A	chr5	138115682	A	ENSG00000112981	ENST00000265191	stop_lost	701	638	213	L	tAa	tTa	T	-1	SNV	NME5	protein_coding	YES	MANE_Select	NM_003551.3	ENSP00000265191	-	6/6	c.638A>T	p.Ter213LeuextTer10	8.38582236964705e-05	0.000186	-0.302048	-0.488257	0.435	0.684923011573702	3.85348	2.48	0.27	8.705e-05	0.005	0.246	-0.054	0.08038	0.080785	0.12	-	1	0.000226624	7.39173e-05	10	P56597
