dr-yoon/TAILVAR/dataset/training_data/stoploss_HGMD_filtered.txt
Upload_variation	Chromosome	Position	Allele	Gene	Feature	Consequence	cDNA_position	CDS_position	Protein_position	Amino_acids	Codons_REF	Codons_ALT	REF_ALLELE	STRAND	VARIANT_CLASS	SYMBOL	BIOTYPE	CANONICAL	MANE	MANE_SELECT	ENSP	SOURCE	EXON	HGVSc	HGVSp	ALFA_Total_AF	AllofUs_POPMAX_AF	BayesDel_addAF	BayesDel_noAF	CADD	DANN	Eigen_PC	GERP	MutationTaster	RegeneronME_ALL_AF	VEST4	phastCons100	phyloP100	FATHMM_MKL	fitCons_int	GPN_MSA	ClinVar_CLNSIG	gnomAD4.1_nhomalt_joint	gnomAD4.1_AF_grpmax_joint	gnomAD4.1_AF_joint	extended_length	Uniprot
chr1_9982699_T/C	chr1	9982699	C	ENSG00000173614	ENST00000377205	stop_lost	935	838	280	Q	Tag	Cag	T	1	SNV	NMNAT1	protein_coding	YES	MANE_Select	NM_022787.4	ENSP00000366410	-	5/5	c.838T>C	p.Ter280GlnextTer15	0	0	-0.356613	-0.750026	2.553	0.836676879161386	2.863849	-0.802	0.73	2.433e-06	0.045	0	-0.098	0.05592	0.156188	-0.8	Pathogenic	0	1.70692e-06	1.25185e-06	15	Q9HAN9
chr1_9982700_A/T	chr1	9982700	T	ENSG00000173614	ENST00000377205	stop_lost	936	839	280	L	tAg	tTg	A	1	SNV	NMNAT1	protein_coding	YES	MANE_Select	NM_022787.4	ENSP00000366410	-	5/5	c.839A>T	p.Ter280LeuextTer15	0	0	-0.262186	-0.614388	0.445	0.817420900418452	2.997512	0.543	0.645	0	0.045	0	-0.393	0.1964	0.156188	-1.42	-	0	0	0	15	Q9HAN9
chr1_11790681_C/G	chr1	11790681	G	ENSG00000177000	ENST00000376590	stop_lost	2060	1970	657	S	tGa	tCa	C	-1	SNV	MTHFR	protein_coding	YES	MANE_Select	NM_005957.5	ENSP00000365775	-	12/12	c.1970G>C	p.Ter657SerextTer50	0	1.854e-05	-0.493879	-0.883554	4.454	0.765197477194243	3.743104	3.04	1	1.156e-05	0.279	0	0.559	0.0648	0.283894	-1.8	Conflicting_classifications_of_pathogenicity	0	2.0339e-05	1.48692e-05	50	P42898
chr1_11790682_A/G	chr1	11790682	G	ENSG00000177000	ENST00000376590	stop_lost	2059	1969	657	R	Tga	Cga	A	-1	SNV	MTHFR	protein_coding	YES	MANE_Select	NM_005957.5	ENSP00000365775	-	12/12	c.1969T>C	p.Ter657ArgextTer50	0	1.251e-05	-0.498835	-0.77279	7.674	0.838122280854936	3.390036	0.973	0.99	1.825e-06	0.279	0	-0.038	0.04385	0.283894	-1.31	Likely_pathogenic	0	1.33504e-05	1.23916e-06	50	P42898
chr1_22091517_A/C	chr1	22091517	C	ENSG00000070831	ENST00000656825	stop_lost	660	576	192	C	tgA	tgC	A	1	SNV	CDC42	protein_coding	YES	MANE_Select	NM_001791.4	ENSP00000499457	-	6/6	c.576A>C	p.Ter192CysextTer24	0	0	-0.0296433	-0.280357	18.6	0.606812023808745	18.11948	5.22	0.915	0	0.325	1	8.805	0.99722	0.360877	-10.7	-	0	0	0	24	P60953
chr1_23845717_A/T	chr1	23845717	T	ENSG00000179163	ENST00000374479	stop_lost	1403	1399	467	K	Taa	Aaa	A	-1	SNV	FUCA1	protein_coding	YES	MANE_Select	NM_000147.5	ENSP00000363603	-	8/8	c.1399T>A	p.Ter467LysextTer79	0	0	-0.0957732	-0.375348	16.28	0.44504905635058	9.744049	5.56	0.96	0	0.038	0.904	6.424	0.96762	0.295142	-9.65	-	0	0	0	79	P04066
chr1_42927043_A/G	chr1	42927043	G	ENSG00000117394	ENST00000426263	stop_lost	1694	1477	493	R	Tga	Cga	A	-1	SNV	SLC2A1	protein_coding	YES	MANE_Select	NM_006516.4	ENSP00000416293	-	10/10	c.1477T>C	p.Ter493ArgextTer55	0	0	0.0454275	-0.172523	19.15	0.886629306020109	21.91245	5.94	0.97	0	0.221	1	8.659	0.99398	0.295142	-10.04	-	0	0	0	55	P11166
chr1_45329308_A/C	chr1	45329308	C	ENSG00000132781	ENST00000456914	stop_lost	1642	1564	522	G	Tga	Gga	A	-1	SNV	MUTYH	protein_coding	YES	MANE_Select	NM_001048174.2	ENSP00000407590	-	16/16	c.1564T>G	p.Ter522GlyextTer3	0	0	-0.212746	-0.543371	8.621	0.666241128693673	4.201768	2.1	1	1.217e-06	0.518	1	2.209	0.50999	0.139865	-5.92	-	0	0	0	3	Q9UIF7
chr1_45509214_G/C	chr1	45509214	C	ENSG00000132763	ENST00000401061	stop_lost	881	848	283	S	tGa	tCa	G	1	SNV	MMACHC	protein_coding	YES	MANE_Select	NM_015506.3	ENSP00000383840	-	4/4	c.848G>C	p.Ter283SerextTer14	0.000109332343820403	0.007634	-0.478113	-0.594551	12.11	0.74051517368529	7.102379	3.51	0.715	0.0002409	0.23	0.962	1.351	0.82688	0.160901	-5.41	Conflicting_classifications_of_pathogenicity	1	0.00329924	0.000232352	14	Q9Y4U1
chr1_47417273_T/C	chr1	47417273	C	ENSG00000186790	ENST00000335071	stop_lost	989	958	320	R	Tga	Cga	T	1	SNV	FOXE3	protein_coding	YES	MANE_Select	NM_012186.3	ENSP00000334472	-	1/1	c.958T>C	p.Ter320ArgextTer72	0	0	0.00375894	-0.232377	17.68	0.814978598523661	5.619457	2.61	0.47	1.217e-06	0.047	0.996	0.895	0.77933	0.166803	-8.14	Pathogenic	0	9.47262e-07	7.36831e-07	72	Q13461
chr1_47417274_G/C	chr1	47417274	C	ENSG00000186790	ENST00000335071	stop_lost	990	959	320	S	tGa	tCa	G	1	SNV	FOXE3	protein_coding	YES	MANE_Select	NM_012186.3	ENSP00000334472	-	1/1	c.959G>C	p.Ter320SerextTer72	0	0	-0.214334	-0.545652	16.66	0.837849209658309	7.677938	3.79	0.62	0	0.047	1	2.162	0.94642	0.166803	-8.66	Pathogenic	0	0	0	72	Q13461
chr1_47417274_G/T	chr1	47417274	T	ENSG00000186790	ENST00000335071	stop_lost	990	959	320	L	tGa	tTa	G	1	SNV	FOXE3	protein_coding	YES	MANE_Select	NM_012186.3	ENSP00000334472	-	1/1	c.959G>T	p.Ter320LeuextTer72	0.000767695378473822	0	-0.147153	-0.449151	17.98	0.913534936276048	7.677938	3.79	0.62	0	0.047	1	2.162	0.90876	0.166803	-9.73	Pathogenic	0	0	0	72	Q13461
chr1_47417275_A/C	chr1	47417275	C	ENSG00000186790	ENST00000335071	stop_lost	991	960	320	C	tgA	tgC	A	1	SNV	FOXE3	protein_coding	YES	MANE_Select	NM_012186.3	ENSP00000334472	-	1/1	c.960A>C	p.Ter320CysextTer72	0	0	-0.114189	-0.401801	17.32	0.710334186984319	6.825535	3.79	0.21	0	0.047	1	1.982	0.93357	0.166803	-8.48	-	0	0	0	72	Q13461
chr1_55063582_T/G	chr1	55063582	G	ENSG00000169174	ENST00000302118	stop_lost	2367	2077	693	G	Tga	Gga	T	1	SNV	PCSK9	protein_coding	YES	MANE_Select	NM_174936.4	ENSP00000303208	-	12/12	c.2077T>G	p.Ter693GlyextTer19	0	0	-0.114441	-0.402163	6.485	0.866695192873477	5.121922	1.74	0.565	1.825e-06	0.074	0.684	0.599	0.6642	0.252514	-5.72	-	0	2.54313e-06	1.86159e-06	19	Q8NBP7
chr1_77063204_T/C	chr1	77063204	C	ENSG00000117069	ENST00000477717	stop_lost	1205	1009	337	Q	Taa	Caa	T	1	SNV	ST6GALNAC5	protein_coding	YES	MANE_Select	NM_030965.3	ENSP00000417583	-	5/5	c.1009T>C	p.Ter337GlnextTer20	0.00011125945705385	0	-0.0969114	-0.376983	14.63	0.8251004000742	11.85733	5.93	0.92	0	0.01	1	3.13	0.30269	0.183328	-2.62	-	0	0	6.19934e-07	20	Q9BVH7
chr1_93993237_T/G	chr1	93993237	G	ENSG00000198691	ENST00000370225	stop_lost	6925	6822	2274	C	tgA	tgC	T	-1	SNV	ABCA4	protein_coding	YES	MANE_Select	NM_000350.3	ENSP00000359245	-	50/50	c.6822A>C	p.Ter2274CysextTer34	0	0	-0.0447432	-0.302047	9.589	0.615217563166188	8.075531	5.08	0.875	0	0.319	0.981	2.134	0.59799	0.07523	-4.52	-	0	1.33323e-05	6.1963e-07	34	P78363
chr1_93993239_A/T	chr1	93993239	T	ENSG00000198691	ENST00000370225	stop_lost	6923	6820	2274	R	Tga	Aga	A	-1	SNV	ABCA4	protein_coding	YES	MANE_Select	NM_000350.3	ENSP00000359245	-	50/50	c.6820T>A	p.Ter2274ArgextTer34	0	0	-0.0382563	-0.292729	15.26	0.78764449356198	5.712928	1.39	0.785	0	0.319	0.998	1.011	0.58274	0.07523	-5.19	Uncertain_significance	0	0	0	34	P78363
chr1_99921651_G/C	chr1	99921651	C	ENSG00000162688	ENST00000361915	stop_lost	4722	4599	1533	Y	taG	taC	G	1	SNV	AGL	protein_coding	YES	MANE_Select	NM_000642.3	ENSP00000355106	-	34/34	c.4599G>C	p.Ter1533TyrextTer58	0	0	-0.393423	-0.802902	1.942	0.617709771489914	2.950092	0.0147	0.855	0	0.368	0.953	0.755	0.8217	0.294411	-7.1	Likely_pathogenic	0	0	0	58	P35573
chr1_100196256_C/A	chr1	100196256	A	ENSG00000137992	ENST00000370132	stop_lost	1462	1448	483	L	tGa	tTa	C	-1	SNV	DBT	protein_coding	YES	MANE_Select	NM_001918.5	ENSP00000359151	-	11/11	c.1448G>T	p.Ter483LeuextTer7	0	0	-0.0605595	-0.324766	15.95	0.746582957227296	11.56801	4.08	0.91	0	0.081	1	2.006	0.96012	0.295142	-7.86	Pathogenic	0	2.22866e-05	6.19785e-07	7	P11182
chr1_119422620_A/C	chr1	119422620	C	ENSG00000203859	ENST00000369416	stop_lost	1261	1119	373	C	tgA	tgC	A	1	SNV	HSD3B2	protein_coding	YES	MANE_Select	NM_000198.4	ENSP00000358424	-	4/4	c.1119A>C	p.Ter373CysextTer95	0	1.251e-05	-0.129044	-0.326285	16.43	0.532238512146621	7.377971	4.32	0.905	4.866e-06	0.097	0.994	3.515	0.98395	0.06567	-7.52	Pathogenic	0	2.19621e-05	7.43616e-06	95	P26439
chr1_150796799_T/C	chr1	150796799	C	ENSG00000143387	ENST00000271651	stop_lost	1038	990	330	W	tgA	tgG	T	-1	SNV	CTSK	protein_coding	YES	MANE_Select	NM_000396.4	ENSP00000271651	-	8/8	c.990A>G	p.Ter330TrpextTer19	0	0	0.220881	0.0795034	19.53	0.901615538793338	20.07321	6.17	0.94	0	0.143	1	7.909	0.99669	0.162113	-9.72	Pathogenic	0	0	0	19	P43235
chr1_154167938_T/G	chr1	154167938	G	ENSG00000143549	ENST00000651641	stop_lost,splice_region_variant	939	857	286	S	tAa	tCa	T	-1	SNV	TPM3	protein_coding	YES	MANE_Select	NM_152263.4	ENSP00000498577	-	10/10	c.857A>C	p.Ter286SerextTer57	0	0.0001126	-0.137338	-0.238081	15.06	0.829392865250222	12.88546	5.38	0.88	9.733e-06	0.151	1	2.271	0.93175	0.160901	-7.15	Likely_pathogenic	0	8.33472e-05	3.09819e-06	57	P06753
chr1_154584808_A/G	chr1	154584808	G	ENSG00000160710	ENST00000368474	stop_lost	3859	3679	1227	Q	Tag	Cag	A	-1	SNV	ADAR	protein_coding	YES	MANE_Select	NM_001111.5	ENSP00000357459	-	15/15	c.3679T>C	p.Ter1227GlnextTer21	0	0	-0.206294	-0.534103	13.49	0.867610661713611	5.700902	3.33	0.87	0	0.142	0.746	2.107	0.15931	0.295142	-3.75	-	0	0	0	21	P55265
chr1_155234997_A/G	chr1	155234997	G	ENSG00000177628	ENST00000368373	stop_lost	1746	1609	537	R	Tga	Cga	A	-1	SNV	GBA1	protein_coding	YES	MANE_Select	NM_000157.4	ENSP00000357357	-	11/11	c.1609T>C	p.Ter537ArgextTer15	0	0	0.0582746	-0.154069	15.76	0.796923608874013	6.118566	3.14	1	1.833e-06	0.275	0.998	2.195	0.8473	0.322412	-6.44	-	0	0	0	15	P04062
chr1_160141320_T/C	chr1	160141320	C	ENSG00000018625	ENST00000361216	stop_lost	3164	3061	1021	R	Tga	Cga	T	1	SNV	ATP1A2	protein_coding	YES	MANE_Select	NM_000702.4	ENSP00000354490	-	23/23	c.3061T>C	p.Ter1021ArgextTer28	0	0	0.223043	0.08261	18.53	0.856163301372418	14.61283	4.54	0.96	0	0.173	1	7.169	0.99406	0.256867	-10.76	Likely_pathogenic	0	0	0	28	P50993
chr1_161222405_T/G	chr1	161222405	G	ENSG00000158874	ENST00000367990	stop_lost	361	303	101	C	tgA	tgC	T	-1	SNV	APOA2	protein_coding	YES	MANE_Select	NM_001643.2	ENSP00000356969	-	4/4	c.303A>C	p.Ter101CysextTer21	0	0	-0.29753	-0.665158	12.19	0.71137052617273	3.471581	1.04	0.94	0	0.234	0.274	0.754	0.19091	0.428477	-4.32	-	0	0	0	21	P02652
chr1_161222406_C/G	chr1	161222406	G	ENSG00000158874	ENST00000367990	stop_lost	360	302	101	S	tGa	tCa	C	-1	SNV	APOA2	protein_coding	YES	MANE_Select	NM_001643.2	ENSP00000356969	-	4/4	c.302G>C	p.Ter101SerextTer21	0	0	0.194594	0.0417441	12.35	0.655516527128736	3.134094	1.59	1	0	0.234	0.307	1.228	0.26872	0.428477	-6.04	-	0	0	0	21	P02652
chr1_161222406_C/A	chr1	161222406	A	ENSG00000158874	ENST00000367990	stop_lost	360	302	101	L	tGa	tTa	C	-1	SNV	APOA2	protein_coding	YES	MANE_Select	NM_001643.2	ENSP00000356969	-	4/4	c.302G>T	p.Ter101LeuextTer21	0	0	0.201733	0.0519997	14.93	0.70687831117883	3.134094	1.59	1	0	0.234	0.307	1.228	0.25826	0.428477	-5.88	-	0	0	0	21	P02652
chr1_161222407_A/T	chr1	161222407	T	ENSG00000158874	ENST00000367990	stop_lost	359	301	101	R	Tga	Aga	A	-1	SNV	APOA2	protein_coding	YES	MANE_Select	NM_001643.2	ENSP00000356969	-	4/4	c.301T>A	p.Ter101ArgextTer21	0	0	-0.158085	-0.464854	14.2	0.810934809796992	4.248377	3.52	1	0	0.234	0.307	2.562	0.28752	0.428477	-5.64	Likely_pathogenic	0	0	0	21	P02652
chr1_161222407_A/G	chr1	161222407	G	ENSG00000158874	ENST00000367990	stop_lost	359	301	101	R	Tga	Cga	A	-1	SNV	APOA2	protein_coding	YES	MANE_Select	NM_001643.2	ENSP00000356969	-	4/4	c.301T>C	p.Ter101ArgextTer21	0	0	-0.191728	-0.513181	14.25	0.804418016140199	4.248377	3.52	1	0	0.234	0.307	2.562	0.33256	0.428477	-5.33	-	0	0	0	21	P02652
chr1_161222407_A/C	chr1	161222407	C	ENSG00000158874	ENST00000367990	stop_lost	359	301	101	G	Tga	Gga	A	-1	SNV	APOA2	protein_coding	YES	MANE_Select	NM_001643.2	ENSP00000356969	-	4/4	c.301T>G	p.Ter101GlyextTer21	0	0	-0.276992	-0.635657	7.903	0.730147203357797	4.248377	3.52	1	0	0.234	0.307	2.562	0.3311	0.428477	-5.52	-	0	0	0	21	P02652
chr1_161305878_A/G	chr1	161305878	G	ENSG00000158887	ENST00000533357	stop_lost	808	745	249	Q	Tag	Cag	A	-1	SNV	MPZ	protein_coding	YES	MANE_Select	NM_000530.8	ENSP00000432943	-	6/6	c.745T>C	p.Ter249GlnextTer64	0	0	-0.0409943	-0.296662	18.65	0.903842111438769	16.98225	5.17	0.73	0	0.419	1	5.05	0.89212	0.455138	-9.61	Uncertain_significance	0	0	0	64	P25189
chr1_161305878_A/C	chr1	161305878	C	ENSG00000158887	ENST00000533357	stop_lost	808	745	249	E	Tag	Gag	A	-1	SNV	MPZ	protein_coding	YES	MANE_Select	NM_000530.8	ENSP00000432943	-	6/6	c.745T>G	p.Ter249GluextTer64	0	0	-0.113997	-0.401525	18.85	0.901792382741675	16.98225	5.17	0.73	0	0.419	1	5.05	0.89716	0.455138	-11.35	-	0	0	0	64	P25189
chr1_171635925_T/C	chr1	171635925	C	ENSG00000034971	ENST00000037502	stop_lost	1592	1515	505	W	tgA	tgG	T	-1	SNV	MYOC	protein_coding	YES	MANE_Select	NM_000261.2	ENSP00000037502	-	3/3	c.1515A>G	p.Ter505TrpextTer42	0	0	-0.05022	-0.309914	14.41	0.705587129305075	5.794035	4.88	0.815	0	0.145	0.047	2.172	0.22028	0.053691	-5.77	Uncertain_significance	0	0	0	42	Q99972
chr1_173903890_T/G	chr1	173903890	G	ENSG00000117601	ENST00000367698	stop_lost	1462	1394	465	S	tAa	tCa	T	-1	SNV	SERPINC1	protein_coding	YES	MANE_Select	NM_000488.4	ENSP00000356671	-	7/7	c.1394A>C	p.Ter465SerextTer?	0	0	-0.32292	-0.701629	3.325	0.502485040617247	3.271535	0.593	0.41	0	0.257	0.164	-0.115	0.30005	0.053691	-6.68	-	0	0	0	?	P01008
chr1_173903891_A/G	chr1	173903891	G	ENSG00000117601	ENST00000367698	stop_lost	1461	1393	465	Q	Taa	Caa	A	-1	SNV	SERPINC1	protein_coding	YES	MANE_Select	NM_000488.4	ENSP00000356671	-	7/7	c.1393T>C	p.Ter465GlnextTer?	0	0	-0.286319	-0.649054	13.48	0.789565655149552	5.687976	4.55	0.54	0	0.257	0.573	5.457	0.6328	0.053691	-7.28	Uncertain_significance	0	0	0	?	P01008
chr1_179551175_A/G	chr1	179551175	G	ENSG00000116218	ENST00000367615	stop_lost	1234	1150	384	Q	Tag	Cag	A	-1	SNV	NPHS2	protein_coding	YES	MANE_Select	NM_014625.4	ENSP00000356587	-	8/8	c.1150T>C	p.Ter384GlnextTer7	0	0	-0.076829	-0.348136	17.2	0.862673393286729	16.26639	5.34	0.945	3.041e-06	0.26	1	7.063	0.95879	0.125411	-7.56	-	0	2.54236e-06	1.85891e-06	7	Q9NP85
chr1_197477877_T/A	chr1	197477877	A	ENSG00000134376	ENST00000367400	stop_lost	4380	4219	1407	K	Tag	Aag	T	1	SNV	CRB1	protein_coding	YES	MANE_Select	NM_201253.3	ENSP00000356370	-	12/12	c.4219T>A	p.Ter1407LysextTer111	0	0	0.0628415	-0.147509	15.59	0.511520302022626	10.72688	5.61	0.905	0	0.386	1	7.81	0.99058	0.061011	-11.51	Uncertain_significance	0	0	0	111	P82279
chr1_200644255_C/A	chr1	200644255	A	ENSG00000118197	ENST00000331314	stop_lost	2011	1859	620	L	tGa	tTa	C	-1	SNV	DDX59	protein_coding	YES	MANE_Select	NM_001031725.6	ENSP00000330460	-	8/8	c.1859G>T	p.Ter620LeuextTer22	0	0	-0.3422	-0.455023	13.55	0.775951174544911	8.708875	3.41	0.925	6.691e-06	0.001	1	0.97	0.84217	0.322412	-7.45	Pathogenic	0	0.000150269	7.90385e-06	22	Q5T1V6
chr1_209615271_T/C	chr1	209615271	C	ENSG00000196878	ENST00000356082	stop_lost	3613	3519	1173	W	tgA	tgG	T	-1	SNV	LAMB3	protein_coding	YES	MANE_Select	NM_000228.3	ENSP00000348384	-	23/23	c.3519A>G	p.Ter1173TrpextTer56	0	0	-0.0824011	-0.35614	17.57	0.851902246333413	9.924009	5.56	0.99	0	0.122	0.994	2.328	0.72377	0.262962	-6.82	-	0	0	0	56	Q13751
chr1_229431499_C/A	chr1	229431499	A	ENSG00000143632	ENST00000366684	stop_lost	1237	1134	378	Y	taG	taT	C	-1	SNV	ACTA1	protein_coding	YES	MANE_Select	NM_001100.4	ENSP00000355645	-	7/7	c.1134G>T	p.Ter378TyrextTer47	0	0	-0.270569	-0.62643	15.07	0.557429094105909	4.017999	-1.12	0.95	0	0.112	1	2.823	0.82577	0.287651	-9.43	-	0	0	0	47	P68133
chr1_229431500_T/C	chr1	229431500	C	ENSG00000143632	ENST00000366684	stop_lost	1236	1133	378	W	tAg	tGg	T	-1	SNV	ACTA1	protein_coding	YES	MANE_Select	NM_001100.4	ENSP00000355645	-	7/7	c.1133A>G	p.Ter378TrpextTer47	0	0	0.0281479	-0.197344	19.03	0.86068134872721	11.80448	3.89	0.99	0	0.112	1	6.236	0.92706	0.287651	-5.22	-	0	0	0	47	P68133
chr1_229431501_A/G	chr1	229431501	G	ENSG00000143632	ENST00000366684	stop_lost	1235	1132	378	Q	Tag	Cag	A	-1	SNV	ACTA1	protein_coding	YES	MANE_Select	NM_001100.4	ENSP00000355645	-	7/7	c.1132T>C	p.Ter378GlnextTer47	0	0	-0.0355482	-0.288839	20.1	0.815946980039369	14.8671	3.89	0.975	0	0.112	1	9.269	0.95912	0.287651	-9	Pathogenic	0	0	0	47	P68133
chr1_236482648_A/G	chr1	236482648	G	ENSG00000186197	ENST00000334232	stop_lost	806	647	216	W	tAg	tGg	A	1	SNV	EDARADD	protein_coding	YES	MANE_Select	NM_145861.4	ENSP00000335076	-	6/6	c.647A>G	p.Ter216TrpextTer13	0	0	0.0805402	-0.122086	17.84	0.86826672660663	14.20922	5.44	0.375	0	0.129	1	4.246	0.92759	0.162113	-5.95	-	0	0.000111443	3.10224e-06	13	Q8WWZ3
chr1_240800649_A/G	chr1	240800649	G	ENSG00000182901	ENST00000440928	stop_lost	1843	1486	496	R	Tga	Cga	A	-1	SNV	RGS7	protein_coding	YES	MANE_Select	NM_001364886.1	ENSP00000404399	-	18/19	c.1486T>C	p.Ter496ArgextTer19	0	1.558e-05	0.0179413	-0.212005	16.79	0.80487857301763	4.266329	5.51	0.88	3.65e-06	0.561	1	6.345	0.94183	0.074636	-7.59	-	0	0.000167224	5.18361e-06	19	P49802
chr10_27538049_T/G	chr10	27538049	G	ENSG00000099246	ENST00000356940	stop_lost	685	619	207	E	Taa	Gaa	T	1	SNV	RAB18	protein_coding	YES	MANE_Select	NM_021252.5	ENSP00000349415	-	7/7	c.619T>G	p.Ter207GluextTer20	0	0	-0.156326	-0.462328	18.13	0.816104625455729	22.69806	6.16	0.995	0	0.589	1	7.65	0.96597	0.295142	-10.55	-	0	0	0	20	Q9NP72
chr10_67797117_C/A	chr10	67797117	A	ENSG00000108176	ENST00000225171	stop_lost	773	596	199	L	tGa	tTa	C	-1	SNV	DNAJC12	protein_coding	YES	MANE_Select	NM_021800.3	ENSP00000225171	-	5/5	c.596G>T	p.Ter199LeuextTer42	0	3.894e-06	-0.046013	-0.303871	15.77	0.74910320531481	9.40696	3.64	0.96	7.3e-06	0.021	0.994	0.207	0.78582	0.294411	-6.46	Pathogenic	0	1.18805e-05	8.68685e-06	42	Q9UKB3
chr10_67797118_A/G	chr10	67797118	G	ENSG00000108176	ENST00000225171	stop_lost	772	595	199	R	Tga	Cga	A	-1	SNV	DNAJC12	protein_coding	YES	MANE_Select	NM_021800.3	ENSP00000225171	-	5/5	c.595T>C	p.Ter199ArgextTer42	0	0	0.156431	-0.0130748	19.04	0.863882481563898	16.61502	5.8	0.945	0	0.021	1	6.348	0.95371	0.294411	-6.98	-	0	0	0	42	Q9UKB3
chr10_70883952_A/G	chr10	70883952	G	ENSG00000166228	ENST00000299299	stop_lost	345	313	105	Q	Tag	Cag	A	-1	SNV	PCBD1	protein_coding	YES	MANE_Select	NM_000281.4	ENSP00000299299	-	4/4	c.313T>C	p.Ter105GlnextTer14	0	1.168e-05	-0.189829	-0.409823	15.9	0.701934526647047	7.851455	5.69	0.92	1.156e-05	0.01	0.994	4.423	0.95391	0.295142	-6.9	Conflicting_classifications_of_pathogenicity	0	1.44081e-05	1.11548e-05	14	P61457
chr10_80273781_C/A	chr10	80273781	A	ENSG00000151224	ENST00000372213	stop_lost	1423	1188	396	Y	taG	taT	C	-1	SNV	MAT1A	protein_coding	YES	MANE_Select	NM_000429.3	ENSP00000361287	-	9/9	c.1188G>T	p.Ter396TyrextTer68	0	0	-0.375214	-0.776745	14.35	0.739242382166994	4.71519	2.47	0.955	0	0.057	0.449	0.776	0.7932	0.162113	-7.28	-	0	0	0	68	Q00266
chr10_87965471_G/C	chr10	87965471	C	ENSG00000171862	ENST00000371953	stop_lost	2056	1211	404	S	tGa	tCa	G	1	SNV	PTEN	protein_coding	YES	MANE_Select	NM_000314.8	ENSP00000361021	-	9/9	c.1211G>C	p.Ter404SerextTer8	0	0	-0.153928	-0.458884	17.36	0.775493324151124	21.22372	5.26	0.91	0	0.229	1	7.656	0.98311	0.360877	-8.9	Likely_pathogenic	0	0	0	8	P60484
chr10_87965472_A/T	chr10	87965472	T	ENSG00000171862	ENST00000371953	stop_lost	2057	1212	404	C	tgA	tgT	A	1	SNV	PTEN	protein_coding	YES	MANE_Select	NM_000314.8	ENSP00000361021	-	9/9	c.1212A>T	p.Ter404CysextTer8	0	0	-0.102827	-0.385481	17.5	0.690568983408638	17.10287	4.17	0.97	0	0.229	1	8.904	0.97244	0.360877	-8.12	Pathogenic	0	0	0	8	P60484
chr10_93665416_T/C	chr10	93665416	C	ENSG00000095464	ENST00000371447	stop_lost	2764	2575	859	Q	Taa	Caa	T	1	SNV	PDE6C	protein_coding	YES	MANE_Select	NM_006204.4	ENSP00000360502	-	22/22	c.2575T>C	p.Ter859GlnextTer48	0	0	0.0973108	-0.0979962	15.09	0.872638886456742	10.12538	5.45	0.875	0	0.036	1	2.909	0.9656	0.106106	-5.04	-	0	0	0	48	P51160
chr10_95866381_T/C	chr10	95866381	C	ENSG00000138185	ENST00000371205	stop_lost	1608	1531	511	Q	Tag	Cag	T	1	SNV	ENTPD1	protein_coding	YES	MANE_Select	NM_001776.6	ENSP00000360248	-	10/10	c.1531T>C	p.Ter511GlnextTer100	4.67683097932841e-05	0	-0.0283046	-0.278434	13.35	0.835406472141029	10.87111	5.53	0.955	2.433e-06	0.321	1	4.359	0.94104	0.256867	-6.63	-	0	1.69489e-06	1.23906e-06	100	P49961
chr10_119141244_A/G	chr10	119141244	G	ENSG00000183605	ENST00000355697	stop_lost	1079	1012	338	Q	Tag	Cag	A	-1	SNV	SFXN4	protein_coding	YES	MANE_Select	NM_213649.2	ENSP00000347924	-	14/14	c.1012T>C	p.Ter338GlnextTer2	0	2.501e-05	-0.00759768	-0.24869	14.93	0.745178471119426	11.12427	5.06	0.925	0	0.011	1	5.34	0.98833	0.322412	-7.24	-	0	1.66856e-05	1.24206e-06	2	Q6P4A7
chr10_133362870_A/T	chr10	133362870	T	ENSG00000127884	ENST00000368547	stop_lost	892	871	291	R	Tga	Aga	A	-1	SNV	ECHS1	protein_coding	YES	MANE_Select	NM_004092.4	ENSP00000357535	-	8/8	c.871T>A	p.Ter291ArgextTer21	0	0	-0.0304578	-0.281527	18	0.918657157160368	9.538758	4.35	0.595	0	0.047	0.997	7.709	0.94468	0.295142	-11.16	-	0	0	0	21	P30084
chr11_2159854_A/C	chr11	2159854	C	ENSG00000254647	ENST00000381330	stop_lost	390	331	111	E	Tag	Gag	A	-1	SNV	INS	protein_coding	YES	MANE_Select	NM_000207.3	ENSP00000370731	-	3/3	c.331T>G	p.Ter111GluextTer?	0	0	0.301796	0.195733	16.82	0.870516556459397	10.95334	3.58	0.82	0	0.282	1	2.852	0.9838	0.403107	-9.97	-	0	0	0	?	P01308
chr11_5225599_T/G	chr11	5225599	G	ENSG00000244734	ENST00000335295	stop_lost	493	443	148	S	tAa	tCa	T	-1	SNV	HBB	protein_coding	YES	MANE_Select	NM_000518.5	ENSP00000333994	-	3/3	c.443A>C	p.Ter148SerextTer21	0	0	-0.335897	-0.720269	0.757	0.862474261984605	2.559373	-3.25	0.91	0	0.102	0.189	-0.56	0.60628	0.061011	-6.26	-	0	0	0	21	P68871
chr11_5225600_A/T	chr11	5225600	T	ENSG00000244734	ENST00000335295	stop_lost	492	442	148	K	Taa	Aaa	A	-1	SNV	HBB	protein_coding	YES	MANE_Select	NM_000518.5	ENSP00000333994	-	3/3	c.442T>A	p.Ter148LysextTer21	0	0	-0.013394	-0.257016	17.36	0.915402504407008	15.2955	4.68	0.925	0	0.102	1	8.363	0.98552	0.061011	-10.7	-	0	0	0	21	P68871
chr11_5225600_A/G	chr11	5225600	G	ENSG00000244734	ENST00000335295	stop_lost	492	442	148	Q	Taa	Caa	A	-1	SNV	HBB	protein_coding	YES	MANE_Select	NM_000518.5	ENSP00000333994	-	3/3	c.442T>C	p.Ter148GlnextTer21	0	0	0.0291295	-0.195934	17.29	0.912820612803061	15.2955	4.68	0.935	0	0.102	1	8.363	0.98449	0.061011	-8.45	-	0	0	0	21	P68871
chr11_5232965_C/A	chr11	5232965	A	ENSG00000223609	ENST00000650601	stop_lost	493	443	148	L	tGa	tTa	C	-1	SNV	HBD	protein_coding	YES	MANE_Select	NM_000519.4	ENSP00000497529	-	3/3	c.443G>T	p.Ter148LeuextTer16	0	0	-0.31223	-0.686273	3.316	0.980087934481693	2.726712	0.327	NA	0	NA	0.129	-0.214	0.37732	0.487112	-6.65	-	0	8.47473e-07	6.19546e-07	16	P02042
chr11_5232966_A/G	chr11	5232966	G	ENSG00000223609	ENST00000650601	stop_lost	492	442	148	R	Tga	Cga	A	-1	SNV	HBD	protein_coding	YES	MANE_Select	NM_000519.4	ENSP00000497529	-	3/3	c.442T>C	p.Ter148ArgextTer16	0	1.171e-05	-0.0848001	-0.359586	13.42	0.828500026905504	6.398818	3.64	NA	6.111e-07	NA	0.339	4.912	0.89044	0.487112	-6.92	-	0	1.70096e-06	1.86429e-06	16	P02042
chr11_17386921_A/G	chr11	17386921	G	ENSG00000187486	ENST00000339994	stop_lost	1739	1171	391	R	Tga	Cga	A	-1	SNV	KCNJ11	protein_coding	YES	MANE_Select	NM_000525.4	ENSP00000345708	-	1/1	c.1171T>C	p.Ter391ArgextTer93	0	0	-0.0316796	-0.283282	16.52	0.835019795219262	10.35643	5.37	0.99	1.217e-06	0.365	0.027	0.722	0.24643	0.208312	-3.65	-	0	1.69653e-06	1.24087e-06	93	Q14654
chr11_31789934_T/A	chr11	31789934	A	ENSG00000007372	ENST00000640368	stop_lost	1835	1311	437	Y	taA	taT	T	-1	SNV	PAX6	protein_coding	YES	MANE_Select	NM_001368894.2	ENSP00000492024	-	14/14	c.1311A>T	p.Ter437TyrextTer14	0	0	0.0396632	-0.180803	16.46	0.752621528164694	12.96912	5	0.995	0	0.658	1	3.888	0.96556	0.553676	-4.96	-	0	0	0	14	P26367
chr11_31789935_T/A	chr11	31789935	A	ENSG00000007372	ENST00000640368	stop_lost	1834	1310	437	L	tAa	tTa	T	-1	SNV	PAX6	protein_coding	YES	MANE_Select	NM_001368894.2	ENSP00000492024	-	14/14	c.1310A>T	p.Ter437LeuextTer14	0	0	0.0956958	-0.100316	16.82	0.990797795821512	13.00473	5	0.995	0	0.658	1	3.848	0.96755	0.553676	-2.72	Pathogenic/Likely_pathogenic	0	0	0	14	P26367
chr11_31789936_A/G	chr11	31789936	G	ENSG00000007372	ENST00000640368	stop_lost	1833	1309	437	Q	Taa	Caa	A	-1	SNV	PAX6	protein_coding	YES	MANE_Select	NM_001368894.2	ENSP00000492024	-	14/14	c.1309T>C	p.Ter437GlnextTer14	0	0	0.0128098	-0.219376	13.18	0.7175919778414	17.72279	6.16	1	0	0.658	1	4.953	0.98866	0.553676	-7.64	Pathogenic/Likely_pathogenic	0	0	0	14	P26367
chr11_32389058_T/C	chr11	32389058	C	ENSG00000184937	ENST00000452863	stop_lost	1748	1569	523	W	tgA	tgG	T	-1	SNV	WT1	protein_coding	YES	MANE_Select	NM_024426.6	ENSP00000415516	-	10/10	c.1569A>G	p.Ter523TrpextTer22	0	0	0.0179824	-0.211946	18.59	0.77624539462569	8.646999	4.62	0.8	0	0.349	1	4.726	0.50906	0.118714	-5.79	Uncertain_significance	0	0	0	22	P19544
chr11_47331871_T/C	chr11	47331871	C	ENSG00000134571	ENST00000545968	stop_lost	3880	3825	1275	W	tgA	tgG	T	-1	SNV	MYBPC3	protein_coding	YES	MANE_Select	NM_000256.3	ENSP00000442795	-	34/35	c.3825A>G	p.Ter1275TrpextTer76	0	0	-0.0232601	-0.271188	13.49	0.868136408692304	11.56835	4.23	0.985	0	0.237	0.999	2.67	0.55585	0.060467	-7.03	Uncertain_significance	0	0	0	76	Q14896
chr11_57614579_T/A	chr11	57614579	A	ENSG00000149131	ENST00000278407	stop_lost	1561	1501	501	R	Tga	Aga	T	1	SNV	SERPING1	protein_coding	YES	MANE_Select	NM_000062.3	ENSP00000278407	-	8/8	c.1501T>A	p.Ter501ArgextTer46	0	0	-0.0386288	-0.293264	18.37	0.816266086354756	7.456228	4.92	1	0	0.324	0.996	3.188	0.94092	0.423528	-9.47	-	0	0	0	46	P05155
chr11_57614579_T/C	chr11	57614579	C	ENSG00000149131	ENST00000278407	stop_lost	1561	1501	501	R	Tga	Cga	T	1	SNV	SERPING1	protein_coding	YES	MANE_Select	NM_000062.3	ENSP00000278407	-	8/8	c.1501T>C	p.Ter501ArgextTer46	0	0	0.0737512	-0.131838	18.57	0.805948416274887	7.456228	4.92	1	6.083e-07	0.324	0.996	3.188	0.8957	0.423528	-7.3	-	0	0	0	46	P05155
chr11_64118290_T/C	chr11	64118290	C	ENSG00000126500	ENST00000682287	stop_lost	3289	2023	675	R	Tga	Cga	T	1	SNV	FLRT1	protein_coding	YES	MANE_Select	NM_013280.5	ENSP00000507207	-	3/3	c.2023T>C	p.Ter675ArgextTer50	0	0	0.184504	0.15503	16.62	0.888777101298865	11.83271	5.16	0.94	6.083e-07	0.01	1	6.049	0.97275	0.078448	-8.42	-	0	1.19723e-05	1.28477e-06	50	Q9NZU1
chr11_65539080_T/A	chr11	65539080	A	ENSG00000168056	ENST00000301873	stop_lost	4312	3912	1304	C	tgA	tgT	T	-1	SNV	LTBP3	protein_coding	YES	MANE_Select	NM_001130144.3	ENSP00000301873	-	28/28	c.3912A>T	p.Ter1304CysextTer12	0	0	0.0940814	-0.102635	18.11	0.93045148887602	12.57737	4.57	0.12	0	0.211	0.962	2.314	0.96382	0.256867	-8.7	Pathogenic	0	0	0	12	Q9NS15
chr11_65719784_C/G	chr11	65719784	G	ENSG00000172922	ENST00000308418	stop_lost	534	494	165	S	tGa	tCa	C	-1	SNV	RNASEH2C	protein_coding	YES	MANE_Select	NM_032193.4	ENSP00000308193	-	4/4	c.494G>C	p.Ter165SerextTer135	0	1.251e-05	-0.193668	-0.515967	17.15	0.803752050765187	11.23333	4.09	0.635	6.083e-07	0.025	0.984	2.356	0.7858	0.766844	-5.8	-	0	8.47429e-07	6.19553e-07	135	Q8TDP1
chr11_67365138_A/G	chr11	67365138	G	ENSG00000175505	ENST00000312438	stop_lost	735	676	226	R	Tga	Cga	A	-1	SNV	CLCF1	protein_coding	YES	MANE_Select	NM_013246.3	ENSP00000309338	-	3/3	c.676T>C	p.Ter226ArgextTer170	0	0	-0.0185874	-0.264476	17.49	0.857008649563794	11.59323	4.94	0.985	0	0.153	1	6.194	0.95507	0.156188	-7.71	Pathogenic	0	0	0	170	Q9UBD9
chr11_67490991_T/C	chr11	67490991	C	ENSG00000110711	ENST00000279146	stop_lost	1124	991	331	R	Tga	Cga	T	1	SNV	AIP	protein_coding	YES	MANE_Select	NM_003977.4	ENSP00000279146	-	6/6	c.991T>C	p.Ter331ArgextTer?	0	0	0.164273	-0.00180951	17.48	0.816214561903556	10.70108	4.19	0.825	0	0.212	1	2.16	0.62383	0.295142	-6.96	-	0	0	0	?	O00170
chr11_68157690_A/G	chr11	68157690	G	ENSG00000110066	ENST00000304363	stop_lost	2891	2656	886	Q	Taa	Caa	A	-1	SNV	KMT5B	protein_coding	YES	MANE_Select	NM_017635.5	ENSP00000305899	-	11/11	c.2656T>C	p.Ter886GlnextTer25	0	0	-0.0588045	-0.322245	14.81	0.822125029041187	12.59718	5.04	0.86	0	0.06	1	8.713	0.99236	0.163922	-10.26	-	0	0	0	25	Q4FZB7
chr11_71435377_A/G	chr11	71435377	G	ENSG00000172893	ENST00000355527	stop_lost	1661	1426	476	Q	Taa	Caa	A	-1	SNV	DHCR7	protein_coding	YES	MANE_Select	NM_001360.3	ENSP00000347717	-	9/9	c.1426T>C	p.Ter476GlnextTer51	0.000147015583651867	9.301e-05	-0.297778	-0.396214	14.28	0.711605802573606	10.76058	5.12	0.97	1.217e-06	0.204	1	6.376	0.9488	0.295142	-8.31	Conflicting_classifications_of_pathogenicity	0	8.91385e-05	3.72224e-06	51	Q9UBM7
chr11_78100966_A/T	chr11	78100966	T	ENSG00000159063	ENST00000299626	stop_lost	1617	1579	527	R	Tga	Aga	A	-1	SNV	ALG8	protein_coding	YES	MANE_Select	NM_024079.5	ENSP00000299626	-	13/13	c.1579T>A	p.Ter527ArgextTer?	0	0	0.00445783	-0.134519	17.81	0.820296156604665	11.43115	4.95	0.64	0	0.324	1	1.779	0.89645	0.295142	-6.24	-	0	1.09801e-05	6.19761e-07	?	Q9BVK2
chr11_86951143_T/G	chr11	86951143	G	ENSG00000174804	ENST00000531380	stop_lost	1923	1613	538	S	tAa	tCa	T	-1	SNV	FZD4	protein_coding	YES	MANE_Select	NM_012193.4	ENSP00000434034	-	2/2	c.1613A>C	p.Ter538SerextTer2	0	0	-0.313915	-0.688694	10.32	0.799594569349761	7.205163	4.91	0.82	0	0.079	1	2.397	0.96287	0.12189	-10.36	-	0	0	0	2	Q9ULV1
chr11_108365506_T/G	chr11	108365506	G	ENSG00000149311	ENST00000675843	stop_lost	9319	9169	3057	G	Tga	Gga	T	1	SNV	ATM	protein_coding	YES	MANE_Select	NM_000051.4	ENSP00000501606	-	63/63	c.9169T>G	p.Ter3057GlyextTer29	0	0	0.0499422	-0.166038	13.75	0.798030423528406	14.96328	5.09	0.865	0	0.167	1	7.637	0.97972	0.322412	-12.12	Likely_pathogenic	0	0	0	29	Q13315
chr11_108365507_G/C	chr11	108365507	C	ENSG00000149311	ENST00000675843	stop_lost	9320	9170	3057	S	tGa	tCa	G	1	SNV	ATM	protein_coding	YES	MANE_Select	NM_000051.4	ENSP00000501606	-	63/63	c.9170G>C	p.Ter3057SerextTer29	0	0	-0.151415	-0.455273	14.04	0.771227282992664	12.51444	4.1	0.87	0	0.167	1	3.835	0.97631	0.322412	-8.49	Likely_pathogenic	0	0	0	29	Q13315
chr11_108365507_G/T	chr11	108365507	T	ENSG00000149311	ENST00000675843	stop_lost	9320	9170	3057	L	tGa	tTa	G	1	SNV	ATM	protein_coding	YES	MANE_Select	NM_000051.4	ENSP00000501606	-	63/63	c.9170G>T	p.Ter3057LeuextTer29	0	0	-0.00806063	-0.249355	15.66	0.605426790697588	12.51444	4.1	0.88	0	0.167	1	3.835	0.97464	0.322412	-8.19	-	0	0	0	29	Q13315
chr11_111908764_C/A	chr11	111908764	A	ENSG00000109846	ENST00000650687	stop_lost	574	528	176	Y	taG	taT	C	-1	SNV	CRYAB	protein_coding	YES	MANE_Select	NM_001289808.2	ENSP00000499082	-	3/3	c.528G>T	p.Ter176TyrextTer19	0	0	-0.0427271	-0.299151	17.17	0.824413992832548	17.35941	5.97	0.955	0	0.399	0.998	2.061	0.96602	0.085619	-8.74	-	0	0	0	19	P02511
chr11_111908765_T/C	chr11	111908765	C	ENSG00000109846	ENST00000650687	stop_lost	573	527	176	W	tAg	tGg	T	-1	SNV	CRYAB	protein_coding	YES	MANE_Select	NM_001289808.2	ENSP00000499082	-	3/3	c.527A>G	p.Ter176TrpextTer19	0	0	0.234708	0.0993648	19.06	0.837957497310211	14.92775	5.97	1	0	0.399	1	2.89	0.8346	0.085619	-6.68	-	0	0	0	19	P02511
chr11_112094969_G/T	chr11	112094969	T	ENSG00000204370	ENST00000375549	stop_lost	514	479	160	L	tGa	tTa	G	1	SNV	SDHD	protein_coding	YES	MANE_Select	NM_003002.4	ENSP00000364699	-	4/4	c.479G>T	p.Ter160LeuextTer3	0	4.673e-05	0.00561145	-0.229716	16.49	0.859236194692913	9.365636	3.85	0.935	1.582e-05	0.267	1	1.541	0.96018	0.295142	-7.64	Conflicting_classifications_of_pathogenicity	0	3.3004e-05	9.31388e-06	3	O14521
chr11_117412168_A/G	chr11	117412168	G	ENSG00000110274	ENST00000278935	stop_lost	4531	4383	1461	W	tgA	tgG	A	1	SNV	CEP164	protein_coding	YES	MANE_Select	NM_014956.5	ENSP00000278935	-	33/33	c.4383A>G	p.Ter1461TrpextTer57	0	0	-0.33792	-0.723175	13.52	0.705928883224973	4.854128	2.91	0.895	1.217e-06	0.008	0.906	2.975	0.6181	0.295142	-5.49	-	0	1.69508e-06	1.23926e-06	57	Q9UPV0
chr11_125900268_A/C	chr11	125900268	C	ENSG00000198331	ENST00000425380	stop_lost	1073	900	300	Y	taA	taC	A	1	SNV	HYLS1	protein_coding	YES	MANE_Select	NM_001134793.2	ENSP00000414884	-	3/3	c.900A>C	p.Ter300TyrextTer11	0	0	-0.134162	-0.430491	5.487	0.849111502185218	4.434694	1.94	0.975	0	0.136	0.486	0.716	0.30358	0.295142	-6.6	-	0	2.22816e-05	6.19595e-07	11	Q96M11
chr12_12718944_T/C	chr12	12718944	C	ENSG00000111276	ENST00000228872	stop_lost	1067	595	199	Q	Taa	Caa	T	1	SNV	CDKN1B	protein_coding	YES	MANE_Select	NM_004064.5	ENSP00000228872	-	2/3	c.595T>C	p.Ter199GlnextTer60	0	0	-0.028787	-0.279127	17.79	0.838437164314832	16.41724	5.55	0.92	6.083e-07	0.115	1	5.524	0.963	0.12324	-9.76	-	0	8.47442e-07	6.196e-07	60	P46527
chr12_27958559_T/C	chr12	27958559	C	ENSG00000087494	ENST00000545234	stop_lost	1103	534	178	W	tgA	tgG	T	-1	SNV	PTHLH	protein_coding	YES	MANE_Select	NM_198965.2	ENSP00000441765	-	6/6	c.534A>G	p.Ter178TrpextTer53	0	0	0.00764496	-0.226795	18.81	0.915953663515997	13.68044	5.58	0.995	0	0.263	1	3.443	0.8615	0.162113	-5.27	Pathogenic	0	0	0	53	P12272
chr12_47973409_A/G	chr12	47973409	G	ENSG00000139219	ENST00000380518	stop_lost	4617	4462	1488	Q	Taa	Caa	A	-1	SNV	COL2A1	protein_coding	YES	MANE_Select	NM_001844.5	ENSP00000369889	-	54/54	c.4462T>C	p.Ter1488GlnextTer34	0	0	0.0909327	-0.107158	17.98	0.866492253104639	16.29151	4.62	0.975	0	0.618	1	9.267	0.99449	0.360735	-9.36	Uncertain_significance	0	0	0	34	P02458
chr12_52514943_T/G	chr12	52514943	G	ENSG00000186081	ENST00000252242	stop_lost	1870	1772	591	S	tAa	tCa	T	-1	SNV	KRT5	protein_coding	YES	MANE_Select	NM_000424.4	ENSP00000252242	-	9/9	c.1772A>C	p.Ter591SerextTer37	0	0	-0.0532107	-0.31421	16.52	0.848459937689459	9.813286	4.67	0.64	0	0.072	1	3.388	0.83414	0.061011	-6.62	-	0	0	0	37	P13647
chr12_54284311_T/C	chr12	54284311	C	ENSG00000135486	ENST00000340913	stop_lost	1199	1117	373	Q	Taa	Caa	T	1	SNV	HNRNPA1	protein_coding	YES	MANE_Select	NM_031157.4	ENSP00000341826	-	10/11	c.1117T>C	p.Ter373GlnextTer6	0	0	0.038793	-0.182053	19.33	0.947616826132817	14.80534	4.17	0.48	0	0.215	1	6.845	0.98817	0.139865	-9.89	-	0	0	0	6	P09651
chr12_54284311_T/G	chr12	54284311	G	ENSG00000135486	ENST00000340913	stop_lost	1199	1117	373	E	Taa	Gaa	T	1	SNV	HNRNPA1	protein_coding	YES	MANE_Select	NM_031157.4	ENSP00000341826	-	10/11	c.1117T>G	p.Ter373GluextTer6	0	0	-0.0779735	-0.34978	19.25	0.939718433853082	14.80534	4.17	0.48	0	0.215	1	6.845	0.98847	0.139865	-11.47	-	0	0	0	6	P09651
chr12_54284312_A/C	chr12	54284312	C	ENSG00000135486	ENST00000340913	stop_lost	1200	1118	373	S	tAa	tCa	A	1	SNV	HNRNPA1	protein_coding	YES	MANE_Select	NM_031157.4	ENSP00000341826	-	10/11	c.1118A>C	p.Ter373SerextTer6	0	0	-0.108643	-0.393834	16.66	0.914506938928325	8.365024	1.71	0.505	0	0.215	1	4.117	0.96573	0.139865	-8.73	-	0	0	0	6	P09651
chr12_55724543_T/C	chr12	55724543	C	ENSG00000135437	ENST00000257895	stop_lost	1112	955	319	R	Tga	Cga	T	1	SNV	RDH5	protein_coding	YES	MANE_Select	NM_002905.5	ENSP00000257895	-	5/5	c.955T>C	p.Ter319ArgextTer32	0	9.269e-06	-0.0977134	-0.378135	17.19	0.843239657974208	7.408228	4.39	0.97	0	0.369	0.993	4.244	0.62486	0.283894	-7.65	-	0	0	0	32	Q92781
chr12_70353914_A/T	chr12	70353914	T	ENSG00000111596	ENST00000229195	stop_lost	1765	1622	541	L	tAa	tTa	A	1	SNV	CNOT2	protein_coding	YES	MANE_Select	NM_014515.7	ENSP00000229195	-	16/16	c.1622A>T	p.Ter541LeuextTer65	0	0	0.0509321	-0.164616	11.97	0.878169591718052	4.444012	NA	0.91	0	0.067	0.997	0.427	0.80665	0.295142	-1.94	-	0	0	0	65	Q9NZN8
chr12_88049186_A/G	chr12	88049186	G	ENSG00000198707	ENST00000552810	stop_lost	7654	7438	2480	Q	Taa	Caa	A	-1	SNV	CEP290	protein_coding	YES	MANE_Select	NM_025114.4	ENSP00000448012	-	54/54	c.7438T>C	p.Ter2480GlnextTer16	0	0	-0.114926	-0.402859	14.67	0.877144818486939	13.56245	5.27	0.9	0	0.408	0.412	2.839	0.94382	0.322412	-5.22	-	0	1.36522e-05	6.36853e-07	16	O15078
chr12_108248343_A/T	chr12	108248343	T	ENSG00000075035	ENST00000547525	stop_lost	2888	1698	566	C	tgA	tgT	A	1	SNV	WSCD2	protein_coding	YES	MANE_Select	NM_014653.4	ENSP00000448047	-	9/9	c.1698A>T	p.Ter566CysextTer8	0	0	-0.0327482	-0.284817	16	0.74227305292274	14.4897	4.63	0.69	0	0.006	1	8.873	0.99753	0.078448	-11.66	-	0	0	0	8	Q2TBF2
chr12_109596575_T/C	chr12	109596575	C	ENSG00000110921	ENST00000228510	stop_lost	1283	1189	397	R	Tga	Cga	T	1	SNV	MVK	protein_coding	YES	MANE_Select	NM_000431.4	ENSP00000228510	-	11/11	c.1189T>C	p.Ter397ArgextTer34	0	0	0.108997	-0.0812105	18.63	0.8848657439303	9.139052	4.9	0.995	0	0.343	1	4.023	0.89148	0.184171	-5.81	Conflicting_classifications_of_pathogenicity	0	0	0	34	Q03426
chr13_48261222_T/A	chr13	48261222	A	ENSG00000136156	ENST00000647800	stop_lost	954	799	267	R	Tga	Aga	T	1	SNV	ITM2B	protein_coding	YES	MANE_Select	NM_021999.5	ENSP00000497221	-	6/6	c.799T>A	p.Ter267ArgextTer11	0	0	0.00664596	-0.22823	18.44	0.795570275469494	14.60176	5.68	0.955	0	0.339	1	3.891	0.96289	0.322412	-7.36	Pathogenic	0	0	0	11	Q9Y287
chr13_48261223_G/C	chr13	48261223	C	ENSG00000136156	ENST00000647800	stop_lost	955	800	267	S	tGa	tCa	G	1	SNV	ITM2B	protein_coding	YES	MANE_Select	NM_021999.5	ENSP00000497221	-	6/6	c.800G>C	p.Ter267SerextTer11	0	0	-0.204106	-0.530961	15.85	0.756569560928802	14.83698	4.84	0.91	0	0.339	1	6.505	0.97468	0.322412	-6.16	-	0	0	0	11	Q9Y287
chr13_48261223_G/T	chr13	48261223	T	ENSG00000136156	ENST00000647800	stop_lost	955	800	267	L	tGa	tTa	G	1	SNV	ITM2B	protein_coding	YES	MANE_Select	NM_021999.5	ENSP00000497221	-	6/6	c.800G>T	p.Ter267LeuextTer11	0	0	-0.123081	-0.414574	17.77	0.781109889641532	14.83698	4.84	0.92	0	0.339	1	6.505	0.97403	0.322412	-7.52	Likely_pathogenic	0	1.1039e-05	6.25553e-07	11	Q9Y287
chr13_51934758_A/G	chr13	51934758	G	ENSG00000123191	ENST00000242839	stop_lost	4509	4396	1466	R	Tga	Cga	A	-1	SNV	ATP7B	protein_coding	YES	MANE_Select	NM_000053.4	ENSP00000242839	-	21/21	c.4396T>C	p.Ter1466ArgextTer1	3.74953130858643e-05	3.894e-06	-0.0327844	-0.284869	15.35	0.871979547122344	8.989	4.16	0.995	6.083e-07	0.46	1	1.826	0.91944	0.150579	-5.36	Conflicting_classifications_of_pathogenicity	0	1.09806e-05	1.23946e-06	1	P35670
chr13_113119006_T/C	chr13	113119006	C	ENSG00000057593	ENST00000346342	stop_lost	1384	1333	445	Q	Tag	Cag	T	1	SNV	F7	protein_coding	YES	MANE_Select	NM_019616.4	ENSP00000329546	-	8/8	c.1333T>C	p.Ter445GlnextTer31	0	0	-0.260387	-0.611805	10.91	0.724172463753676	4.648931	3.55	0.965	0	0.232	0.132	0.946	0.25671	0.055982	-4.28	-	0	0	0	31	P08709
chr14_23412854_C/G	chr14	23412854	G	ENSG00000092054	ENST00000355349	stop_lost	5913	5808	1936	Y	taG	taC	C	-1	SNV	MYH7	protein_coding	YES	MANE_Select	NM_000257.4	ENSP00000347507	-	40/40	c.5808G>C	p.Ter1936TyrextTer31	0	0	-0.405237	-0.819871	1.145	0.834821861948496	3.399604	0.347	0.16	0	0.095	0.002	-0.533	0.04821	0.080785	-5.4	-	0	0	0	31	P12883
chr14_23412855_T/C	chr14	23412855	C	ENSG00000092054	ENST00000355349	stop_lost	5912	5807	1936	W	tAg	tGg	T	-1	SNV	MYH7	protein_coding	YES	MANE_Select	NM_000257.4	ENSP00000347507	-	40/40	c.5807A>G	p.Ter1936TrpextTer31	0	0	-0.0626717	-0.3278	15.7	0.893633438652997	8.647124	4.29	0.18	0	0.095	0.995	3.934	0.80929	0.080785	-6.91	Uncertain_significance	0	0	0	31	P12883
chr14_23412855_T/A	chr14	23412855	A	ENSG00000092054	ENST00000355349	stop_lost	5912	5807	1936	L	tAg	tTg	T	-1	SNV	MYH7	protein_coding	YES	MANE_Select	NM_000257.4	ENSP00000347507	-	40/40	c.5807A>T	p.Ter1936LeuextTer31	0	0	-0.00221629	-0.24096	15.29	0.88731144752065	8.647124	4.29	0.18	0	0.095	0.995	3.934	0.83959	0.080785	-8.06	-	0	0	0	31	P12883
chr14_24081237_C/A	chr14	24081237	A	ENSG00000129535	ENST00000561028	stop_lost	968	713	238	L	tGa	tTa	C	-1	SNV	NRL	protein_coding	YES	MANE_Select	NM_001354768.3	ENSP00000454062	-	3/3	c.713G>T	p.Ter238LeuextTer58	0	0	-0.166867	-0.477469	16.29	0.793744994884431	6.741042	4.11	0.795	1.825e-06	0.345	1	1.705	0.91919	0.163419	-8.05	Uncertain_significance	0	9.21999e-05	5.36823e-06	58	P54845
chr14_36517280_A/T	chr14	36517280	T	ENSG00000136352	ENST00000354822	stop_lost	1307	1204	402	R	Tga	Aga	A	-1	SNV	NKX2-1	protein_coding	YES	MANE_Select	NM_001079668.3	ENSP00000346879	-	3/3	c.1204T>A	p.Ter402ArgextTer63	0	0	0.0492892	-0.166976	19.33	0.947916151022555	13.35328	3.55	1	0	0.494	1	9.185	0.99467	0.163419	-12.09	-	0	0	0	63	P43699
chr14_54844019_A/G	chr14	54844019	G	ENSG00000131979	ENST00000491895	stop_lost	914	751	251	R	Tga	Cga	A	-1	SNV	GCH1	protein_coding	YES	MANE_Select	NM_000161.3	ENSP00000419045	-	6/6	c.751T>C	p.Ter251ArgextTer35	0	9.301e-05	0.0748087	-0.130319	19.92	0.895493207961958	20.60494	5.93	0.99	0	0.126	1	9.105	0.99819	0.322412	-9.64	Pathogenic	0	0	0	35	P30793
chr14_87934734_A/G	chr14	87934734	G	ENSG00000054983	ENST00000261304	stop_lost	2074	2056	686	Q	Taa	Caa	A	-1	SNV	GALC	protein_coding	YES	MANE_Select	NM_000153.4	ENSP00000261304	-	17/17	c.2056T>C	p.Ter686GlnextTer42	0	0	-0.372013	-0.675293	13.47	0.80255437042219	5.257293	5.6	0.88	1.217e-06	0.231	0.069	3.635	0.30313	0.262962	-3.22	Pathogenic/Likely_pathogenic	0	5.00851e-05	4.33927e-06	42	P54803
chr15_25339138_T/A	chr15	25339138	A	ENSG00000114062	ENST00000648336	stop_lost	3318	2618	873	L	tAa	tTa	T	-1	SNV	UBE3A	protein_coding	YES	MANE_Select	NM_130839.5	ENSP00000497572	-	13/13	c.2618A>T	p.Ter873LeuextTer44	0	0	0.300581	0.193987	16.92	0.859466647922285	13.49668	5.38	0.985	0	0.71	1	4.033	0.97871	0.322412	-10.66	Pathogenic	0	0	0	44	Q05086
chr15_42411771_T/C	chr15	42411771	C	ENSG00000092529	ENST00000397163	stop_lost	2769	2464	822	R	Tga	Cga	T	1	SNV	CAPN3	protein_coding	YES	MANE_Select	NM_000070.3	ENSP00000380349	-	24/24	c.2464T>C	p.Ter822ArgextTer62	0	1.038e-05	0.4414	0.396264	19.86	0.911703599172294	20.99406	5.96	0.95	6.083e-07	0.688	1	7.388	0.99799	0.115753	-10.57	-	0	0	0	62	P20807
chr15_42411772_G/T	chr15	42411772	T	ENSG00000092529	ENST00000397163	stop_lost	2770	2465	822	L	tGa	tTa	G	1	SNV	CAPN3	protein_coding	YES	MANE_Select	NM_000070.3	ENSP00000380349	-	24/24	c.2465G>T	p.Ter822LeuextTer62	0	1.347e-05	0.115427	0.0108911	12.79	0.853098006899504	17.38536	5.96	0.92	0	0.688	1	2.191	0.98408	0.115753	-7.34	Likely_pathogenic	0	6.85354e-05	3.12196e-06	62	P20807
chr15_74337974_A/T	chr15	74337974	T	ENSG00000140459	ENST00000268053	stop_lost	1625	1564	522	R	Tga	Aga	A	-1	SNV	CYP11A1	protein_coding	YES	MANE_Select	NM_000781.3	ENSP00000268053	-	9/9	c.1564T>A	p.Ter522ArgextTer68	0	3.894e-05	-0.22743	-0.500818	11.03	0.810999729664882	5.612693	4.94	0.94	2.129e-05	0.17	0.986	3.313	0.34324	0.262962	-7.96	-	0	2.8813e-05	2.10685e-05	68	P05108
chr15_82849716_T/C	chr15	82849716	C	ENSG00000103942	ENST00000450735	stop_lost	1216	1031	344	W	tAg	tGg	T	-1	SNV	HOMER2	protein_coding	YES	MANE_Select	NM_004839.4	ENSP00000407634	-	9/9	c.1031A>G	p.Ter344TrpextTer10	0	0	0.0500257	-0.165918	16.64	0.855429118101373	12.60733	5.94	NA	0	0.144	1	2.416	0.97179	0.693154	-6.2	Likely_pathogenic	0	0	0	10	Q9NSB8
chr15_89316753_A/G	chr15	89316753	G	ENSG00000140521	ENST00000268124	stop_lost	4029	3718	1240	Q	Tag	Cag	A	-1	SNV	POLG	protein_coding	YES	MANE_Select	NM_002693.3	ENSP00000268124	-	23/23	c.3718T>C	p.Ter1240GlnextTer35	0	1.251e-05	-0.337003	-0.55273	11.28	0.721404364596183	7.229368	4.58	0.935	2.434e-06	0.319	0.002	0.287	0.27379	0.256867	-3.13	Uncertain_significance	0	2.22797e-05	2.48271e-06	35	P54098
chr16_173598_T/A	chr16	173598	A	ENSG00000188536	ENST00000251595	stop_lost	464	427	143	K	Taa	Aaa	T	1	SNV	HBA2	protein_coding	YES	MANE_Select	NM_000517.6	ENSP00000251595	-	3/3	c.427T>A	p.Ter143LysextTer31	0	3.358e-05	0.0303596	-0.194167	15.1	0.904521094314937	13.21643	4.43	1	3.041e-06	0.156	1	4.118	0.975	0.095506	-9.62	Pathogenic	0	2.54257e-06	1.86537e-06	31	P69905
chr16_173598_T/C	chr16	173598	C	ENSG00000188536	ENST00000251595	stop_lost	464	427	143	Q	Taa	Caa	T	1	SNV	HBA2	protein_coding	YES	MANE_Select	NM_000517.6	ENSP00000251595	-	3/3	c.427T>C	p.Ter143GlnextTer31	8.99750640536766e-05	0.0009318	-0.15463	-0.0968585	15.22	0.84561512497359	13.21643	4.43	1	2.737e-05	0.156	1	4.118	0.97452	0.095506	-8.06	Pathogenic/Likely_pathogenic	1	0.000334582	2.23844e-05	31	P69905
chr16_173598_T/G	chr16	173598	G	ENSG00000188536	ENST00000251595	stop_lost	464	427	143	E	Taa	Gaa	T	1	SNV	HBA2	protein_coding	YES	MANE_Select	NM_000517.6	ENSP00000251595	-	3/3	c.427T>G	p.Ter143GluextTer31	0	5.793e-05	-0.00766103	-0.248781	15.12	0.844691854084458	13.21643	4.43	0.99	6.691e-06	0.156	1	4.118	0.97528	0.095506	-8.86	Pathogenic/Likely_pathogenic	0	4.22821e-05	4.35285e-06	31	P69905
chr16_173599_A/C	chr16	173599	C	ENSG00000188536	ENST00000251595	stop_lost	465	428	143	S	tAa	tCa	A	1	SNV	HBA2	protein_coding	YES	MANE_Select	NM_000517.6	ENSP00000251595	-	3/3	c.428A>C	p.Ter143SerextTer31	0	0	-0.12574	-0.317763	13.52	0.743799580396783	6.282097	2.17	0.995	6.083e-07	0.156	1	1.214	0.90677	0.095506	-8.67	Pathogenic/Likely_pathogenic	0	2.22712e-05	1.24368e-06	31	P69905
chr16_173599_A/T	chr16	173599	T	ENSG00000188536	ENST00000251595	stop_lost	465	428	143	L	tAa	tTa	A	1	SNV	HBA2	protein_coding	YES	MANE_Select	NM_000517.6	ENSP00000251595	-	3/3	c.428A>T	p.Ter143LeuextTer31	0	9.656e-06	0.0891644	-0.109698	14.13	0.830759743707087	6.282097	2.17	0.995	0	0.156	1	1.214	0.90491	0.095506	-9.28	Pathogenic	0	0	0	31	P69905
chr16_173600_A/T	chr16	173600	T	ENSG00000188536	ENST00000251595	stop_lost	466	429	143	Y	taA	taT	A	1	SNV	HBA2	protein_coding	YES	MANE_Select	NM_000517.6	ENSP00000251595	-	3/3	c.429A>T	p.Ter143TyrextTer31	0	9.314e-05	0.099672	-0.0946046	15.53	0.885688263425858	13.98197	4.43	0.985	1.217e-06	0.156	1	4.93	0.98094	0.095506	-9.89	Pathogenic	0	2.23025e-05	6.21787e-07	31	P69905
chr16_2519744_A/T	chr16	2519744	T	ENSG00000185883	ENST00000330398	stop_lost	619	467	156	L	tAg	tTg	A	1	SNV	ATP6V0C	protein_coding	YES	MANE_Select	NM_001694.4	ENSP00000329757	-	3/3	c.467A>T	p.Ter156LeuextTer35	0	0	-0.0252164	-0.273998	18.51	0.706226417222969	12.25957	4.23	0.96	0	0.053	1	7.052	0.97526	0.252514	-9.08	Pathogenic	0	0	0	35	P27449
chr16_13948345_T/C	chr16	13948345	C	ENSG00000175595	ENST00000311895	stop_lost	2761	2749	917	R	Tga	Cga	T	1	SNV	ERCC4	protein_coding	YES	MANE_Select	NM_005236.3	ENSP00000310520	-	11/11	c.2749T>C	p.Ter917ArgextTer83	0	3.894e-06	-0.105388	-0.163457	16.1	0.87780496055109	9.177001	5.96	NA	1.034e-05	0.037	1	3.8	0.95322	0.156188	-6.89	Uncertain_significance	0	6.68807e-05	1.11874e-05	83	Q92889
chr16_21258781_T/A	chr16	21258781	A	ENSG00000103316	ENST00000572914	stop_lost	984	945	315	Y	taA	taT	T	-1	SNV	CRYM	protein_coding	YES	MANE_Select	NM_001376256.1	ENSP00000461904	-	8/8	c.945A>T	p.Ter315TyrextTer5	0	0	-0.400382	-0.812897	2.088	0.514468100107757	1.861833	1.94	0.965	0	0.144	0.797	1.278	0.64274	0.262962	-7.38	no_classifications_from_unflagged_records	0	0	0	5	Q14894
chr16_29814636_T/C	chr16	29814636	C	ENSG00000167371	ENST00000358758	stop_lost	1217	1021	341	R	Tga	Cga	T	1	SNV	PRRT2	protein_coding	YES	MANE_Select	NM_145239.3	ENSP00000351608	-	4/4	c.1021T>C	p.Ter341ArgextTer28	0	0	0.0784691	-0.125061	9.764	0.85203780812844	9.357827	3.68	0.93	0	0.477	0.998	0.728	0.63704	0.142881	-5.54	Pathogenic	0	0	0	28	Q7Z6L0
chr16_29814637_G/T	chr16	29814637	T	ENSG00000167371	ENST00000358758	stop_lost	1218	1022	341	L	tGa	tTa	G	1	SNV	PRRT2	protein_coding	YES	MANE_Select	NM_145239.3	ENSP00000351608	-	4/4	c.1022G>T	p.Ter341LeuextTer28	0	0	-0.111965	-0.398607	2.273	0.889287398011376	10.62724	3.68	0.97	0	0.477	1	1.784	0.60124	0.142881	-6.28	-	0	0	0	28	Q7Z6L0
chr16_29814638_A/T	chr16	29814638	T	ENSG00000167371	ENST00000358758	stop_lost	1219	1023	341	C	tgA	tgT	A	1	SNV	PRRT2	protein_coding	YES	MANE_Select	NM_145239.3	ENSP00000351608	-	4/4	c.1023A>T	p.Ter341CysextTer28	0	0	-0.00309764	-0.242226	10.91	0.922240636487671	9.070578	3.68	0.975	0	0.477	1	1.664	0.92738	0.142881	-7.58	-	0	0	0	28	Q7Z6L0
chr16_30086225_T/A	chr16	30086225	A	ENSG00000149922	ENST00000395224	stop_lost	1411	1311	437	C	tgA	tgT	T	-1	SNV	TBX6	protein_coding	YES	MANE_Select	NM_004608.4	ENSP00000378650	-	9/9	c.1311A>T	p.Ter437CysextTer81	0	0	-0.0621168	-0.327003	15.63	0.718314266574459	8.328797	4.69	0.895	0	0.255	1	2.648	0.83644	0.092769	-7.35	Pathogenic	0	0	0	81	O95947
chr16_46707705_T/G	chr16	46707705	G	ENSG00000140795	ENST00000394809	stop_lost	2610	2459	820	S	tAa	tCa	T	-1	SNV	MYLK3	protein_coding	YES	MANE_Select	NM_182493.3	ENSP00000378288	-	13/13	c.2459A>C	p.Ter820SerextTer19	0	0	-0.0179685	-0.263587	8.539	0.792311109677835	7.10565	4.3	0.91	0	0.044	0.961	0.808	0.81485	0.078448	-5.4	-	0	0	0	19	Q32MK0
chr16_74714190_T/A	chr16	74714190	A	ENSG00000103089	ENST00000219368	stop_lost	1184	1119	373	C	tgA	tgT	T	-1	SNV	FA2H	protein_coding	YES	MANE_Select	NM_024306.5	ENSP00000219368	-	7/7	c.1119A>T	p.Ter373CysextTer48	0.000539956803455724	3.894e-05	-0.160657	-0.121377	17.64	0.576551149788453	13.27114	5.42	0.995	4.016e-05	0.061	1	3.56	0.98463	0.262962	-8.67	Conflicting_classifications_of_pathogenicity	0	5.91953e-05	4.43315e-05	48	Q7L5A8
chr16_84009786_A/G	chr16	84009786	G	ENSG00000166558	ENST00000299709	stop_lost	1553	1306	436	R	Tga	Cga	A	-1	SNV	SLC38A8	protein_coding	YES	MANE_Select	NM_001080442.3	ENSP00000299709	-	11/11	c.1306T>C	p.Ter436ArgextTer33	0	9.269e-06	-0.148321	-0.450829	16.45	0.828166331780297	5.06949	4.39	NA	6.083e-06	0.033	0.967	2.008	0.22461	0.053691	-4.56	Uncertain_significance	0	5.08587e-06	3.71838e-06	33	A6NNN8
chr16_84054449_T/A	chr16	84054449	A	ENSG00000140943	ENST00000343411	stop_lost	3691	3159	1053	C	tgA	tgT	T	-1	SNV	MBTPS1	protein_coding	YES	MANE_Select	NM_003791.4	ENSP00000344223	-	23/23	c.3159A>T	p.Ter1053CysextTer51	0	0	0.0863769	-0.113702	16.84	0.691812389675257	12.3766	5.81	NA	6.083e-07	0.004	1	5.39	0.99507	0.295142	-11.11	-	0	0	0	51	Q14703
chr16_84054451_A/G	chr16	84054451	G	ENSG00000140943	ENST00000343411	stop_lost	3689	3157	1053	R	Tga	Cga	A	-1	SNV	MBTPS1	protein_coding	YES	MANE_Select	NM_003791.4	ENSP00000344223	-	23/23	c.3157T>C	p.Ter1053ArgextTer51	0	0	0.115864	-0.0713454	17.48	0.897145588444901	14.38932	5.81	NA	0	0.004	1	6.565	0.99691	0.295142	-9.62	Pathogenic	0	0	0	51	Q14703
chr16_86513083_T/A	chr16	86513083	A	ENSG00000103241	ENST00000262426	stop_lost	1181	1138	380	R	Tga	Aga	T	1	SNV	FOXF1	protein_coding	YES	MANE_Select	NM_001451.3	ENSP00000262426	-	2/2	c.1138T>A	p.Ter380ArgextTer73	0	0	0.192398	0.0385906	19.99	0.948078228281594	17.55935	5.14	0.995	0	0.045	1	7.372	0.99583	0.220437	-11.98	Pathogenic	0	0	0	73	Q12946
chr16_86513083_T/C	chr16	86513083	C	ENSG00000103241	ENST00000262426	stop_lost	1181	1138	380	R	Tga	Cga	T	1	SNV	FOXF1	protein_coding	YES	MANE_Select	NM_001451.3	ENSP00000262426	-	2/2	c.1138T>C	p.Ter380ArgextTer73	0	0	0.221294	0.0800977	20.2	0.907327649415407	17.55935	5.14	0.995	0	0.045	1	7.372	0.99569	0.220437	-9.57	Pathogenic	0	0	0	73	Q12946
chr16_86513084_G/C	chr16	86513084	C	ENSG00000103241	ENST00000262426	stop_lost	1182	1139	380	S	tGa	tCa	G	1	SNV	FOXF1	protein_coding	YES	MANE_Select	NM_001451.3	ENSP00000262426	-	2/2	c.1139G>C	p.Ter380SerextTer73	0	0	-0.146115	-0.44766	17.61	0.910614844989502	17.26731	5.14	0.995	0	0.045	1	5.142	0.99182	0.220437	-9.79	Pathogenic	0	0	0	73	Q12946
chr16_88715607_A/G	chr16	88715607	G	ENSG00000103335	ENST00000301015	stop_lost	7820	7564	2522	Q	Tag	Cag	A	-1	SNV	PIEZO1	protein_coding	YES	MANE_Select	NM_001142864.4	ENSP00000301015	-	51/51	c.7564T>C	p.Ter2522GlnextTer46	0	0.0001751	-0.14906	-0.329347	13.92	0.82350067441246	10.178	3.33	0.84	3.042e-06	0.033	0.999	4.514	0.89701	0.256867	-6.49	-	0	1.96325e-05	3.22839e-06	46	Q92508
chr16_88809698_T/A	chr16	88809698	A	ENSG00000198931	ENST00000378364	stop_lost	572	543	181	C	tgA	tgT	T	-1	SNV	APRT	protein_coding	YES	MANE_Select	NM_000485.3	ENSP00000367615	-	5/5	c.543A>T	p.Ter181CysextTer?	0	0	-0.209337	-0.538474	16.52	0.705307224545977	6.669022	4.19	0.95	0	0.141	0.995	2.727	0.94324	0.298561	-10.59	Pathogenic	0	0	0	?	P07741
chr16_88809699_C/G	chr16	88809699	G	ENSG00000198931	ENST00000378364	stop_lost	571	542	181	S	tGa	tCa	C	-1	SNV	APRT	protein_coding	YES	MANE_Select	NM_000485.3	ENSP00000367615	-	5/5	c.542G>C	p.Ter181SerextTer?	0	0	-0.393588	-0.803139	14.97	0.677155123466325	5.741089	3.31	0.96	0	0.141	0.998	1.141	0.95573	0.298561	-9.02	Pathogenic	0	2.22757e-05	6.19887e-07	?	P07741
chr16_88809700_A/G	chr16	88809700	G	ENSG00000198931	ENST00000378364	stop_lost	570	541	181	R	Tga	Cga	A	-1	SNV	APRT	protein_coding	YES	MANE_Select	NM_000485.3	ENSP00000367615	-	5/5	c.541T>C	p.Ter181ArgextTer?	3.59971202303816e-05	3.894e-06	-0.192369	-0.514101	17.41	0.81444491110969	7.439288	5.28	0.955	7.908e-06	0.141	1	4.42	0.873	0.298561	-7.83	Pathogenic	0	9.32211e-06	7.43811e-06	?	P07741
chr16_88814440_T/C	chr16	88814440	C	ENSG00000141012	ENST00000268695	stop_lost	1638	1568	523	W	tAg	tGg	T	-1	SNV	GALNS	protein_coding	YES	MANE_Select	NM_000512.5	ENSP00000268695	-	14/14	c.1568A>G	p.Ter523TrpextTer92	0	0	-0.0262481	-0.27548	16.34	0.86642695062262	8.534848	5.09	NA	0	0.045	0.999	2.52	0.41176	0.423528	-4.98	Conflicting_classifications_of_pathogenicity	0	0	0	92	P34059
chr16_88814441_A/C	chr16	88814441	C	ENSG00000141012	ENST00000268695	stop_lost	1637	1567	523	E	Tag	Gag	A	-1	SNV	GALNS	protein_coding	YES	MANE_Select	NM_000512.5	ENSP00000268695	-	14/14	c.1567T>G	p.Ter523GluextTer92	0	0.0001861	-0.148386	-0.450923	15.66	0.795303369776339	11.8194	5.09	0.995	6.083e-07	0.045	1	7.67	0.96474	0.423528	-11.61	Pathogenic/Likely_pathogenic	0	0	6.41503e-07	92	P34059
chr17_1650802_T/C	chr17	1650802	C	ENSG00000174231	ENST00000304992	stop_lost	7107	7008	2336	W	tgA	tgG	T	-1	SNV	PRPF8	protein_coding	YES	MANE_Select	NM_006445.4	ENSP00000304350	-	43/43	c.7008A>G	p.Ter2336TrpextTer41	0	0	-0.283833	-0.645483	1.467	0.408456975716178	2.545055	2.84	0.98	0	0.098	0.051	0.09	0.07714	0.722319	1.43	-	0	0	0	41	Q6P2Q9
chr17_1650803_C/G	chr17	1650803	G	ENSG00000174231	ENST00000304992	stop_lost	7106	7007	2336	S	tGa	tCa	C	-1	SNV	PRPF8	protein_coding	YES	MANE_Select	NM_006445.4	ENSP00000304350	-	43/43	c.7007G>C	p.Ter2336SerextTer41	0	0	-0.338565	-0.724101	5.438	0.532300057682448	2.998713	2.42	NA	0	0.098	0.983	2.024	0.93054	0.722319	-4.14	Pathogenic	0	0	0	41	Q6P2Q9
chr17_1650804_A/G	chr17	1650804	G	ENSG00000174231	ENST00000304992	stop_lost	7105	7006	2336	R	Tga	Cga	A	-1	SNV	PRPF8	protein_coding	YES	MANE_Select	NM_006445.4	ENSP00000304350	-	43/43	c.7006T>C	p.Ter2336ArgextTer41	0	0	0.000317077	-0.237321	16.74	0.714386623044233	15.10493	5.86	1	0	0.098	1	8.919	0.99549	0.722319	-9.96	-	0	0	0	41	Q6P2Q9
chr17_2681802_A/C	chr17	2681802	C	ENSG00000007168	ENST00000397195	stop_lost	1776	1233	411	C	tgA	tgC	A	1	SNV	PAFAH1B1	protein_coding	YES	MANE_Select	NM_000430.4	ENSP00000380378	-	11/11	c.1233A>C	p.Ter411CysextTer28	5.34948163522955e-06	0	0.0473308	-0.169789	17.28	0.909447208652986	23.5507	5.78	0.985	0	0.196	1	9.239	0.99495	0.295142	-10.01	Pathogenic	0	0	0	28	P43034
chr17_2681802_A/G	chr17	2681802	G	ENSG00000007168	ENST00000397195	stop_lost	1776	1233	411	W	tgA	tgG	A	1	SNV	PAFAH1B1	protein_coding	YES	MANE_Select	NM_000430.4	ENSP00000380378	-	11/11	c.1233A>G	p.Ter411TrpextTer28	0	0	0.0104853	-0.222715	17.65	0.911898607201589	23.5507	5.78	0.975	0	0.196	1	9.239	0.9945	0.295142	-8.22	-	0	0	0	28	P43034
chr17_3499087_A/G	chr17	3499087	G	ENSG00000108381	ENST00000263080	stop_lost	1104	941	314	W	tAg	tGg	A	1	SNV	ASPA	protein_coding	YES	MANE_Select	NM_000049.4	ENSP00000263080	-	6/6	c.941A>G	p.Ter314TrpextTer45	0	0	-0.103168	-0.210124	14.87	0.823130231976089	9.881354	4.19	0.97	4.258e-06	0.218	0.999	3.931	0.95986	0.053691	-5.48	Likely_pathogenic	0	5.003e-05	1.85935e-06	45	P45381
chr17_7225097_A/C	chr17	7225097	C	ENSG00000072778	ENST00000356839	stop_lost	2015	1968	656	C	tgA	tgC	A	1	SNV	ACADVL	protein_coding	YES	MANE_Select	NM_000018.4	ENSP00000349297	-	20/20	c.1968A>C	p.Ter656CysextTer54	0	0	-0.000937421	-0.239123	16.93	0.836694685953576	14.82752	5.89	0.43	0	0.157	1	5.304	0.94983	0.256867	-7.93	Uncertain_significance	0	0	0	54	P49748
chr17_8072772_T/C	chr17	8072772	C	ENSG00000179477	ENST00000647874	stop_lost	2379	2105	702	W	tAg	tGg	T	-1	SNV	ALOX12B	protein_coding	YES	MANE_Select	NM_001139.3	ENSP00000497784	-	15/15	c.2105A>G	p.Ter702TrpextTer?	0	0	-0.00234647	-0.241147	17.65	0.858196112541517	9.179256	4.89	NA	0	NA	0.996	1.148	0.60717	0.166803	-4.7	-	0	0	0	?	O75342
chr17_15230917_T/C	chr17	15230917	C	ENSG00000109099	ENST00000312280	stop_lost	690	483	161	W	tgA	tgG	T	-1	SNV	PMP22	protein_coding	YES	MANE_Select	NM_000304.4	ENSP00000308937	-	5/5	c.483A>G	p.Ter161TrpextTer10	0	0	0.0573083	-0.155457	18.55	0.872471500668549	15.1653	5.05	NA	0	0.333	1	5.804	0.88906	0.706548	-7	-	0	0	0	10	Q01453
chr17_42911426_A/C	chr17	42911426	C	ENSG00000131482	ENST00000253801	stop_lost	1152	1074	358	Y	taA	taC	A	1	SNV	G6PC1	protein_coding	YES	MANE_Select	NM_000151.4	ENSP00000253801	-	5/5	c.1074A>C	p.Ter358TyrextTer43	0	0	-0.0177339	-0.26325	15.24	0.803848704212409	11.28985	3.8	0.93	0	0.048	1	3.248	0.90716	0.06567	-8.28	-	0	0	0	43	P35575
chr17_47946780_T/C	chr17	47946780	C	ENSG00000108439	ENST00000642017	stop_lost	889	784	262	Q	Taa	Caa	T	1	SNV	PNPO	protein_coding	YES	MANE_Select	NM_018129.4	ENSP00000493302	-	7/7	c.784T>C	p.Ter262GlnextTer28	0	0	0.0971049	-0.098292	18.77	0.94034269871626	14.43046	5.22	0.99	0	NA	1	7.397	0.97734	0.295142	-7.27	Pathogenic	0	8.47502e-07	6.19595e-07	28	Q9NVS9
chr17_60159422_T/C	chr17	60159422	C	ENSG00000167434	ENST00000300900	stop_lost	999	937	313	R	Tga	Cga	T	1	SNV	CA4	protein_coding	YES	MANE_Select	NM_000717.5	ENSP00000300900	-	8/8	c.937T>C	p.Ter313ArgextTer?	0	0	-0.216561	-0.548852	9.278	0.832796308865349	3.605041	2.47	NA	6.083e-07	0.16	0.007	0.645	0.18455	0.162408	-1.81	Likely_pathogenic	0	8.47695e-07	6.20574e-07	?	P22748
chr17_63940771_C/G	chr17	63940771	G	ENSG00000007314	ENST00000435607	stop_lost	5588	5511	1837	Y	taG	taC	C	-1	SNV	SCN4A	protein_coding	YES	MANE_Select	NM_000334.4	ENSP00000396320	-	24/24	c.5511G>C	p.Ter1837TyrextTer50	0	0	-0.195513	-0.518618	7.833	0.798005129247948	4.856456	2.33	NA	0	0.215	0.847	1.254	0.83269	0.090766	-7.71	-	0	0	0	50	P35499
chr18_9134277_T/C	chr18	9134277	C	ENSG00000178127	ENST00000318388	stop_lost	793	748	250	Q	Taa	Caa	T	1	SNV	NDUFV2	protein_coding	YES	MANE_Select	NM_021074.5	ENSP00000327268	-	8/8	c.748T>C	p.Ter250GlnextTer?	0	2.501e-05	0.158515	-0.0100805	18.18	0.905877221699714	19.14744	6.04	0.975	0	0.086	1	7.385	0.98318	0.359288	-8.43	-	0	0	0	?	P19404
chr18_49590520_T/C	chr18	49590520	C	ENSG00000101670	ENST00000261292	stop_lost	1753	1501	501	R	Tga	Cga	T	1	SNV	LIPG	protein_coding	YES	MANE_Select	NM_006033.4	ENSP00000261292	-	10/10	c.1501T>C	p.Ter501ArgextTer49	0	0	-0.088107	-0.364336	11.21	0.772713587898498	8.446816	5.01	0.97	1.217e-06	0.096	0.989	2.325	0.92433	0.295142	-5.42	-	0	8.52621e-07	6.24361e-07	49	Q9Y5X9
chr19_920746_T/A	chr19	920746	A	ENSG00000116014	ENST00000234371	stop_lost	1365	1195	399	R	Tga	Aga	T	1	SNV	KISS1R	protein_coding	YES	MANE_Select	NM_032551.5	ENSP00000234371	-	5/5	c.1195T>A	p.Ter399ArgextTer?	0.000105898549189876	0.0001052	0.139022	-0.0380817	11.53	0.892382416350012	6.186272	2.76	0.92	6.144e-05	0.067	0	-0.438	0.47282	0.095506	-2.64	Pathogenic/Likely_pathogenic	0	6.88085e-05	6.69657e-05	?	Q969F8
chr19_920746_T/C	chr19	920746	C	ENSG00000116014	ENST00000234371	stop_lost	1365	1195	399	R	Tga	Cga	T	1	SNV	KISS1R	protein_coding	YES	MANE_Select	NM_032551.5	ENSP00000234371	-	5/5	c.1195T>C	p.Ter399ArgextTer?	0	0	0.149051	-0.0236751	11.73	0.799682038247986	6.186272	2.76	0.92	0	0.067	0	-0.438	0.32326	0.095506	-2.04	-	0	0	7.78599e-07	?	Q969F8
chr19_2251957_A/T	chr19	2251957	T	ENSG00000104899	ENST00000221496	stop_lost	1693	1683	561	C	tgA	tgT	A	1	SNV	AMH	protein_coding	YES	MANE_Select	NM_000479.5	ENSP00000221496	-	5/5	c.1683A>T	p.Ter561CysextTer?	0	0	-0.0587829	-0.322214	16.86	0.860733508766523	6.28162	3.01	0.795	0	0.065	0.914	1.671	0.61478	0.267763	-8.03	Likely_pathogenic	0	0	0	?	P03971
chr19_3590188_T/C	chr19	3590188	C	ENSG00000179855	ENST00000644452	stop_lost	1057	937	313	Q	Tag	Cag	T	1	SNV	GIPC3	protein_coding	YES	MANE_Select	NM_133261.3	ENSP00000493901	-	6/6	c.937T>C	p.Ter313GlnextTer98	0	0	0.0431274	-0.175827	16.65	0.833379384543984	8.867995	4.37	NA	6.083e-07	NA	0.998	2.552	0.88087	0.078448	-7.91	Uncertain_significance	0	2.27335e-05	1.25558e-06	98	Q8TF64
chr19_12899541_A/G	chr19	12899541	G	ENSG00000105607	ENST00000222214	stop_lost	1394	1317	439	W	tgA	tgG	A	1	SNV	GCDH	protein_coding	YES	MANE_Select	NM_000159.4	ENSP00000222214	-	12/12	c.1317A>G	p.Ter439TrpextTer27	0	7.788e-06	0.00611478	-0.228993	17.54	0.893206907981215	9.320984	5.45	0.965	6.083e-07	0.121	0.996	4.359	0.86912	0.360877	-5.91	Likely_pathogenic	0	8.47452e-07	6.19526e-07	27	Q92947
chr19_35039699_T/C	chr19	35039699	C	ENSG00000105711	ENST00000262631	stop_lost	1006	655	219	Q	Tag	Cag	T	1	SNV	SCN1B	protein_coding	YES	MANE_Select	NM_001037.5	ENSP00000262631	-	5/6	c.655T>C	p.Ter219GlnextTer214	0	0	-0.00374229	-0.243152	16.3	0.890581698000256	3.820311	4.95	0.9	1.217e-06	0.131	1	7.17	0.97337	0.162113	-10.63	Uncertain_significance	0	0	0	214	Q07699
chr19_35746845_T/A	chr19	35746845	A	ENSG00000205155	ENST00000587708	stop_lost	450	304	102	R	Tga	Aga	T	1	SNV	PSENEN	protein_coding	YES	MANE_Select	NM_172341.4	ENSP00000468411	-	4/4	c.304T>A	p.Ter102ArgextTer50	0	0	0.13953	-0.0373519	17.84	0.817893961824445	15.33155	5.82	0.43	0	0.088	1	7.297	0.98669	0.256391	-12.56	-	0	0	0	50	Q9NZ42
chr19_46756936_T/A	chr19	46756936	A	ENSG00000181027	ENST00000318584	stop_lost	1772	1486	496	R	Tga	Aga	T	1	SNV	FKRP	protein_coding	YES	MANE_Select	NM_024301.5	ENSP00000326570	-	4/4	c.1486T>A	p.Ter496ArgextTer21	3.11915159076731e-05	0	-0.0113953	-0.254145	15.44	0.885967564352037	8.711724	5.06	0.97	1.642e-05	0.096	1	2.853	0.94641	0.252514	-8.07	Pathogenic/Likely_pathogenic	0	3.39004e-06	2.48025e-06	21	Q9H9S5
chr19_47839965_T/C	chr19	47839965	C	ENSG00000105392	ENST00000221996	stop_lost	1007	898	300	Q	Tag	Cag	T	1	SNV	CRX	protein_coding	YES	MANE_Select	NM_000554.6	ENSP00000221996	-	4/4	c.898T>C	p.Ter300GlnextTer118	0	3.895e-06	-0.00222325	-0.24097	17.19	0.766457990026546	8.357084	2.83	0.98	0	0.164	1	5.491	0.91885	0.077194	-8.9	Uncertain_significance	0	0	0	118	O43186
chr19_47839966_A/G	chr19	47839966	G	ENSG00000105392	ENST00000221996	stop_lost	1008	899	300	W	tAg	tGg	A	1	SNV	CRX	protein_coding	YES	MANE_Select	NM_000554.6	ENSP00000221996	-	4/4	c.899A>G	p.Ter300TrpextTer118	0	0	-0.0330197	-0.285207	17.17	0.84336442824946	9.884991	3.86	1	0	0.164	1	4.428	0.93444	0.077194	-4.5	-	0	0	0	118	O43186
chr19_54131431_G/T	chr19	54131431	T	ENSG00000105618	ENST00000321030	stop_lost	1551	1499	500	L	tGa	tTa	G	1	SNV	PRPF31	protein_coding	YES	MANE_Select	NM_015629.4	ENSP00000324122	-	14/14	c.1499G>T	p.Ter500LeuextTer23	0	0	-0.116106	-0.404554	17.62	0.785278479978941	9.140731	4.12	0.785	0	0.319	1	5.255	0.92096	0.295142	-8.94	Uncertain_significance	0	0	0	23	Q8WWY3
chr19_58550553_A/G	chr19	58550553	G	ENSG00000130726	ENST00000253024	stop_lost	3202	2508	836	W	tgA	tgG	A	1	SNV	TRIM28	protein_coding	YES	MANE_Select	NM_005762.3	ENSP00000253024	-	17/17	c.2508A>G	p.Ter836TrpextTer?	0	0	0.00898787	-0.224866	17.57	0.863796697964398	11.47115	4.91	0.92	0	0.32	0.013	0.545	0.96038	0.256867	-3.73	-	0	0	0	?	Q13263
chr2_31526197_T/G	chr2	31526197	G	ENSG00000277893	ENST00000622030	stop_lost	802	764	255	S	tAa	tCa	T	-1	SNV	SRD5A2	protein_coding	YES	MANE_Select	NM_000348.4	ENSP00000477587	-	5/5	c.764A>C	p.Ter255SerextTer28	0	3.894e-06	-0.158449	-0.465378	8.56	0.73849471573613	NA	2.2	NA	3.042e-06	0.153	1	1.895	0.94812	0.053691	-8.59	-	0	8.63221e-07	6.33836e-07	28	P31213
chr2_31526198_A/G	chr2	31526198	G	ENSG00000277893	ENST00000622030	stop_lost	801	763	255	Q	Taa	Caa	A	-1	SNV	SRD5A2	protein_coding	YES	MANE_Select	NM_000348.4	ENSP00000477587	-	5/5	c.763T>C	p.Ter255GlnextTer28	0	1.168e-05	-0.0608519	-0.325186	17.66	0.817061577840014	NA	5.81	NA	4.867e-06	0.153	1	8.152	0.99396	0.053691	-7.49	-	0	5.17748e-06	3.80223e-06	28	P31213
chr2_32154494_T/G	chr2	32154494	G	ENSG00000021574	ENST00000315285	stop_lost	2125	1849	617	E	Taa	Gaa	T	1	SNV	SPAST	protein_coding	YES	MANE_Select	NM_014946.4	ENSP00000320885	-	17/17	c.1849T>G	p.Ter617GluextTer46	0	0	-0.127794	-0.421343	16.68	0.812193120521636	15.2269	5.4	0.98	0	0.162	1	5.385	0.98085	0.322412	-8.15	Pathogenic/Likely_pathogenic	0	0	0	46	Q9UBP0
chr2_55867075_A/G	chr2	55867075	G	ENSG00000115380	ENST00000355426	stop_lost	1600	1480	494	Q	Tag	Cag	A	-1	SNV	EFEMP1	protein_coding	YES	MANE_Select	NM_001039348.3	ENSP00000347596	-	12/12	c.1480T>C	p.Ter494GlnextTer29	0	3.894e-06	-0.0337291	-0.286226	17.29	0.89964116357704	19.11311	5.27	0.82	0	0.369	1	8.608	0.98243	0.294411	-8.58	Pathogenic	0	0	0	29	Q12805
chr2_55867075_A/C	chr2	55867075	C	ENSG00000115380	ENST00000355426	stop_lost	1600	1480	494	E	Tag	Gag	A	-1	SNV	EFEMP1	protein_coding	YES	MANE_Select	NM_001039348.3	ENSP00000347596	-	12/12	c.1480T>G	p.Ter494GluextTer29	0	0	-0.0926404	-0.370848	17.23	0.891185568637187	19.11311	5.27	0.855	0	0.369	1	8.608	0.98399	0.294411	-11.5	-	0	0	0	29	Q12805
chr2_85840146_A/G	chr2	85840146	G	ENSG00000115525	ENST00000638572	stop_lost	1340	1255	419	R	Tga	Cga	A	-1	SNV	ST3GAL5	protein_coding	YES	MANE_Select	NM_003896.4	ENSP00000491316	-	7/7	c.1255T>C	p.Ter419ArgextTer38	0	0	-0.0486292	-0.307629	15.55	0.829099005034013	8.198843	4.76	0.46	2.433e-06	0.261	0.999	6.788	0.97279	0.262962	-7.77	Pathogenic/Likely_pathogenic	0	1.69488e-06	1.23899e-06	38	Q9UNP4
chr2_120990675_G/C	chr2	120990675	C	ENSG00000074047	ENST00000361492	stop_lost	5158	4710	1570	Y	taG	taC	G	1	SNV	GLI2	protein_coding	YES	MANE_Select	NM_001374353.1	ENSP00000354586	-	14/14	c.4710G>C	p.Ter1570TyrextTer46	0	3.894e-06	-0.418435	-0.83883	2.283	0.662792488321191	3.303772	-0.0993	0.78	0	0.281	0.996	1.914	0.89816	0.295142	-4.28	Likely_pathogenic	0	0	0	46	-
chr2_127428944_T/C	chr2	127428944	C	ENSG00000115718	ENST00000234071	stop_lost	1471	1384	462	Q	Tag	Cag	T	1	SNV	PROC	protein_coding	YES	MANE_Select	NM_000312.4	ENSP00000234071	-	9/9	c.1384T>C	p.Ter462GlnextTer17	0	3.895e-06	-0.243038	-0.490029	13.8	0.782245392058077	6.131891	3.76	0.945	2.433e-06	0.253	0.744	0.947	0.2887	0.162113	-3.26	-	0	1.09791e-05	1.23929e-06	17	P04070
chr2_189011772_T/C	chr2	189011772	C	ENSG00000168542	ENST00000304636	stop_lost	4516	4399	1467	Q	Taa	Caa	T	1	SNV	COL3A1	protein_coding	YES	MANE_Select	NM_000090.4	ENSP00000304408	-	51/51	c.4399T>C	p.Ter1467GlnextTer45	0	0	0.051975	-0.163118	17.8	0.876066133870724	18.93908	5.46	0.975	0	0.291	1	8.017	0.98516	0.078448	-8.78	Pathogenic	0	0	0	45	P02461
chr2_189011773_A/T	chr2	189011773	T	ENSG00000168542	ENST00000304636	stop_lost	4517	4400	1467	L	tAa	tTa	A	1	SNV	COL3A1	protein_coding	YES	MANE_Select	NM_000090.4	ENSP00000304408	-	51/51	c.4400A>T	p.Ter1467LeuextTer45	0	0	0.128424	-0.0533047	18.42	0.812017526423066	20.87305	5.46	0.98	0	0.291	1	9.22	0.99079	0.078448	-9.65	-	0	0	0	45	P02461
chr2_219425990_A/C	chr2	219425990	C	ENSG00000175084	ENST00000373960	stop_lost	1499	1413	471	Y	taA	taC	A	1	SNV	DES	protein_coding	YES	MANE_Select	NM_001927.4	ENSP00000363071	-	9/9	c.1413A>C	p.Ter471TyrextTer151	0	0	0.176485	0.0157323	14.78	0.862827978670956	11.98819	4.64	0.97	0	0.215	1	3.449	0.91966	0.056701	-6.8	-	0	0	0	151	P17661
chr20_5100792_T/C	chr20	5100792	C	ENSG00000089063	ENST00000202834	stop_lost	493	362	121	W	tAg	tGg	T	-1	SNV	TMEM230	protein_coding	YES	MANE_Select	NM_001009925.2	ENSP00000202834	-	4/4	c.362A>G	p.Ter121TrpextTer6	0	9.302e-05	-0.122631	-0.413928	14.94	0.854982020006924	9.180659	4.95	0.985	0	0.194	1	3.116	0.40444	0.188448	-4.91	-	0	0	0	6	Q96A57
chr21_42372764_A/G	chr21	42372764	G	ENSG00000160183	ENST00000644384	stop_lost	1522	1360	454	R	Tga	Cga	A	-1	SNV	TMPRSS3	protein_coding	YES	MANE_Select	NM_001256317.3	ENSP00000494414	-	13/13	c.1360T>C	p.Ter454ArgextTer9	0.000292024539877301	0.002966	-0.582617	-0.612716	10.3	0.804066112827079	6.631083	3.7	0.11	0.0002287	0.143	1	2.361	0.79523	0.262962	-5.29	Conflicting_classifications_of_pathogenicity	0	0.0032283	0.000167914	9	P57727
chr21_43172278_T/C	chr21	43172278	C	ENSG00000160202	ENST00000291554	stop_lost	612	520	174	Q	Taa	Caa	T	1	SNV	CRYAA	protein_coding	YES	MANE_Select	NM_000394.4	ENSP00000291554	-	3/3	c.520T>C	p.Ter174GlnextTer41	0	0	-0.0616518	-0.326335	16.49	0.822373595471879	8.187594	3.79	0.875	0	0.547	1	5.715	0.71469	0.056701	-7.93	-	0	0	0	41	P02489
chr21_43172279_A/C	chr21	43172279	C	ENSG00000160202	ENST00000291554	stop_lost	613	521	174	S	tAa	tCa	A	1	SNV	CRYAA	protein_coding	YES	MANE_Select	NM_000394.4	ENSP00000291554	-	3/3	c.521A>C	p.Ter174SerextTer41	0	0	-0.17159	-0.484253	10.38	0.692368357830519	6.161361	2.63	0.8	0	0.547	1	2.662	0.87194	0.056701	-8.41	-	0	0	0	41	P02489
chr21_44297726_G/C	chr21	44297726	C	ENSG00000160224	ENST00000291582	stop_lost	1768	1637	546	S	tGa	tCa	G	1	SNV	AIRE	protein_coding	YES	MANE_Select	NM_000383.4	ENSP00000291582	-	14/14	c.1637G>C	p.Ter546SerextTer60	0	0	-0.235082	-0.575456	8.855	0.867005899736781	5.219308	3.05	0.985	0	0.069	0	0.062	0.28598	0.101703	-2.41	Pathogenic/Likely_pathogenic	0	0	0	60	O43918
chr21_44297726_G/T	chr21	44297726	T	ENSG00000160224	ENST00000291582	stop_lost	1768	1637	546	L	tGa	tTa	G	1	SNV	AIRE	protein_coding	YES	MANE_Select	NM_000383.4	ENSP00000291582	-	14/14	c.1637G>T	p.Ter546LeuextTer60	0	0	-0.139022	-0.437472	12.8	0.803135464764176	5.219308	3.05	0.99	0	0.069	0	0.062	0.36698	0.101703	-3.58	-	0	0	0	60	O43918
chr21_44297727_A/T	chr21	44297727	T	ENSG00000160224	ENST00000291582	stop_lost	1769	1638	546	C	tgA	tgT	A	1	SNV	AIRE	protein_coding	YES	MANE_Select	NM_000383.4	ENSP00000291582	-	14/14	c.1638A>T	p.Ter546CysextTer60	0	3.894e-06	-0.0494862	-0.30886	16.46	0.732571235276188	5.174693	4.09	0.985	0	0.069	0	0.637	0.59107	0.101703	-3.96	Likely_pathogenic	0	0	3.10615e-06	60	O43918
chr21_46132552_G/C	chr21	46132552	C	ENSG00000142173	ENST00000300527	stop_lost	3149	3060	1020	Y	taG	taC	G	1	SNV	COL6A2	protein_coding	YES	MANE_Select	NM_001849.4	ENSP00000300527	-	28/28	c.3060G>C	p.Ter1020TyrextTer85	0	0	-0.149321	-0.452266	13.68	0.832995427432068	10.57235	4.4	0.95	0	0.041	1	6.899	0.95328	0.252514	-11.87	-	0	0	0	85	P12110
chr22_25207210_T/C	chr22	25207210	C	ENSG00000100053	ENST00000215855	stop_lost	706	634	212	R	Tga	Cga	T	1	SNV	CRYBB3	protein_coding	YES	MANE_Select	NM_004076.5	ENSP00000215855	-	6/6	c.634T>C	p.Ter212ArgextTer40	0	0	0.162622	-0.00418163	16.36	0.848618048205055	10.23283	4.87	0.945	0	0.038	1	1.225	0.65769	0.078448	-5.42	Likely_pathogenic	0	0	0	40	P26998
chr22_26599492_A/G	chr22	26599492	G	ENSG00000100122	ENST00000647684	stop_lost	827	757	253	R	Tga	Cga	A	-1	SNV	CRYBB1	protein_coding	YES	MANE_Select	NM_001887.4	ENSP00000497249	-	6/6	c.757T>C	p.Ter253ArgextTer26	0	0	0.0601724	-0.151343	16.69	0.849546909742342	8.260737	4.22	NA	6.083e-07	NA	1	3.866	0.88964	0.262962	-6.09	Uncertain_significance	0	8.47817e-07	6.20294e-07	26	P53674
chr22_37973495_T/G	chr22	37973495	G	ENSG00000100146	ENST00000396884	stop_lost	1702	1401	467	Y	taA	taC	T	-1	SNV	SOX10	protein_coding	YES	MANE_Select	NM_006941.4	ENSP00000380093	-	4/4	c.1401A>C	p.Ter467TyrextTer86	0	0	-0.217581	-0.550317	6.21	0.629399083513959	3.177201	-1.99	1	0	0.332	1	0.811	0.93895	0.055982	-8.07	-	0	0	0	86	P56693
chr22_37973497_A/T	chr22	37973497	T	ENSG00000100146	ENST00000396884	stop_lost	1700	1399	467	K	Taa	Aaa	A	-1	SNV	SOX10	protein_coding	YES	MANE_Select	NM_006941.4	ENSP00000380093	-	4/4	c.1399T>A	p.Ter467LysextTer86	0	0	-0.141127	-0.440495	15.84	0.781546558824961	12.07142	5.12	1	0	0.332	1	8.857	0.9966	0.055982	-10.13	-	0	0	0	86	P56693
chr22_39225723_C/G	chr22	39225723	G	ENSG00000100311	ENST00000331163	stop_lost	1745	726	242	Y	taG	taC	C	-1	SNV	PDGFB	protein_coding	YES	MANE_Select	NM_002608.4	ENSP00000330382	-	6/7	c.726G>C	p.Ter242TyrextTer89	0	0	-0.203459	-0.530031	16.11	0.781173363788166	10.13755	3.24	1	0	0.418	1	2.826	0.81113	0.256867	-7.77	Pathogenic	0	0	0	89	P01127
chr22_39225725_A/G	chr22	39225725	G	ENSG00000100311	ENST00000331163	stop_lost	1743	724	242	Q	Tag	Cag	A	-1	SNV	PDGFB	protein_coding	YES	MANE_Select	NM_002608.4	ENSP00000330382	-	6/7	c.724T>C	p.Ter242GlnextTer89	0	3.343e-05	-0.0385327	-0.293126	17.77	0.852053494159281	16.02127	5.3	0.995	0	0.418	1	5.072	0.88146	0.256867	-7.64	Likely_pathogenic	0	0	0	89	P01127
chr22_41178955_A/G	chr22	41178955	G	ENSG00000100393	ENST00000263253	stop_lost	7657	7244	2415	W	tAg	tGg	A	1	SNV	EP300	protein_coding	YES	MANE_Select	NM_001429.4	ENSP00000263253	-	31/31	c.7244A>G	p.Ter2415TrpextTer30	0	0	-0.110232	-0.396117	16	0.841665146910982	15.12503	5.65	0.98	0	0.24	1	3.523	0.93548	0.295142	-7.1	Pathogenic	0	0	0	30	Q09472
chr3_10149963_T/A	chr3	10149963	A	ENSG00000134086	ENST00000256474	stop_lost	710	640	214	R	Tga	Aga	T	1	SNV	VHL	protein_coding	YES	MANE_Select	NM_000551.4	ENSP00000256474	-	3/3	c.640T>A	p.Ter214ArgextTer14	0	0	-0.32651	-0.706785	1.154	0.755043381833385	2.073657	-2.25	0.56	0	0.19	0.002	0.232	0.15225	0.283894	-1.57	Conflicting_classifications_of_pathogenicity	0	0	0	14	P40337
chr3_10149964_G/T	chr3	10149964	T	ENSG00000134086	ENST00000256474	stop_lost	711	641	214	L	tGa	tTa	G	1	SNV	VHL	protein_coding	YES	MANE_Select	NM_000551.4	ENSP00000256474	-	3/3	c.641G>T	p.Ter214LeuextTer14	0	0	-0.408108	-0.823996	4.065	0.680967115487638	3.07925	2.72	0.9	0	0.19	0.006	0.606	0.23735	0.283894	-1.81	Likely_pathogenic	0	0	0	14	P40337
chr3_14671194_A/G	chr3	14671194	G	ENSG00000154781	ENST00000383794	stop_lost	1479	1404	468	W	tgA	tgG	A	1	SNV	CCDC174	protein_coding	YES	MANE_Select	NM_016474.5	ENSP00000373304	-	11/11	c.1404A>G	p.Ter468TrpextTer6	0	0	-0.0522417	-0.312818	17.28	0.864288666975086	11.40361	5.42	0.59	1.217e-06	0.006	1	5.104	0.97738	0.295142	-5.41	Pathogenic	0	0	0	6	Q6PII3
chr3_39396518_T/C	chr3	39396518	C	ENSG00000144659	ENST00000650617	stop_lost	1268	913	305	R	Tga	Cga	T	1	SNV	SLC25A38	protein_coding	YES	MANE_Select	NM_017875.4	ENSP00000497532	-	7/7	c.913T>C	p.Ter305ArgextTer28	7.11743772241993e-05	3.894e-06	0.19126	0.0369547	19.05	0.89314755714679	20.94647	5.85	NA	1.399e-05	NA	1	7.776	0.95574	0.295142	-9.26	Pathogenic	0	1.61016e-05	1.30111e-05	28	Q96DW6
chr3_48564406_T/G	chr3	48564406	G	ENSG00000114270	ENST00000681320	stop_lost	8898	8835	2945	C	tgA	tgC	T	-1	SNV	COL7A1	protein_coding	YES	MANE_Select	NM_000094.4	ENSP00000506558	-	119/119	c.8835A>C	p.Ter2945CysextTer51	0	0	-0.252627	-0.600658	13.51	0.634315152384134	5.177717	3.35	0.75	0	0.179	0.988	0.968	0.14277	0.159608	-5.9	-	0	0	0	51	Q02388
chr3_48564408_A/G	chr3	48564408	G	ENSG00000114270	ENST00000681320	stop_lost	8896	8833	2945	R	Tga	Cga	A	-1	SNV	COL7A1	protein_coding	YES	MANE_Select	NM_000094.4	ENSP00000506558	-	119/119	c.8833T>C	p.Ter2945ArgextTer51	0	1.251e-05	-0.212725	-0.543341	7.728	0.695213116044911	4.530012	3.08	0.76	0	0.179	0.902	1.183	0.21076	0.159608	-3.35	-	0	0	0	51	Q02388
chr3_52400444_T/C	chr3	52400444	C	ENSG00000114841	ENST00000420323	stop_lost	13057	12796	4266	Q	Tag	Cag	T	1	SNV	DNAH1	protein_coding	YES	MANE_Select	NM_015512.5	ENSP00000401514	-	78/78	c.12796T>C	p.Ter4266GlnextTer?	0	0	0.284391	0.170732	16.23	0.873221878580462	21.99351	6.05	0.93	0	0.007	1	7.599	0.99321	0.184171	-9.48	-	0	8.47561e-07	6.19573e-07	?	Q9P2D7
chr3_52402290_A/T	chr3	52402290	T	ENSG00000163930	ENST00000460680	stop_lost	2318	2188	730	R	Tga	Aga	A	-1	SNV	BAP1	protein_coding	YES	MANE_Select	NM_004656.4	ENSP00000417132	-	17/17	c.2188T>A	p.Ter730ArgextTer205	0	0	0.161989	-0.00508993	18.99	0.919089430792493	17.76713	5.42	1	0	0.272	1	7.385	0.99114	0.295142	-12.63	Uncertain_significance	0	0	0	205	Q92560
chr3_69965246_T/C	chr3	69965246	C	ENSG00000187098	ENST00000352241	stop_lost	1713	1579	527	Q	Tag	Cag	T	1	SNV	MITF	protein_coding	YES	MANE_Select	NM_001354604.2	ENSP00000295600	-	10/10	c.1579T>C	p.Ter527GlnextTer33	0	0	0.0951772	-0.101061	14.18	0.792187874916434	13.88576	6.17	1	0	0.71	1	6.125	0.97649	0.164513	-7.13	-	0	0	0	33	O75030
chr3_69965248_G/C	chr3	69965248	C	ENSG00000187098	ENST00000352241	stop_lost	1715	1581	527	Y	taG	taC	G	1	SNV	MITF	protein_coding	YES	MANE_Select	NM_001354604.2	ENSP00000295600	-	10/10	c.1581G>C	p.Ter527TyrextTer33	0	0	-0.0100816	-0.252258	16.23	0.882216308845839	20.32575	6.17	1	0	0.71	1	9.406	0.99803	0.164513	-10.97	-	0	0	0	33	O75030
chr3_93874245_T/A	chr3	93874245	A	ENSG00000184500	ENST00000394236	stop_lost	2178	2031	677	Y	taA	taT	T	-1	SNV	PROS1	protein_coding	YES	MANE_Select	NM_000313.4	ENSP00000377783	-	15/15	c.2031A>T	p.Ter677TyrextTer14	0	0	-0.207653	-0.536055	15.57	0.823148896097649	6.178215	3.39	0.85	0	0.069	0.997	3	0.92253	0.164513	-5.84	Pathogenic	0	8.47877e-07	6.19843e-07	14	P07225
chr3_120628382_A/G	chr3	120628382	G	ENSG00000113924	ENST00000283871	stop_lost	1464	1336	446	R	Tga	Cga	A	-1	SNV	HGD	protein_coding	YES	MANE_Select	NM_000187.4	ENSP00000283871	-	14/14	c.1336T>C	p.Ter446ArgextTer24	8.33750208437552e-05	5.062e-05	-0.299918	-0.482684	15.31	0.732889695822362	6.712262	4.87	0.85	4.806e-05	0.213	0.996	5.36	0.85146	0.078448	-6.29	Conflicting_classifications_of_pathogenicity	0	6.7804e-05	5.08146e-05	24	Q93099
chr3_122285189_T/C	chr3	122285189	C	ENSG00000036828	ENST00000639785	stop_lost	3622	3235	1079	Q	Taa	Caa	T	1	SNV	CASR	protein_coding	YES	MANE_Select	NM_000388.4	ENSP00000491584	-	7/7	c.3235T>C	p.Ter1079GlnextTer8	0	0	-0.128615	-0.422523	9.783	0.803691208921954	6.796586	4.96	0.965	0	0.207	0.989	2.853	0.94777	0.078448	-5.11	-	0	8.47515e-07	6.19646e-07	8	P41180
chr3_129520265_A/G	chr3	129520265	G	ENSG00000163913	ENST00000348417	stop_lost	3833	3726	1242	W	tgA	tgG	A	1	SNV	IFT122	protein_coding	YES	MANE_Select	NM_052989.3	ENSP00000324005	-	30/30	c.3726A>G	p.Ter1242TrpextTer46	0	0	0.12113	-0.0637811	15.51	0.853497594957666	12.49688	5.82	0.825	0	0.112	1	7.069	0.98672	0.295142	-6.93	Pathogenic	0	0	0	46	Q9HBG6
chr3_129533716_T/G	chr3	129533716	G	ENSG00000163914	ENST00000296271	stop_lost	1140	1045	349	E	Taa	Gaa	T	1	SNV	RHO	protein_coding	YES	MANE_Select	NM_000539.3	ENSP00000296271	-	5/5	c.1045T>G	p.Ter349GluextTer51	0	0	-0.0399292	-0.295132	17.88	0.835648128735833	18.23039	5.42	0.975	0	0.152	1	5.563	0.99326	0.053691	-9.99	Pathogenic	0	0	0	51	P08100
chr3_132676525_A/T	chr3	132676525	T	ENSG00000081307	ENST00000356232	stop_lost	1423	1214	405	L	tAg	tTg	A	1	SNV	UBA5	protein_coding	YES	MANE_Select	NM_024818.6	ENSP00000348565	-	12/12	c.1214A>T	p.Ter405LeuextTer12	0	3.894e-06	0.199258	0.0484442	17.56	0.884480845001226	17.78428	5.74	0.97	0	0.014	1	7.597	0.99463	0.322412	-10.6	Uncertain_significance	0	0	0	12	Q9GZZ9
chr3_148860001_A/G	chr3	148860001	G	ENSG00000153002	ENST00000282957	stop_lost	1266	1253	418	W	tAg	tGg	A	1	SNV	CPB1	protein_coding	YES	MANE_Select	NM_001871.3	ENSP00000282957	-	11/11	c.1253A>G	p.Ter418TrpextTer37	7.11743772241993e-05	6.685e-05	0.0169479	-0.213432	15.06	0.853139511471875	10.81578	4.6	0.94	1.095e-05	0.099	1	4.852	0.95738	0.053691	-4.61	-	0	2.55148e-06	1.05943e-05	37	P15086
chr3_150927938_A/G	chr3	150927938	G	ENSG00000163646	ENST00000327047	stop_lost	716	697	233	R	Tga	Cga	A	-1	SNV	CLRN1	protein_coding	YES	MANE_Select	NM_174878.3	ENSP00000322280	-	3/3	c.697T>C	p.Ter233ArgextTer22	0	0	0.0988537	-0.09578	19.42	0.890671543245558	22.27269	5.91	0.92	0	0.532	1	8.172	0.9569	0.06567	-8.8	Likely_pathogenic	0	0	0	22	P58418
chr3_170432754_T/C	chr3	170432754	C	ENSG00000013297	ENST00000064724	stop_lost	821	622	208	Q	Taa	Caa	T	1	SNV	CLDN11	protein_coding	YES	MANE_Select	NM_005602.6	ENSP00000064724	-	3/3	c.622T>C	p.Ter208GlnextTer39	0	0	-0.0107896	-0.253275	16.61	0.790508879834991	13.70272	5.83	0.41	0	0.05	1	7.325	0.99692	0.256867	-10.11	Pathogenic	0	0	0	39	O75508
chr3_179234364_A/G	chr3	179234364	G	ENSG00000121879	ENST00000263967	stop_lost	3530	3207	1069	W	tgA	tgG	A	1	SNV	PIK3CA	protein_coding	YES	MANE_Select	NM_006218.4	ENSP00000263967	-	21/21	c.3207A>G	p.Ter1069TrpextTer4	0	0	-0.10395	-0.387094	17.07	0.798455639665364	21.27132	5.94	0.51	0	0.131	1	8.514	0.95768	0.295142	-9.14	-	0	0	0	4	P42336
chr3_193692127_A/C	chr3	193692127	C	ENSG00000198836	ENST00000361510	stop_lost	3218	3048	1016	Y	taA	taC	A	1	SNV	OPA1	protein_coding	YES	MANE_Select	NM_130837.3	ENSP00000355324	-	30/31	c.3048A>C	p.Ter1016TyrextTer13	0	2.781e-05	-0.0430961	-0.299681	13.93	0.771954251738731	7.926094	3.98	1	2.434e-06	0.322	1	2.1	0.9545	0.322412	-4.68	Conflicting_classifications_of_pathogenicity	0	1.37624e-05	6.63144e-07	13	O60313
chr4_670107_A/G	chr4	670107	G	ENSG00000133256	ENST00000496514	stop_lost	2619	2565	855	W	tgA	tgG	A	1	SNV	PDE6B	protein_coding	YES	MANE_Select	NM_000283.4	ENSP00000420295	-	22/22	c.2565A>G	p.Ter855TrpextTer30	0	0	-0.064316	-0.330162	18.21	0.878296005522293	10.47846	4.36	0.98	6.084e-07	0.13	0.998	4.602	0.46443	0.650006	-7.42	-	0	8.4832e-07	6.2024e-07	30	P35913
chr4_1004391_T/A	chr4	1004391	A	ENSG00000127415	ENST00000514224	stop_lost	2001	1960	654	R	Tga	Aga	T	1	SNV	IDUA	protein_coding	YES	MANE_Select	NM_000203.5	ENSP00000425081	-	14/14	c.1960T>A	p.Ter654ArgextTer?	0	0	-0.262999	-0.615557	4.768	0.584949550893281	2.712287	-0.748	0.965	0	0.146	0.015	0.123	0.05895	0.262962	-2.38	-	0	0	0	?	P35475
chr4_1004391_T/C	chr4	1004391	C	ENSG00000127415	ENST00000514224	stop_lost	2001	1960	654	R	Tga	Cga	T	1	SNV	IDUA	protein_coding	YES	MANE_Select	NM_000203.5	ENSP00000425081	-	14/14	c.1960T>C	p.Ter654ArgextTer?	0	7.788e-06	-0.201931	-0.527837	4.377	0.583518059578008	2.712287	-0.748	0.965	0	0.146	0.015	0.123	0.01199	0.262962	-2.22	Pathogenic	0	0	0	?	P35475
chr4_1004391_T/G	chr4	1004391	G	ENSG00000127415	ENST00000514224	stop_lost	2001	1960	654	G	Tga	Gga	T	1	SNV	IDUA	protein_coding	YES	MANE_Select	NM_000203.5	ENSP00000425081	-	14/14	c.1960T>G	p.Ter654GlyextTer?	0	3.894e-06	-0.390051	-0.798057	0.302	0.495509813693511	2.712287	-0.748	0.96	6.083e-07	0.146	0.015	0.123	0.06447	0.262962	-2.31	Likely_pathogenic	0	8.47488e-07	6.21015e-07	?	P35475
chr4_1004393_A/T	chr4	1004393	T	ENSG00000127415	ENST00000514224	stop_lost	2003	1962	654	C	tgA	tgT	A	1	SNV	IDUA	protein_coding	YES	MANE_Select	NM_000203.5	ENSP00000425081	-	14/14	c.1962A>T	p.Ter654CysextTer?	0	0	-0.292281	-0.657618	4.696	0.55810019530318	2.875996	0.0717	0.965	0	0.146	0.022	0.37	0.12194	0.262962	-2.62	Likely_pathogenic	0	0	0	?	P35475
chr4_1807260_T/A	chr4	1807260	A	ENSG00000068078	ENST00000440486	stop_lost	2694	2419	807	R	Tga	Aga	T	1	SNV	FGFR3	protein_coding	YES	MANE_Select	NM_000142.5	ENSP00000414914	-	18/18	c.2419T>A	p.Ter807ArgextTer101	0	0	0.210858	0.0651069	15.98	0.87396824271167	9.167815	3.39	1	0	0.35	1	2.712	0.91913	0.695654	-7.19	Pathogenic	0	0	0	101	P22607
chr4_1807260_T/C	chr4	1807260	C	ENSG00000068078	ENST00000440486	stop_lost	2694	2419	807	R	Tga	Cga	T	1	SNV	FGFR3	protein_coding	YES	MANE_Select	NM_000142.5	ENSP00000414914	-	18/18	c.2419T>C	p.Ter807ArgextTer101	0	0	0.20493	0.0565918	16.1	0.874980005531993	9.167815	3.39	1	0	0.35	1	2.712	0.92663	0.695654	-6.82	Likely_pathogenic	0	0	0	101	P22607
chr4_1807260_T/G	chr4	1807260	G	ENSG00000068078	ENST00000440486	stop_lost	2694	2419	807	G	Tga	Gga	T	1	SNV	FGFR3	protein_coding	YES	MANE_Select	NM_000142.5	ENSP00000414914	-	18/18	c.2419T>G	p.Ter807GlyextTer101	0	0	0.214546	0.0704038	12.07	0.756189925384117	9.167815	3.39	1	0	0.35	1	2.712	0.94425	0.695654	-7.96	Pathogenic	0	0	0	101	P22607
chr4_1807261_G/C	chr4	1807261	C	ENSG00000068078	ENST00000440486	stop_lost	2695	2420	807	S	tGa	tCa	G	1	SNV	FGFR3	protein_coding	YES	MANE_Select	NM_000142.5	ENSP00000414914	-	18/18	c.2420G>C	p.Ter807SerextTer101	0	0	-0.264832	-0.618189	15.64	0.838281914313225	10.60272	3.73	1	0	0.35	1	2.86	0.9223	0.695654	-7.36	Pathogenic	0	0	0	101	P22607
chr4_1807261_G/T	chr4	1807261	T	ENSG00000068078	ENST00000440486	stop_lost	2695	2420	807	L	tGa	tTa	G	1	SNV	FGFR3	protein_coding	YES	MANE_Select	NM_000142.5	ENSP00000414914	-	18/18	c.2420G>T	p.Ter807LeuextTer101	0	0	-0.214923	-0.546498	17.57	0.790521907560688	10.60272	3.73	1	0	0.35	1	2.86	0.91139	0.695654	-7.97	Pathogenic	0	0	0	101	P22607
chr4_1807262_A/C	chr4	1807262	C	ENSG00000068078	ENST00000440486	stop_lost	2696	2421	807	C	tgA	tgC	A	1	SNV	FGFR3	protein_coding	YES	MANE_Select	NM_000142.5	ENSP00000414914	-	18/18	c.2421A>C	p.Ter807CysextTer101	0	0	0.213728	0.0692283	17.07	0.75509591923887	9.491547	4.6	1	0	0.35	1	3.418	0.92374	0.695654	-7.46	Pathogenic	0	0	0	101	P22607
chr4_1807262_A/G	chr4	1807262	G	ENSG00000068078	ENST00000440486	stop_lost	2696	2421	807	W	tgA	tgG	A	1	SNV	FGFR3	protein_coding	YES	MANE_Select	NM_000142.5	ENSP00000414914	-	18/18	c.2421A>G	p.Ter807TrpextTer101	0	0	0.207054	0.0596419	17.47	0.830817642856761	9.491547	4.6	1	0	0.35	1	3.418	0.9174	0.695654	-6.37	Pathogenic/Likely_pathogenic	0	0	0	101	P22607
chr4_1807262_A/T	chr4	1807262	T	ENSG00000068078	ENST00000440486	stop_lost	2696	2421	807	C	tgA	tgT	A	1	SNV	FGFR3	protein_coding	YES	MANE_Select	NM_000142.5	ENSP00000414914	-	18/18	c.2421A>T	p.Ter807CysextTer101	0	0	-0.0543831	-0.315894	17.64	0.994115089476115	9.491547	4.6	1	0	0.35	1	3.418	0.94477	0.695654	-8.33	Pathogenic	0	0	0	101	P22607
chr4_1814424_C/G	chr4	1814424	G	ENSG00000168924	ENST00000302787	stop_lost	2426	2220	740	Y	taG	taC	C	-1	SNV	LETM1	protein_coding	YES	MANE_Select	NM_012318.3	ENSP00000305653	-	14/14	c.2220G>C	p.Ter740TyrextTer26	0	0	-0.422994	-0.845378	4.994	0.764076495285072	2.75034	0.525	0.4	0	0.046	0.131	0.443	0.04174	0.295142	-8.41	Uncertain_significance	0	0	0	26	O95202
chr4_3493499_T/C	chr4	3493499	C	ENSG00000175920	ENST00000340083	stop_lost	1583	1513	505	R	Tga	Cga	T	1	SNV	DOK7	protein_coding	YES	MANE_Select	NM_173660.5	ENSP00000344432	-	7/7	c.1513T>C	p.Ter505ArgextTer182	0	1.251e-05	-0.0254718	-0.274365	18.32	0.791712556515151	5.815454	2.44	0.97	1.217e-06	0.043	1	1.363	0.49163	0.118714	-4.25	Uncertain_significance	0	2.54402e-06	1.8625e-06	182	Q18PE1
chr4_6302468_A/C	chr4	6302468	C	ENSG00000109501	ENST00000226760	stop_lost	2843	2673	891	C	tgA	tgC	A	1	SNV	WFS1	protein_coding	YES	MANE_Select	NM_006005.3	ENSP00000226760	-	8/8	c.2673A>C	p.Ter891CysextTer14	0	0	-0.167623	-0.478556	15.18	0.755719277907183	9.741607	4.68	0.975	6.083e-07	0.149	1	6.483	0.98661	0.295142	-9.34	Uncertain_significance	0	1.69487e-06	1.24023e-06	14	O76024
chr4_41745807_T/G	chr4	41745807	G	ENSG00000109132	ENST00000226382	stop_lost	1060	945	315	C	tgA	tgC	T	-1	SNV	PHOX2B	protein_coding	YES	MANE_Select	NM_003924.4	ENSP00000226382	-	3/3	c.945A>C	p.Ter315CysextTer41	0	0	-0.123459	-0.415117	17.66	0.924986133206545	9.67481	3.81	0.985	0	0.121	1	3.345	0.97434	0.166803	-11.63	Pathogenic	0	0	0	41	Q99453
chr4_41745807_T/C	chr4	41745807	C	ENSG00000109132	ENST00000226382	stop_lost	1060	945	315	W	tgA	tgG	T	-1	SNV	PHOX2B	protein_coding	YES	MANE_Select	NM_003924.4	ENSP00000226382	-	3/3	c.945A>G	p.Ter315TrpextTer41	0	0	-0.0672748	-0.334412	18.21	0.90606509784655	9.67481	3.81	0.99	0	0.121	1	3.345	0.92079	0.166803	-9.76	Pathogenic	0	0	0	41	Q99453
chr4_41745807_T/A	chr4	41745807	A	ENSG00000109132	ENST00000226382	stop_lost	1060	945	315	C	tgA	tgT	T	-1	SNV	PHOX2B	protein_coding	YES	MANE_Select	NM_003924.4	ENSP00000226382	-	3/3	c.945A>T	p.Ter315CysextTer41	0	0	-0.0701994	-0.338613	17.6	0.960851977079431	9.67481	3.81	0.985	0	0.121	1	3.345	0.97365	0.166803	-11.42	-	0	0	0	41	Q99453
chr4_41745808_C/G	chr4	41745808	G	ENSG00000109132	ENST00000226382	stop_lost	1059	944	315	S	tGa	tCa	C	-1	SNV	PHOX2B	protein_coding	YES	MANE_Select	NM_003924.4	ENSP00000226382	-	3/3	c.944G>C	p.Ter315SerextTer41	0	0	-0.239937	-0.58243	16.79	0.954736809964703	10.42533	3.81	0.985	0	0.121	1	0.815	0.96182	0.166803	-9.47	-	0	0	0	41	Q99453
chr4_41745808_C/A	chr4	41745808	A	ENSG00000109132	ENST00000226382	stop_lost	1059	944	315	L	tGa	tTa	C	-1	SNV	PHOX2B	protein_coding	YES	MANE_Select	NM_003924.4	ENSP00000226382	-	3/3	c.944G>T	p.Ter315LeuextTer41	0	0	-0.235647	-0.576267	18.14	0.971340008568323	10.42533	3.81	0.99	0	0.121	1	0.815	0.96062	0.166803	-10.09	-	0	0	0	41	Q99453
chr4_41745809_A/G	chr4	41745809	G	ENSG00000109132	ENST00000226382	stop_lost	1058	943	315	R	Tga	Cga	A	-1	SNV	PHOX2B	protein_coding	YES	MANE_Select	NM_003924.4	ENSP00000226382	-	3/3	c.943T>C	p.Ter315ArgextTer41	0	0	-0.063152	-0.32849	17.27	0.90628634550856	10.25854	3.81	0.99	0	0.121	1	2.957	0.95016	0.166803	-10.1	-	0	0	0	41	Q99453
chr4_67740480_T/C	chr4	67740480	C	ENSG00000109163	ENST00000226413	stop_lost	1040	987	329	W	tgA	tgG	T	-1	SNV	GNRHR	protein_coding	YES	MANE_Select	NM_000406.3	ENSP00000226413	-	3/3	c.987A>G	p.Ter329TrpextTer22	0	9.269e-06	-0.197225	-0.521077	12.93	0.785895963160535	5.123362	0.963	0.785	0	0.144	0.861	0.911	0.31433	0.053691	-2.53	-	0	0	6.25102e-07	22	P30968
chr4_88075692_T/C	chr4	88075692	C	ENSG00000118762	ENST00000237596	stop_lost	3004	2905	969	R	Tga	Cga	T	1	SNV	PKD2	protein_coding	YES	MANE_Select	NM_000297.4	ENSP00000237596	-	15/15	c.2905T>C	p.Ter969ArgextTer12	0	9.269e-06	-0.161192	-0.469318	15.24	0.868666712209197	7.520224	5.02	0.93	0	0.557	1	6.039	0.98737	0.295142	-7.49	Likely_pathogenic	0	0	0	12	Q13563
chr4_88075693_G/T	chr4	88075693	T	ENSG00000118762	ENST00000237596	stop_lost	3005	2906	969	L	tGa	tTa	G	1	SNV	PKD2	protein_coding	YES	MANE_Select	NM_000297.4	ENSP00000237596	-	15/15	c.2906G>T	p.Ter969LeuextTer12	0	0	-0.396793	-0.807742	6.338	0.599690072485197	3.668286	-0.998	0.95	0	0.557	0.993	1.526	0.79251	0.295142	-4.45	-	0	0	0	12	Q13563
chr4_122744023_T/C	chr4	122744023	C	ENSG00000181004	ENST00000314218	stop_lost	2322	2131	711	Q	Tag	Cag	T	1	SNV	BBS12	protein_coding	YES	MANE_Select	NM_152618.3	ENSP00000319062	-	2/2	c.2131T>C	p.Ter711GlnextTer17	0	0	0.067164	-0.1413	16.09	0.880702666377816	14.90932	5.63	0.85	6.083e-07	0.019	1	6.226	0.98843	0.162113	-7.85	-	0	0	0	17	Q6ZW61
chr4_122744025_G/C	chr4	122744025	C	ENSG00000181004	ENST00000314218	stop_lost	2324	2133	711	Y	taG	taC	G	1	SNV	BBS12	protein_coding	YES	MANE_Select	NM_152618.3	ENSP00000319062	-	2/2	c.2133G>C	p.Ter711TyrextTer17	0	0	-0.119609	-0.409587	6.979	0.838118381754881	6.784601	3.01	0.875	6.083e-07	0.019	0.982	1.866	0.97652	0.162113	-7.69	-	0	8.4926e-07	6.20639e-07	17	Q6ZW61
chr4_154570648_T/A	chr4	154570648	A	ENSG00000171564	ENST00000302068	stop_lost	1482	1474	492	K	Tag	Aag	T	1	SNV	FGB	protein_coding	YES	MANE_Select	NM_005141.5	ENSP00000306099	-	8/8	c.1474T>A	p.Ter492LysextTer12	0	0	-0.0939945	-0.372793	16.02	0.481329122766772	12.37831	5.71	0.925	0	0.515	1	3.285	0.96289	0.080785	-9.85	-	0	0	0	12	P02675
chr4_154570648_T/C	chr4	154570648	C	ENSG00000171564	ENST00000302068	stop_lost	1482	1474	492	Q	Tag	Cag	T	1	SNV	FGB	protein_coding	YES	MANE_Select	NM_005141.5	ENSP00000306099	-	8/8	c.1474T>C	p.Ter492GlnextTer12	0	0	0.0401561	-0.180095	15.7	0.785703037295272	12.37831	5.71	0.88	0	0.515	1	3.285	0.90564	0.080785	-6.51	-	0	0	0	12	P02675
chr4_154570648_T/G	chr4	154570648	G	ENSG00000171564	ENST00000302068	stop_lost	1482	1474	492	E	Tag	Gag	T	1	SNV	FGB	protein_coding	YES	MANE_Select	NM_005141.5	ENSP00000306099	-	8/8	c.1474T>G	p.Ter492GluextTer12	0	0	-0.0685599	-0.336258	15.91	0.747393349387709	12.37831	5.71	0.9	0	0.515	1	3.285	0.94453	0.080785	-9.44	-	0	0	0	12	P02675
chr4_154570649_A/G	chr4	154570649	G	ENSG00000171564	ENST00000302068	stop_lost	1483	1475	492	W	tAg	tGg	A	1	SNV	FGB	protein_coding	YES	MANE_Select	NM_005141.5	ENSP00000306099	-	8/8	c.1475A>G	p.Ter492TrpextTer12	0	0	-0.00425606	-0.24389	16.44	0.855260204716474	10.98657	4.53	0.93	0	0.515	0.995	2.401	0.92433	0.080785	-6.32	-	0	0	0	12	P02675
chr4_158708525_T/C	chr4	158708525	C	ENSG00000171503	ENST00000511912	stop_lost	2013	1852	618	Q	Taa	Caa	T	1	SNV	ETFDH	protein_coding	YES	MANE_Select	NM_004453.4	ENSP00000426638	-	13/13	c.1852T>C	p.Ter618GlnextTer13	4.2948684911268e-06	6.686e-05	0.0907851	-0.0245047	17.76	0.890314343209244	21.47464	6.05	0.97	1.156e-05	0.085	1	7.942	0.99029	0.322412	-10.74	Conflicting_classifications_of_pathogenicity	0	3.33322e-05	1.48803e-05	13	Q16134
chr5_1253728_T/C	chr5	1253728	C	ENSG00000164362	ENST00000310581	stop_lost	3478	3399	1133	W	tgA	tgG	T	-1	SNV	TERT	protein_coding	YES	MANE_Select	NM_198253.3	ENSP00000309572	-	16/16	c.3399A>G	p.Ter1133TrpextTer39	0	0	-0.0167669	-0.261861	16.71	0.850614727670874	6.59129	3.27	0.815	0	0.374	0.946	2.497	0.82684	0.252514	-6.29	Conflicting_classifications_of_pathogenicity	0	0	0	39	O14746
chr5_53098602_T/G	chr5	53098602	G	ENSG00000164172	ENST00000396954	stop_lost	1243	567	189	Y	taA	taC	T	-1	SNV	MOCS2	protein_coding	YES	MANE_Select	NM_004531.5	ENSP00000380157	-	7/7	c.567A>C	p.Ter189TyrextTer18	0	0.0002876	-0.451609	-0.545932	7.765	0.788375875634712	4.002956	2.78	0.615	8.395e-05	0.01	0.206	1.727	0.59641	0.359288	-4.66	Pathogenic/Likely_pathogenic	0	0.000383372	1.4881e-05	18	O96007
chr5_71656858_T/C	chr5	71656858	C	ENSG00000131844	ENST00000340941	stop_lost	1776	1690	564	Q	Taa	Caa	T	1	SNV	MCCC2	protein_coding	YES	MANE_Select	NM_022132.5	ENSP00000343657	-	17/17	c.1690T>C	p.Ter564GlnextTer3	2.03185955786736e-05	8.178e-05	-0.0613746	-0.140033	17.38	0.84270750032089	16.661	5.18	0.565	5.049e-05	0.01	1	7.986	0.9802	0.322412	-8.49	Pathogenic/Likely_pathogenic	0	7.74539e-05	6.15527e-05	3	Q9HCC0
chr5_78780398_T/C	chr5	78780398	C	ENSG00000113273	ENST00000264914	stop_lost	1663	1601	534	W	tAg	tGg	T	-1	SNV	ARSB	protein_coding	YES	MANE_Select	NM_000046.5	ENSP00000264914	-	8/8	c.1601A>G	p.Ter534TrpextTer50	0	7.789e-06	0.0860107	-0.114228	18.69	0.878912883805599	15.76213	5.3	1	2.433e-06	0.084	1	6.53	0.928	0.360877	-8.07	Pathogenic/Likely_pathogenic	0	8.47466e-07	6.19554e-07	50	P15848
chr5_78780399_A/G	chr5	78780399	G	ENSG00000113273	ENST00000264914	stop_lost	1662	1600	534	Q	Tag	Cag	A	-1	SNV	ARSB	protein_coding	YES	MANE_Select	NM_000046.5	ENSP00000264914	-	8/8	c.1600T>C	p.Ter534GlnextTer50	0	0	0.0065652	-0.228346	18.1	0.869080097583869	16.49011	5.3	1	0	0.084	1	7.248	0.94072	0.360877	-8.15	Uncertain_significance	0	1.09798e-05	6.19562e-07	50	P15848
chr5_132642364_A/T	chr5	132642364	T	ENSG00000113522	ENST00000378823	stop_lost	4287	3939	1313	Y	taA	taT	A	1	SNV	RAD50	protein_coding	YES	MANE_Select	NM_005732.4	ENSP00000368100	-	25/25	c.3939A>T	p.Ter1313TyrextTer66	0	3.894e-06	-0.204461	-0.531471	12.18	0.735806675780415	5.515055	3.43	0.935	0	0.069	0.882	1.731	0.93056	0.322412	-8.16	Conflicting_classifications_of_pathogenicity	0	0	6.20379e-07	66	Q92878
chr5_132861590_T/G	chr5	132861590	G	ENSG00000164404	ENST00000687138	stop_lost	3300	1364	455	S	tAa	tCa	T	-1	SNV	GDF9	protein_coding	YES	MANE_Select	NM_005260.7	ENSP00000510441	-	2/2	c.1364A>C	p.Ter455SerextTer8	0	0	-0.0166507	-0.261694	10.86	0.737639726882224	6.139097	2.46	0.635	0	0.324	0.998	2.602	0.94704	0.078448	-10.26	Likely_pathogenic	0	0	0	8	O60383
chr5_138947119_A/G	chr5	138947119	G	ENSG00000120725	ENST00000394817	stop_lost	1494	1384	462	R	Tga	Cga	A	-1	SNV	SIL1	protein_coding	YES	MANE_Select	NM_022464.5	ENSP00000378294	-	10/10	c.1384T>C	p.Ter462ArgextTer?	0	0	0.0901432	-0.108292	18.96	0.837796971495061	11.08566	4.07	0.99	1.219e-06	0.358	1	3.846	0.92926	0.295142	-6.35	-	0	8.48133e-07	6.20256e-07	?	Q9H173
chr5_178149715_A/T	chr5	178149715	T	ENSG00000145912	ENST00000274606	stop_lost	528	460	154	R	Tga	Aga	A	-1	SNV	NHP2	protein_coding	YES	MANE_Select	NM_017838.4	ENSP00000274606	-	4/4	c.460T>A	p.Ter154ArgextTer51	0	0	-0.0151838	-0.259587	15.84	0.823611893137248	13.03275	5.55	0.975	0	0.057	1	8.982	0.99082	0.529994	-10.2	Pathogenic	0	0	0	51	Q9NX24
chr6_24533710_T/C	chr6	24533710	C	ENSG00000112294	ENST00000357578	stop_lost	1634	1606	536	Q	Tag	Cag	T	1	SNV	ALDH5A1	protein_coding	YES	MANE_Select	NM_001080.3	ENSP00000350191	-	10/10	c.1606T>C	p.Ter536GlnextTer6	0.000140494284437065	0.0004011	-0.0654723	-0.129169	14.43	0.839314628796816	13.57264	5.32	0.36	8.516e-05	0.202	1	3.929	0.62463	0.294411	-7.01	Uncertain_significance	0	0.000165782	7.86925e-05	6	P51649
chr6_43614556_A/G	chr6	43614556	G	ENSG00000170734	ENST00000372236	stop_lost	2401	2141	714	W	tAg	tGg	A	1	SNV	POLH	protein_coding	YES	MANE_Select	NM_006502.3	ENSP00000361310	-	11/11	c.2141A>G	p.Ter714TrpextTer8	0	7.788e-06	-0.0376444	-0.29185	18.14	0.866723238578977	14.97092	5.6	0.59	6.083e-07	0.037	0.983	3.526	0.92849	0.115753	-7.89	-	0	1.69622e-06	1.2403e-06	8	Q9Y253
chr6_45547304_G/C	chr6	45547304	C	ENSG00000124813	ENST00000647337	stop_lost	1762	1565	522	S	tGa	tCa	G	1	SNV	RUNX2	protein_coding	YES	MANE_Select	NM_001024630.4	ENSP00000495497	-	9/9	c.1565G>C	p.Ter522SerextTer23	0	0	-0.127362	-0.420723	17.46	0.776351114916764	24.89952	5.56	0.99	0	0.7	1	7.758	0.98834	0.080785	-11.93	Pathogenic	0	0	0	23	Q13950
chr6_151405236_C/G	chr6	151405236	G	ENSG00000155906	ENST00000444024	stop_lost	1474	1349	450	S	tGa	tCa	C	-1	SNV	RMND1	protein_coding	YES	MANE_Select	NM_017909.4	ENSP00000412708	-	12/12	c.1349G>C	p.Ter450SerextTer31	0	0.0006449	-0.407983	-0.564137	8.329	0.565646512056242	5.323517	0.712	NA	7.3e-06	0.015	0.969	-0.009	0.52423	0.256867	-4.3	Pathogenic/Likely_pathogenic	0	0.000230795	1.30261e-05	31	Q9NWS8
chr7_16091697_A/T	chr7	16091697	T	ENSG00000214960	ENST00000407010	stop_lost	1570	1354	452	R	Tga	Aga	A	-1	SNV	CRPPA	protein_coding	YES	MANE_Select	NM_001101426.4	ENSP00000385478	-	10/10	c.1354T>A	p.Ter452ArgextTer28	0	0.0001376	-0.143947	-0.170246	17.84	0.871480691201267	14.17645	5.51	0.98	2.252e-05	0.132	1	3.762	0.91538	0.074898	-9.65	Conflicting_classifications_of_pathogenicity	0	0.000122474	4.58171e-06	28	A4D126
chr7_16091697_A/G	chr7	16091697	G	ENSG00000214960	ENST00000407010	stop_lost	1570	1354	452	R	Tga	Cga	A	-1	SNV	CRPPA	protein_coding	YES	MANE_Select	NM_001101426.4	ENSP00000385478	-	10/10	c.1354T>C	p.Ter452ArgextTer28	0	0	0.0323771	-0.191269	17.87	0.872566129229535	14.17645	5.51	0.98	0	0.132	1	3.762	0.91482	0.074898	-7.75	Conflicting_classifications_of_pathogenicity	0	8.8663e-07	6.5453e-07	28	A4D126
chr7_44145137_C/A	chr7	44145137	A	ENSG00000106633	ENST00000403799	stop_lost	1883	1397	466	L	tGa	tTa	C	-1	SNV	GCK	protein_coding	YES	MANE_Select	NM_000162.5	ENSP00000384247	-	10/10	c.1397G>T	p.Ter466LeuextTer144	0	0	-0.212871	-0.543551	13.52	0.803332566751805	4.924391	2.99	0.99	0	0.326	0.979	0.972	0.90257	0.149864	-8.89	-	0	0	0	144	P35557
chr7_44145138_A/T	chr7	44145138	T	ENSG00000106633	ENST00000403799	stop_lost	1882	1396	466	R	Tga	Aga	A	-1	SNV	GCK	protein_coding	YES	MANE_Select	NM_000162.5	ENSP00000384247	-	10/10	c.1396T>A	p.Ter466ArgextTer144	0	0	0.224069	0.0840835	17.73	0.900983443127783	11.20242	5.75	1	0	0.326	0.978	2.4	0.9149	0.149864	-9.96	-	0	0	0	144	P35557
chr7_44145138_A/G	chr7	44145138	G	ENSG00000106633	ENST00000403799	stop_lost	1882	1396	466	R	Tga	Cga	A	-1	SNV	GCK	protein_coding	YES	MANE_Select	NM_000162.5	ENSP00000384247	-	10/10	c.1396T>C	p.Ter466ArgextTer144	0	0	0.176485	0.0157323	17.8	0.843535778895575	11.20242	5.75	1	0	0.326	0.978	2.4	0.80781	0.149864	-8	Likely_pathogenic	0	0	0	144	P35557
chr7_44145138_A/C	chr7	44145138	C	ENSG00000106633	ENST00000403799	stop_lost	1882	1396	466	G	Tga	Gga	A	-1	SNV	GCK	protein_coding	YES	MANE_Select	NM_000162.5	ENSP00000384247	-	10/10	c.1396T>G	p.Ter466GlyextTer144	0	0	0.0568677	-0.15609	13.9	0.845033142556323	11.20242	5.75	1	0	0.326	0.978	2.4	0.94443	0.149864	-10.06	-	0	0	0	144	P35557
chr7_66092912_G/C	chr7	66092912	C	ENSG00000126522	ENST00000304874	stop_lost	1476	1395	465	Y	taG	taC	G	1	SNV	ASL	protein_coding	YES	MANE_Select	NM_000048.4	ENSP00000307188	-	17/17	c.1395G>C	p.Ter465TyrextTer50	0	0	-0.327661	-0.708439	9.647	0.823337102705802	4.511576	2.67	0.82	0	0.43	0.143	1.717	0.44749	0.295142	-5.35	-	0	0	0	50	P04424
chr7_87402098_A/T	chr7	87402098	T	ENSG00000005471	ENST00000649586	stop_lost	3891	3838	1280	R	Tga	Aga	A	-1	SNV	ABCB4	protein_coding	YES	MANE_Select	NM_000443.4	ENSP00000496956	-	28/28	c.3838T>A	p.Ter1280ArgextTer19	0	0	0.103202	-0.0895341	12.39	0.83454099740522	7.486531	2.77	0.96	0	0.469	0.392	1.022	0.40645	0.162113	-6.1	Likely_pathogenic	0	0	0	19	P21439
chr7_87402098_A/G	chr7	87402098	G	ENSG00000005471	ENST00000649586	stop_lost	3891	3838	1280	R	Tga	Cga	A	-1	SNV	ABCB4	protein_coding	YES	MANE_Select	NM_000443.4	ENSP00000496956	-	28/28	c.3838T>C	p.Ter1280ArgextTer19	0	3.342e-05	0.0686796	-0.139123	11.78	0.816750917466591	7.486531	2.77	0.96	6.691e-06	0.469	0.392	1.022	0.4463	0.162113	-4.58	Conflicting_classifications_of_pathogenicity	0	7.62692e-06	6.19566e-06	19	P21439
chr7_92487459_A/G	chr7	92487459	G	ENSG00000127980	ENST00000248633	stop_lost	3935	3850	1284	Q	Taa	Caa	A	-1	SNV	PEX1	protein_coding	YES	MANE_Select	NM_000466.3	ENSP00000248633	-	24/24	c.3850T>C	p.Ter1284GlnextTer28	0	0	0.104301	-0.0879547	17.56	0.917255993741316	17.77074	5.27	0.97	0	0.518	1	6.96	0.9796	0.322412	-9.22	-	0	0	0	28	O43933
chr7_94430391_T/C	chr7	94430391	C	ENSG00000164692	ENST00000297268	stop_lost	4236	4099	1367	Q	Taa	Caa	T	1	SNV	COL1A2	protein_coding	YES	MANE_Select	NM_000089.4	ENSP00000297268	-	52/52	c.4099T>C	p.Ter1367GlnextTer5	0	0	0.00466744	-0.231072	17.2	0.815979560455393	19.81596	5.35	0.925	0	0.331	1	8.017	0.97584	0.322412	-7.21	-	0	0	0	5	P08123
chr7_100681721_A/C	chr7	100681721	C	ENSG00000146830	ENST00000678049	stop_lost	4345	3106	1036	G	Tga	Gga	A	-1	SNV	GIGYF1	protein_coding	YES	MANE_Select	NM_001375765.1	ENSP00000503354	-	27/27	c.3106T>G	p.Ter1036GlyextTer72	0	0	-0.101364	-0.383379	13.97	0.916083789834492	14.94092	5.02	0.95	0	0.094	1	4.018	0.96823	0.283894	-9.67	Pathogenic	0	0	0	72	O75420
chr7_107715446_A/G	chr7	107715446	G	ENSG00000091137	ENST00000644269	stop_lost	2374	2343	781	W	tgA	tgG	A	1	SNV	SLC26A4	protein_coding	YES	MANE_Select	NM_000441.2	ENSP00000494017	-	21/21	c.2343A>G	p.Ter781TrpextTer42	0	0	0.0283268	-0.197087	15.47	0.853179263512511	10.72436	5.76	NA	6.083e-07	NA	1	3.519	0.93716	0.078448	-4.73	-	0	8.48243e-07	6.19986e-07	42	O43511
chr7_117667107_A/G	chr7	117667107	G	ENSG00000001626	ENST00000003084	stop_lost	4512	4442	1481	W	tAg	tGg	A	1	SNV	CFTR	protein_coding	YES	MANE_Select	NM_000492.4	ENSP00000003084	-	27/27	c.4442A>G	p.Ter1481TrpextTer4	0	0	-0.00562404	-0.245855	16.36	0.85863890645139	9.813408	5.47	0.805	0	0.111	1	3.984	0.88137	0.074636	-5.34	-	0	0	0	4	P13569
chr7_138706626_A/G	chr7	138706626	G	ENSG00000105929	ENST00000310018	stop_lost	2804	2521	841	Q	Tag	Cag	A	-1	SNV	ATP6V0A4	protein_coding	YES	MANE_Select	NM_020632.3	ENSP00000308122	-	22/22	c.2521T>C	p.Ter841GlnextTer53	0	3.895e-06	0.00261165	-0.234025	18.08	0.890269014785697	15.52518	3.68	0.95	0	0.123	1	5.875	0.82833	0.074636	-8.35	Conflicting_classifications_of_pathogenicity	0	8.4754e-07	6.19652e-07	53	Q9HBG4
