dr-yoon/TAILVAR/dataset/test_data/stoploss_Clinvar_filtered.txt
Upload_variation	Chromosome	Position	Allele	Gene	Feature	Consequence	cDNA_position	CDS_position	Protein_position	Amino_acids	Codons_REF	Codons_ALT	REF_ALLELE	STRAND	VARIANT_CLASS	SYMBOL	BIOTYPE	CANONICAL	MANE	MANE_SELECT	ENSP	SOURCE	EXON	HGVSc	HGVSp	ALFA_Total_AF	AllofUs_POPMAX_AF	BayesDel_addAF	BayesDel_noAF	CADD	DANN	Eigen_PC	GERP	MutationTaster	RegeneronME_ALL_AF	VEST4	phastCons100	phyloP100	FATHMM_MKL	fitCons_int	GPN_MSA	ClinVar_CLNSIG	gnomAD4.1_nhomalt_joint	gnomAD4.1_AF_grpmax_joint	gnomAD4.1_AF_joint	extended_length	Uniprot
chr1_1787332_T/G	chr1	1787332	G	ENSG00000078369	ENST00000378609	stop_lost	1385	1022	341	S	tAa	tCa	T	-1	SNV	GNB1	protein_coding	YES	MANE_Select	NM_002074.5	ENSP00000367872	-	11/12	c.1022A>C	p.Ter341SerextTer3	0	0	-0.276797	-0.635376	9.48	0.699562722578633	5.224607	0.895	0.42	0	0.189	1	1.34	0.90474	0.283894	-9.52	Uncertain_significance	0	0	0	3	P62873
chr1_1787333_A/T	chr1	1787333	T	ENSG00000078369	ENST00000378609	stop_lost	1384	1021	341	K	Taa	Aaa	A	-1	SNV	GNB1	protein_coding	YES	MANE_Select	NM_002074.5	ENSP00000367872	-	11/12	c.1021T>A	p.Ter341LysextTer3	0	0	-0.115843	-0.404177	17.62	0.755768879127121	19.86268	5.74	0.49	0	0.189	1	9.117	0.99243	0.283894	-12.48	Uncertain_significance	0	0	0	3	P62873
chr1_2306764_A/G	chr1	2306764	G	ENSG00000157933	ENST00000378536	stop_lost	2634	2186	729	W	tAg	tGg	A	1	SNV	SKI	protein_coding	YES	MANE_Select	NM_003036.4	ENSP00000367797	-	7/7	c.2186A>G	p.Ter729TrpextTer50	0	3.895e-06	-0.378751	-0.781826	11.86	0.776470350521939	6.513138	4.2	0.825	6.083e-07	0.081	0.011	0.447	0.25008	0.159608	-2.65	Uncertain_significance	0	0	0	50	P12755
chr1_2405766_T/C	chr1	2405766	C	ENSG00000157911	ENST00000447513	stop_lost	1043	981	327	W	tgA	tgG	T	-1	SNV	PEX10	protein_coding	YES	MANE_Select	NM_002617.4	ENSP00000407922	-	6/6	c.981A>G	p.Ter327TrpextTer21	0	0	-0.167202	-0.47795	14.45	0.787615703214748	4.681423	3.09	0.645	0	0.15	0.187	0.378	0.19488	0.283894	-3.78	Uncertain_significance	0	0	0	21	O60683
chr1_2405768_A/G	chr1	2405768	G	ENSG00000157911	ENST00000447513	stop_lost	1041	979	327	R	Tga	Cga	A	-1	SNV	PEX10	protein_coding	YES	MANE_Select	NM_002617.4	ENSP00000407922	-	6/6	c.979T>C	p.Ter327ArgextTer21	9.36329588014981e-05	0	-0.0810979	-0.354268	18.79	0.868652878316416	12.48206	4.81	0.83	1.338e-05	0.15	1	6.718	0.97612	0.283894	-9.12	Uncertain_significance	0	1.87319e-05	1.49856e-05	21	O60683
chr1_7766489_T/G	chr1	7766489	G	ENSG00000171735	ENST00000303635	stop_lost	5097	5020	1674	G	Tga	Gga	T	1	SNV	CAMTA1	protein_coding	YES	MANE_Select	NM_015215.4	ENSP00000306522	-	23/23	c.5020T>G	p.Ter1674GlyextTer133	0	0	-0.0347253	-0.287657	12.89	0.826349007768446	14.04071	4.26	0.955	0	0.268	1	7.48	0.97615	0.638212	-9.02	Uncertain_significance	0	0	0	133	Q9Y6Y1
chr1_7766490_G/C	chr1	7766490	C	ENSG00000171735	ENST00000303635	stop_lost	5098	5021	1674	S	tGa	tCa	G	1	SNV	CAMTA1	protein_coding	YES	MANE_Select	NM_015215.4	ENSP00000306522	-	23/23	c.5021G>C	p.Ter1674SerextTer133	0	0	0.124878	-0.0583975	16.55	0.857251126833317	27.38459	5.42	0.965	0	0.268	1	9.362	0.99075	0.638212	-9.37	Uncertain_significance	0	0	0	133	Q9Y6Y1
chr1_9982699_T/C	chr1	9982699	C	ENSG00000173614	ENST00000377205	stop_lost	935	838	280	Q	Tag	Cag	T	1	SNV	NMNAT1	protein_coding	YES	MANE_Select	NM_022787.4	ENSP00000366410	-	5/5	c.838T>C	p.Ter280GlnextTer15	0	0	-0.356613	-0.750026	2.553	0.836676879161386	2.863849	-0.802	0.73	2.433e-06	0.045	0	-0.098	0.05592	0.156188	-0.8	Pathogenic	0	1.70692e-06	1.25185e-06	15	Q9HAN9
chr1_11674777_A/G	chr1	11674777	G	ENSG00000116670	ENST00000376692	stop_lost	756	634	212	R	Tga	Cga	A	-1	SNV	MAD2L2	protein_coding	YES	MANE_Select	NM_006341.4	ENSP00000365882	-	9/9	c.634T>C	p.Ter212ArgextTer20	0	0	0.0654166	-0.14381	19.15	0.859784299465869	13.33162	5.18	0.835	6.083e-07	0.654	1	4.749	0.92742	0.295142	-7.56	Uncertain_significance	0	1.69497e-06	1.2394e-06	20	Q9UI95
chr1_11790681_C/G	chr1	11790681	G	ENSG00000177000	ENST00000376590	stop_lost	2060	1970	657	S	tGa	tCa	C	-1	SNV	MTHFR	protein_coding	YES	MANE_Select	NM_005957.5	ENSP00000365775	-	12/12	c.1970G>C	p.Ter657SerextTer50	0	1.854e-05	-0.493879	-0.883554	4.454	0.765197477194243	3.743104	3.04	1	1.156e-05	0.279	0	0.559	0.0648	0.283894	-1.8	Conflicting_classifications_of_pathogenicity	0	2.0339e-05	1.48692e-05	50	P42898
chr1_11790682_A/G	chr1	11790682	G	ENSG00000177000	ENST00000376590	stop_lost	2059	1969	657	R	Tga	Cga	A	-1	SNV	MTHFR	protein_coding	YES	MANE_Select	NM_005957.5	ENSP00000365775	-	12/12	c.1969T>C	p.Ter657ArgextTer50	0	1.251e-05	-0.498835	-0.77279	7.674	0.838122280854936	3.390036	0.973	0.99	1.825e-06	0.279	0	-0.038	0.04385	0.283894	-1.31	Likely_pathogenic	0	1.33504e-05	1.23916e-06	50	P42898
chr1_11846011_A/G	chr1	11846011	G	ENSG00000175206	ENST00000376480	stop_lost	553	454	152	R	Tga	Cga	A	-1	SNV	NPPA	protein_coding	YES	MANE_Select	NM_006172.4	ENSP00000365663	-	3/3	c.454T>C	p.Ter152ArgextTer2	0.164071659710172	0.4159	-0.579502	-0.461371	12.66	0.790296025254548	4.355228	0.954	0.1	0.1554	0.206	0.998	0.328	0.00117	0.093477	1.75	Benign	22231	0.408234	0.152622	2	P01160
chr1_12011564_A/C	chr1	12011564	C	ENSG00000116688	ENST00000235329	stop_lost	2463	2273	758	S	tAg	tCg	A	1	SNV	MFN2	protein_coding	YES	MANE_Select	NM_014874.4	ENSP00000235329	-	19/19	c.2273A>C	p.Ter758SerextTer39	0	0	0.0231515	-0.204521	17.42	0.854093195015369	16.84015	5.92	0.925	0	0.152	1	4.748	0.98143	0.295142	-11.75	Uncertain_significance	0	0	0	39	O95140
chr1_15446587_T/C	chr1	15446587	C	ENSG00000162438	ENST00000375949	stop_lost	827	805	269	R	Tga	Cga	T	1	SNV	CTRC	protein_coding	YES	MANE_Select	NM_007272.3	ENSP00000365116	-	8/8	c.805T>C	p.Ter269ArgextTer15	0	0	0.00053289	-0.237011	14.03	0.802414129552345	8.402644	4.62	0.545	0	0.049	0.987	2.375	0.83097	0.074636	-4.38	Uncertain_significance	0	0	0	15	Q99895
chr1_16986221_C/A	chr1	16986221	A	ENSG00000159363	ENST00000326735	stop_lost	3733	3543	1181	Y	taG	taT	C	-1	SNV	ATP13A2	protein_coding	YES	MANE_Select	NM_022089.4	ENSP00000327214	-	29/29	c.3543G>T	p.Ter1181TyrextTer15	3.12343828085957e-05	3.894e-06	0.358439	0.277096	11.93	0.737224196070618	4.068918	2.5	0.375	6.083e-07	0.154	0.012	2.334	0.28545	0.67177	-8.09	Uncertain_significance	0	3.39118e-06	2.48073e-06	15	Q9NQ11
chr1_17018883_A/C	chr1	17018883	C	ENSG00000117118	ENST00000375499	stop_lost	854	841	281	E	Taa	Gaa	A	-1	SNV	SDHB	protein_coding	YES	MANE_Select	NM_003000.3	ENSP00000364649	-	8/8	c.841T>G	p.Ter281GluextTer5	0	0	-0.238248	-0.483149	16.22	0.758357678727378	9.619186	5.39	0.58	1.217e-06	0.21	0.983	6.796	0.99692	0.359288	-6.69	Uncertain_significance	0	1.09922e-05	6.22158e-07	5	P21912
chr1_20090691_A/G	chr1	20090691	G	ENSG00000127472	ENST00000375108	stop_lost	698	416	139	W	tAg	tGg	A	1	SNV	PLA2G5	protein_coding	YES	MANE_Select	NM_000929.3	ENSP00000364249	-	5/5	c.416A>G	p.Ter139TrpextTer22	0	0	-0.415012	-0.664784	14.17	0.707870176329574	5.222305	2.71	0.375	0	0.161	0.876	3.645	0.32725	0.080785	-5.46	Uncertain_significance	0	2.22767e-05	6.19558e-07	22	P39877
chr1_21577648_A/G	chr1	21577648	G	ENSG00000162551	ENST00000374840	stop_lost	1774	1575	525	W	tgA	tgG	A	1	SNV	ALPL	protein_coding	YES	MANE_Select	NM_000478.6	ENSP00000363973	-	12/12	c.1575A>G	p.Ter525TrpextTer11	0	0	-0.0567793	-0.319336	18.95	0.860782283646295	9.674653	4.91	0.7	0	0.361	1	6.221	0.77584	0.252514	-7.23	Uncertain_significance	0	8.48885e-07	6.26837e-07	11	P05186
chr1_22639407_A/G	chr1	22639407	G	ENSG00000173372	ENST00000374642	stop_lost	820	738	246	W	tgA	tgG	A	1	SNV	C1QA	protein_coding	YES	MANE_Select	NM_015991.4	ENSP00000363773	-	3/3	c.738A>G	p.Ter246TrpextTer19	0	0	-0.0888094	-0.365345	17.45	0.849456028105641	11.13512	5.55	0.735	0	0.195	1	6.701	0.96523	0.158681	-8.65	Uncertain_significance	0	0	0	19	P02745
chr1_23802464_C/G	chr1	23802464	G	ENSG00000117305	ENST00000374490	stop_lost	991	977	326	S	tGa	tCa	C	-1	SNV	HMGCL	protein_coding	YES	MANE_Select	NM_000191.3	ENSP00000363614	-	9/9	c.977G>C	p.Ter326SerextTer14	0	0	-0.122793	-0.41416	10.78	0.83586022555712	12.10427	4.13	0.765	6.084e-07	0.039	1	3.104	0.97095	0.322412	-8.86	Uncertain_significance	0	8.54488e-07	6.23666e-07	14	P35914
chr1_23802465_A/G	chr1	23802465	G	ENSG00000117305	ENST00000374490	stop_lost	990	976	326	R	Tga	Cga	A	-1	SNV	HMGCL	protein_coding	YES	MANE_Select	NM_000191.3	ENSP00000363614	-	9/9	c.976T>C	p.Ter326ArgextTer14	0	0	0.0391578	-0.181529	18.19	0.865227212687614	10.90902	2.7	0.67	0	0.039	1	8.916	0.98972	0.322412	-8.69	Uncertain_significance	0	0	0	14	P35914
chr1_25815717_A/G	chr1	25815717	G	ENSG00000162430	ENST00000361547	stop_lost	1810	1772	591	W	tAg	tGg	A	1	SNV	SELENON	protein_coding	YES	MANE_Select	NM_020451.3	ENSP00000355141	-	13/13	c.1772A>G	p.Ter591TrpextTer?	0	0	0.00898787	-0.224866	18.4	0.846058375841616	11.20416	4.76	0.71	2.433e-06	NA	1	7.376	0.90097	0.295142	-7.19	Uncertain_significance	0	8.47466e-07	6.19643e-07	?	Q9NZV5
chr1_26780754_T/C	chr1	26780754	C	ENSG00000117713	ENST00000324856	stop_lost	7245	6856	2286	R	Tga	Cga	T	1	SNV	ARID1A	protein_coding	YES	MANE_Select	NM_006015.6	ENSP00000320485	-	20/20	c.6856T>C	p.Ter2286ArgextTer18	0	0	0.162308	-0.00463199	17.09	0.853726375380621	16.21789	4.5	0.88	0	0.635	1	7.755	0.9604	0.295142	-10.79	Uncertain_significance	0	0	0	18	O14497
chr1_26797843_G/C	chr1	26797843	C	ENSG00000060642	ENST00000674202	stop_lost	1857	1481	494	S	tGa	tCa	G	1	SNV	PIGV	protein_coding	YES	MANE_Select	NM_017837.4	ENSP00000501479	-	4/4	c.1481G>C	p.Ter494SerextTer74	0.000112892300745089	2.337e-05	-0.207838	-0.472676	14.74	0.827262490978162	10.1051	4.47	0.98	1.642e-05	0.019	1	2.108	0.90006	0.295142	-7.09	Uncertain_significance	0	1.94914e-05	1.48701e-05	74	Q9NUD9
chr1_34785573_T/C	chr1	34785573	C	ENSG00000188910	ENST00000373366	stop_lost	1401	811	271	R	Tga	Cga	T	1	SNV	GJB3	protein_coding	YES	MANE_Select	NM_024009.3	ENSP00000362464	-	2/2	c.811T>C	p.Ter271ArgextTer30	0	0	0.146555	-0.0272608	17.14	0.855948169170222	12.98459	5.34	0.795	0	0.184	1	2.193	0.92604	0.073086	-6.94	Uncertain_significance	0	1.69558e-06	1.23954e-06	30	O75712
chr1_40074062_C/A	chr1	40074062	A	ENSG00000131238	ENST00000642050	stop_lost	934	920	307	L	tGa	tTa	C	-1	SNV	PPT1	protein_coding	YES	MANE_Select	NM_000310.4	ENSP00000493153	-	9/9	c.920G>T	p.Ter307LeuextTer7	0	0.0002151	-0.179089	-0.495026	15.83	0.690912841427958	8.017355	3.93	0.615	1.217e-06	0.267	1	3.465	0.95726	0.256867	-7.73	Uncertain_significance	0	0	0	7	P50897
chr1_40838521_T/G	chr1	40838521	G	ENSG00000117013	ENST00000347132	stop_lost	2393	2086	696	G	Tga	Gga	T	1	SNV	KCNQ4	protein_coding	YES	MANE_Select	NM_004700.4	ENSP00000262916	-	14/14	c.2086T>G	p.Ter696GlyextTer22	7.11743772241993e-05	0	-0.0654752	-0.331827	13.17	0.691281325220325	11.98357	4.91	0.635	6.084e-07	0.532	1	5.88	0.98756	0.158359	-11.3	Uncertain_significance	0	2.54276e-06	1.85891e-06	22	P56696
chr1_42459925_G/T	chr1	42459925	T	ENSG00000127125	ENST00000372561	stop_lost	958	935	312	L	tGa	tTa	G	1	SNV	PPCS	protein_coding	YES	MANE_Select	NM_024664.4	ENSP00000361642	-	3/3	c.935G>T	p.Ter312LeuextTer6	0	9.269e-06	-0.0453524	-0.302922	18.25	0.828167349825105	14.69284	4.4	0.675	3.041e-06	0.205	1	2.687	0.91527	0.322412	-7.16	Uncertain_significance	0	0	0	6	Q9HAB8
chr1_42746699_A/G	chr1	42746699	G	ENSG00000117385	ENST00000296388	stop_lost	2266	2209	737	R	Tga	Cga	A	-1	SNV	P3H1	protein_coding	YES	MANE_Select	NM_022356.4	ENSP00000296388	-	15/15	c.2209T>C	p.Ter737ArgextTer9	0	0	-0.038768	-0.293464	17.64	0.882642949414963	3.536666	4.99	0.61	0	0.038	1	2.892	0.98598	0.423528	-6.64	Uncertain_significance	0	0	0	9	Q32P28
chr1_43352772_A/G	chr1	43352772	G	ENSG00000117400	ENST00000372470	stop_lost	1939	1908	636	W	tgA	tgG	A	1	SNV	MPL	protein_coding	YES	MANE_Select	NM_005373.3	ENSP00000361548	-	12/12	c.1908A>G	p.Ter636TrpextTer13	0	0.000279	-0.503701	-0.552656	10.47	0.803752268640042	4.010345	1.47	0.03	1.034e-05	0.208	0.252	0.161	0.03407	0.078448	-3.52	Conflicting_classifications_of_pathogenicity	1	0.00334269	9.54144e-05	13	P40238
chr1_45329307_C/G	chr1	45329307	G	ENSG00000132781	ENST00000456914	stop_lost	1643	1565	522	S	tGa	tCa	C	-1	SNV	MUTYH	protein_coding	YES	MANE_Select	NM_001048174.2	ENSP00000407590	-	16/16	c.1565G>C	p.Ter522SerextTer3	0	0	-0.306271	-0.677713	9.397	0.872536204442488	4.380971	2.51	0.725	1.217e-06	0.518	0.996	1.025	0.47495	0.139865	-6.18	Uncertain_significance	0	2.66973e-05	1.23909e-06	3	Q9UIF7
chr1_45509213_T/C	chr1	45509213	C	ENSG00000132763	ENST00000401061	stop_lost	880	847	283	R	Tga	Cga	T	1	SNV	MMACHC	protein_coding	YES	MANE_Select	NM_015506.3	ENSP00000383840	-	4/4	c.847T>C	p.Ter283ArgextTer14	0	0	0.0575214	-0.155151	17.4	0.86536348423509	9.367047	4.42	0.72	0	0.23	0.968	3.581	0.89437	0.160901	-6.46	Uncertain_significance	0	0	0	14	Q9Y4U1
chr1_45509214_G/C	chr1	45509214	C	ENSG00000132763	ENST00000401061	stop_lost	881	848	283	S	tGa	tCa	G	1	SNV	MMACHC	protein_coding	YES	MANE_Select	NM_015506.3	ENSP00000383840	-	4/4	c.848G>C	p.Ter283SerextTer14	0.000109332343820403	0.007634	-0.478113	-0.594551	12.11	0.74051517368529	7.102379	3.51	0.715	0.0002409	0.23	0.962	1.351	0.82688	0.160901	-5.41	Conflicting_classifications_of_pathogenicity	1	0.00329924	0.000232352	14	Q9Y4U1
chr1_45509214_G/T	chr1	45509214	T	ENSG00000132763	ENST00000401061	stop_lost	881	848	283	L	tGa	tTa	G	1	SNV	MMACHC	protein_coding	YES	MANE_Select	NM_015506.3	ENSP00000383840	-	4/4	c.848G>T	p.Ter283LeuextTer14	0.000168968167722442	0.00549	-0.519086	-0.513281	14.17	0.756909853416667	7.102379	3.51	0.315	0.001648	0.23	0.962	1.351	0.82175	0.160901	-5.66	Conflicting_classifications_of_pathogenicity	4	0.00611789	0.000230493	14	Q9Y4U1
chr1_45509215_A/G	chr1	45509215	G	ENSG00000132763	ENST00000401061	stop_lost	882	849	283	W	tgA	tgG	A	1	SNV	MMACHC	protein_coding	YES	MANE_Select	NM_015506.3	ENSP00000383840	-	4/4	c.849A>G	p.Ter283TrpextTer14	3.28860826098395e-05	3.894e-06	-0.305528	-0.4945	14.95	0.820424700064204	6.038048	3.3	0.55	1.217e-06	0.23	0.862	1.53	0.69924	0.160901	-3.68	Uncertain_significance	0	3.29424e-05	4.33804e-06	14	Q9Y4U1
chr1_47417273_T/C	chr1	47417273	C	ENSG00000186790	ENST00000335071	stop_lost	989	958	320	R	Tga	Cga	T	1	SNV	FOXE3	protein_coding	YES	MANE_Select	NM_012186.3	ENSP00000334472	-	1/1	c.958T>C	p.Ter320ArgextTer72	0	0	0.00375894	-0.232377	17.68	0.814978598523661	5.619457	2.61	0.47	1.217e-06	0.047	0.996	0.895	0.77933	0.166803	-8.14	Pathogenic	0	9.47262e-07	7.36831e-07	72	Q13461
chr1_47417274_G/C	chr1	47417274	C	ENSG00000186790	ENST00000335071	stop_lost	990	959	320	S	tGa	tCa	G	1	SNV	FOXE3	protein_coding	YES	MANE_Select	NM_012186.3	ENSP00000334472	-	1/1	c.959G>C	p.Ter320SerextTer72	0	0	-0.214334	-0.545652	16.66	0.837849209658309	7.677938	3.79	0.62	0	0.047	1	2.162	0.94642	0.166803	-8.66	Pathogenic	0	0	0	72	Q13461
chr1_47417274_G/T	chr1	47417274	T	ENSG00000186790	ENST00000335071	stop_lost	990	959	320	L	tGa	tTa	G	1	SNV	FOXE3	protein_coding	YES	MANE_Select	NM_012186.3	ENSP00000334472	-	1/1	c.959G>T	p.Ter320LeuextTer72	0.000767695378473822	0	-0.147153	-0.449151	17.98	0.913534936276048	7.677938	3.79	0.62	0	0.047	1	2.162	0.90876	0.166803	-9.73	Pathogenic	0	0	0	72	Q13461
chr1_62455415_T/G	chr1	62455415	G	ENSG00000116641	ENST00000635253	stop_lost	6544	6422	2141	S	tAa	tCa	T	-1	SNV	DOCK7	protein_coding	YES	MANE_Select	NM_001367561.1	ENSP00000489124	-	50/50	c.6422A>C	p.Ter2141SerextTer61	0	0	-0.226742	-0.381948	12.65	0.709444617103385	10.56027	4.22	0.94	0	0.619	1	4.11	0.94626	0.322412	-8.37	Uncertain_significance	0	1.33273e-05	1.23945e-06	61	Q96N67
chr1_64834564_A/G	chr1	64834564	G	ENSG00000162434	ENST00000342505	stop_lost	3757	3463	1155	Q	Taa	Caa	A	-1	SNV	JAK1	protein_coding	YES	MANE_Select	NM_002227.4	ENSP00000343204	-	25/25	c.3463T>C	p.Ter1155GlnextTer3	0	0.004084	-0.389793	-0.332421	13.77	0.872597982294759	7.703528	3.09	0.15	0.0001705	0.122	0.997	0.979	0.91848	0.322412	-3.71	Likely_benign	4	0.00467518	0.000286415	3	P23458
chr1_67259126_T/C	chr1	67259126	C	ENSG00000162594	ENST00000347310	stop_lost	2005	1888	630	Q	Tag	Cag	T	1	SNV	IL23R	protein_coding	YES	MANE_Select	NM_144701.3	ENSP00000321345	-	11/11	c.1888T>C	p.Ter630GlnextTer25	2.82246683601468e-05	1.947e-05	-0.250508	-0.416086	11.84	0.750293378185867	6.358112	2.53	0.36	9.733e-06	0.226	0.942	0.39	0.37765	0.057507	-2.77	Uncertain_significance	0	6.7807e-06	5.57695e-06	25	Q5VWK5
chr1_67396089_A/G	chr1	67396089	G	ENSG00000081985	ENST00000674203	stop_lost	2808	2589	863	W	tgA	tgG	A	1	SNV	IL12RB2	protein_coding	YES	MANE_Select	NM_001374259.2	ENSP00000501329	-	17/17	c.2589A>G	p.Ter863TrpextTer41	0	0	-0.32991	-0.614815	16.63	0.6876641273047	5.155546	4.22	0.685	0	0.074	0.538	2.525	0.21587	0.162113	-4.37	Uncertain_significance	0	1.10786e-05	6.35712e-07	41	Q99665
chr1_75762761_T/G	chr1	75762761	G	ENSG00000117054	ENST00000370841	stop_lost	1343	1264	422	E	Taa	Gaa	T	1	SNV	ACADM	protein_coding	YES	MANE_Select	NM_000016.6	ENSP00000359878	-	12/12	c.1264T>G	p.Ter422GluextTer9	0	0	-0.100582	-0.382256	16.29	0.748316969183009	8.006873	4.73	0.71	0	0.192	1	6.858	0.9793	0.322412	-7.18	Uncertain_significance	0	1.67594e-05	6.35709e-07	9	P11310
chr1_75762762_A/T	chr1	75762762	T	ENSG00000117054	ENST00000370841	stop_lost	1344	1265	422	L	tAa	tTa	A	1	SNV	ACADM	protein_coding	YES	MANE_Select	NM_000016.6	ENSP00000359878	-	12/12	c.1265A>T	p.Ter422LeuextTer9	0.000161987041036717	9.335e-05	-0.116711	-0.223277	8.622	0.733885342050026	5.737122	3.54	0.635	5.721e-05	0.192	0.991	1.557	0.88835	0.322412	-2.73	Uncertain_significance	0	0.00016728	6.17345e-05	9	P11310
chr1_93993239_A/T	chr1	93993239	T	ENSG00000198691	ENST00000370225	stop_lost	6923	6820	2274	R	Tga	Aga	A	-1	SNV	ABCA4	protein_coding	YES	MANE_Select	NM_000350.3	ENSP00000359245	-	50/50	c.6820T>A	p.Ter2274ArgextTer34	0	0	-0.0382563	-0.292729	15.26	0.78764449356198	5.712928	1.39	0.785	0	0.319	0.998	1.011	0.58274	0.07523	-5.19	Uncertain_significance	0	0	0	34	P78363
chr1_99921651_G/C	chr1	99921651	C	ENSG00000162688	ENST00000361915	stop_lost	4722	4599	1533	Y	taG	taC	G	1	SNV	AGL	protein_coding	YES	MANE_Select	NM_000642.3	ENSP00000355106	-	34/34	c.4599G>C	p.Ter1533TyrextTer58	0	0	-0.393423	-0.802902	1.942	0.617709771489914	2.950092	0.0147	0.855	0	0.368	0.953	0.755	0.8217	0.294411	-7.1	Likely_pathogenic	0	0	0	58	P35573
chr1_100196256_C/A	chr1	100196256	A	ENSG00000137992	ENST00000370132	stop_lost	1462	1448	483	L	tGa	tTa	C	-1	SNV	DBT	protein_coding	YES	MANE_Select	NM_001918.5	ENSP00000359151	-	11/11	c.1448G>T	p.Ter483LeuextTer7	0	0	-0.0605595	-0.324766	15.95	0.746582957227296	11.56801	4.08	0.91	0	0.081	1	2.006	0.96012	0.295142	-7.86	Pathogenic	0	2.22866e-05	6.19785e-07	7	P11182
chr1_100196257_A/G	chr1	100196257	G	ENSG00000137992	ENST00000370132	stop_lost	1461	1447	483	R	Tga	Cga	A	-1	SNV	DBT	protein_coding	YES	MANE_Select	NM_001918.5	ENSP00000359151	-	11/11	c.1447T>C	p.Ter483ArgextTer7	0	0	0.0468815	-0.0735804	19.24	0.879584279828243	23.66542	6.16	0.66	0	0.081	1	8.947	0.98873	0.295142	-8.95	Likely_pathogenic	0	1.09808e-05	6.19665e-07	7	P11182
chr1_108136654_C/A	chr1	108136654	A	ENSG00000085491	ENST00000565488	stop_lost	1638	1433	478	L	tGa	tTa	C	-1	SNV	SLC25A24	protein_coding	YES	MANE_Select	NM_013386.5	ENSP00000457733	-	10/10	c.1433G>T	p.Ter478LeuextTer25	0	3.343e-05	-0.124613	-0.416774	9.826	0.82626928038324	10.5534	4.63	0.84	1.217e-06	0.023	0.997	0.582	0.95075	0.295142	-7.78	Uncertain_significance	0	0	6.21328e-07	25	Q6NUK1
chr1_113912189_T/C	chr1	113912189	C	ENSG00000118655	ENST00000650450	stop_lost	1858	1597	533	R	Tga	Cga	T	1	SNV	DCLRE1B	protein_coding	YES	MANE_Select	NM_022836.4	ENSP00000498042	-	4/4	c.1597T>C	p.Ter533ArgextTer7	5.08440105755542e-05	8.754e-05	-0.258087	-0.608501	7.632	0.757246334148631	2.951532	-0.166	NA	7.908e-06	NA	0	-0.012	0.08489	0.295142	-1.44	Uncertain_significance	0	1.33529e-05	6.21892e-06	7	Q9H816
chr1_119422618_T/C	chr1	119422618	C	ENSG00000203859	ENST00000369416	stop_lost	1259	1117	373	R	Tga	Cga	T	1	SNV	HSD3B2	protein_coding	YES	MANE_Select	NM_000198.4	ENSP00000358424	-	4/4	c.1117T>C	p.Ter373ArgextTer95	0	0	0.078341	-0.125245	17.37	0.823642102706375	7.934913	4.32	0.91	0	0.097	1	5.063	0.98197	0.06567	-7.71	Likely_pathogenic	0	0	0	95	P26439
chr1_119422620_A/C	chr1	119422620	C	ENSG00000203859	ENST00000369416	stop_lost	1261	1119	373	C	tgA	tgC	A	1	SNV	HSD3B2	protein_coding	YES	MANE_Select	NM_000198.4	ENSP00000358424	-	4/4	c.1119A>C	p.Ter373CysextTer95	0	1.251e-05	-0.129044	-0.326285	16.43	0.532238512146621	7.377971	4.32	0.905	4.866e-06	0.097	0.994	3.515	0.98395	0.06567	-7.52	Pathogenic	0	2.19621e-05	7.43616e-06	95	P26439
chr1_119915306_T/G	chr1	119915306	G	ENSG00000134250	ENST00000256646	stop_lost	7672	7416	2472	C	tgA	tgC	T	-1	SNV	NOTCH2	protein_coding	YES	MANE_Select	NM_024408.4	ENSP00000256646	-	34/34	c.7416A>C	p.Ter2472CysextTer7	0	0	-0.144795	-0.445765	11.93	0.620947519942655	11.10523	5.87	0.575	0	0.114	1	4.63	0.97027	0.295142	-7.81	Uncertain_significance	0	0	0	7	Q04721
chr1_147909255_T/C	chr1	147909255	C	ENSG00000121634	ENST00000369235	stop_lost	1378	1300	434	R	Tga	Cga	T	1	SNV	GJA8	protein_coding	YES	MANE_Select	NM_005267.5	ENSP00000358238	-	2/2	c.1300T>C	p.Ter434ArgextTer?	0	0.000228	0.0269588	-0.199052	14.92	0.827237140526351	13.97408	5.54	0.38	9.196e-06	0.172	1	7.591	0.9936	0.053691	-9.14	Uncertain_significance	0	1.45546e-05	1.12853e-05	?	P48165
chr1_150560194_T/C	chr1	150560194	C	ENSG00000143382	ENST00000271643	stop_lost	3473	3223	1075	R	Tga	Cga	T	1	SNV	ADAMTSL4	protein_coding	YES	MANE_Select	NM_019032.6	ENSP00000271643	-	19/19	c.3223T>C	p.Ter1075ArgextTer18	0	0	0.156906	-0.0123912	18.79	0.859926444178447	12.69015	5.5	0.705	0	0.027	1	2.921	0.7871	0.255962	-6.69	Uncertain_significance	0	1.33486e-05	6.19625e-07	18	Q6UY14
chr1_150796799_T/C	chr1	150796799	C	ENSG00000143387	ENST00000271651	stop_lost	1038	990	330	W	tgA	tgG	T	-1	SNV	CTSK	protein_coding	YES	MANE_Select	NM_000396.4	ENSP00000271651	-	8/8	c.990A>G	p.Ter330TrpextTer19	0	0	0.220881	0.0795034	19.53	0.901615538793338	20.07321	6.17	0.94	0	0.143	1	7.909	0.99669	0.162113	-9.72	Pathogenic	0	0	0	19	P43235
chr1_152350611_C/G	chr1	152350611	G	ENSG00000143520	ENST00000388718	stop_lost	7248	7175	2392	S	tGa	tCa	C	-1	SNV	FLG2	protein_coding	YES	MANE_Select	NM_001014342.3	ENSP00000373370	-	3/3	c.7175G>C	p.Ter2392SerextTer172	0.000263550110872805	0.005107	-0.786755	-0.900977	0.162	0.683508212475456	2.73856	-0.413	0.31	0.0003917	0.006	0	0.008	0.02722	0.061011	-1.45	Uncertain_significance	0	0.00551211	0.000295617	172	Q5D862
chr1_153810179_A/G	chr1	153810179	G	ENSG00000143614	ENST00000368655	stop_lost	2021	1780	594	Q	Taa	Caa	A	-1	SNV	GATAD2B	protein_coding	YES	MANE_Select	NM_020699.4	ENSP00000357644	-	11/11	c.1780T>C	p.Ter594GlnextTer91	0	0	-0.0351806	-0.288311	17.56	0.907715743564642	18.18498	5.36	0.965	0	0.129	1	7.095	0.997	0.295142	-10.69	Likely_pathogenic	0	0	0	91	Q8WXI9
chr1_154167938_T/G	chr1	154167938	G	ENSG00000143549	ENST00000651641	stop_lost,splice_region_variant	939	857	286	S	tAa	tCa	T	-1	SNV	TPM3	protein_coding	YES	MANE_Select	NM_152263.4	ENSP00000498577	-	10/10	c.857A>C	p.Ter286SerextTer57	0	0.0001126	-0.137338	-0.238081	15.06	0.829392865250222	12.88546	5.38	0.88	9.733e-06	0.151	1	2.271	0.93175	0.160901	-7.15	Likely_pathogenic	0	8.33472e-05	3.09819e-06	57	P06753
chr1_154167939_A/G	chr1	154167939	G	ENSG00000143549	ENST00000651641	stop_lost,splice_region_variant	938	856	286	Q	Taa	Caa	A	-1	SNV	TPM3	protein_coding	YES	MANE_Select	NM_152263.4	ENSP00000498577	-	10/10	c.856T>C	p.Ter286GlnextTer57	0	1.251e-05	-0.0998007	-0.212005	16.8	0.814259938366671	15.62222	5.38	0.935	1.217e-06	0.151	1	4.282	0.98322	0.160901	-7.66	Likely_pathogenic	0	6.6839e-05	2.47817e-06	57	P06753
chr1_156139106_A/T	chr1	156139106	T	ENSG00000160789	ENST00000368300	stop_lost	2203	1995	665	Y	taA	taT	A	1	SNV	LMNA	protein_coding	YES	MANE_Select	NM_170707.4	ENSP00000357283	-	12/12	c.1995A>T	p.Ter665TyrextTer97	0	3.903e-06	0.111208	-0.0780344	16.77	0.811826773492029	11.44572	4.72	0.96	0	0.471	0.985	2.753	0.91127	0.256867	-8.78	Uncertain_significance	0	0	0	97	P02545
chr1_159062694_A/C	chr1	159062694	C	ENSG00000163568	ENST00000368130	stop_lost	1184	1030	344	E	Tag	Gag	A	-1	SNV	AIM2	protein_coding	YES	MANE_Select	NM_004833.3	ENSP00000357112	-	6/6	c.1030T>G	p.Ter344GluextTer16	0.00344049784843013	0.03672	-0.825326	-0.930437	0.211	0.55497350109341	2.13258	-1.92	0.045	0.002663	0.31	0.001	-0.06	0.01249	0.295142	0.13	Conflicting_classifications_of_pathogenicity	53	0.0362435	0.00197058	16	O14862
chr1_160041393_T/A	chr1	160041393	A	ENSG00000177807	ENST00000644903	stop_lost	1279	1140	380	C	tgA	tgT	T	-1	SNV	KCNJ10	protein_coding	YES	MANE_Select	NM_002241.5	ENSP00000495557	-	2/2	c.1140A>T	p.Ter380CysextTer1	0	7.788e-06	-0.0758516	-0.346732	16.88	0.838646656670547	13.33778	4.77	NA	1.217e-06	NA	1	7.146	0.9961	0.078448	-11.66	Uncertain_significance	0	4.23854e-06	3.10203e-06	1	P78508
chr1_160041394_C/G	chr1	160041394	G	ENSG00000177807	ENST00000644903	stop_lost	1278	1139	380	S	tGa	tCa	C	-1	SNV	KCNJ10	protein_coding	YES	MANE_Select	NM_002241.5	ENSP00000495557	-	2/2	c.1139G>C	p.Ter380SerextTer1	0	3.894e-06	-0.140261	-0.439252	15.95	0.789840944893066	14.49903	4.77	NA	2.433e-06	NA	1	4.911	0.9909	0.078448	-12.29	Uncertain_significance	0	2.5431e-06	1.86105e-06	1	P78508
chr1_160141320_T/C	chr1	160141320	C	ENSG00000018625	ENST00000361216	stop_lost	3164	3061	1021	R	Tga	Cga	T	1	SNV	ATP1A2	protein_coding	YES	MANE_Select	NM_000702.4	ENSP00000354490	-	23/23	c.3061T>C	p.Ter1021ArgextTer28	0	0	0.223043	0.08261	18.53	0.856163301372418	14.61283	4.54	0.96	0	0.173	1	7.169	0.99406	0.256867	-10.76	Likely_pathogenic	0	0	0	28	P50993
chr1_161222407_A/T	chr1	161222407	T	ENSG00000158874	ENST00000367990	stop_lost	359	301	101	R	Tga	Aga	A	-1	SNV	APOA2	protein_coding	YES	MANE_Select	NM_001643.2	ENSP00000356969	-	4/4	c.301T>A	p.Ter101ArgextTer21	0	0	-0.158085	-0.464854	14.2	0.810934809796992	4.248377	3.52	1	0	0.234	0.307	2.562	0.28752	0.428477	-5.64	Likely_pathogenic	0	0	0	21	P02652
chr1_161305878_A/G	chr1	161305878	G	ENSG00000158887	ENST00000533357	stop_lost	808	745	249	Q	Tag	Cag	A	-1	SNV	MPZ	protein_coding	YES	MANE_Select	NM_000530.8	ENSP00000432943	-	6/6	c.745T>C	p.Ter249GlnextTer64	0	0	-0.0409943	-0.296662	18.65	0.903842111438769	16.98225	5.17	0.73	0	0.419	1	5.05	0.89212	0.455138	-9.61	Uncertain_significance	0	0	0	64	P25189
chr1_161362431_T/C	chr1	161362431	C	ENSG00000143252	ENST00000367975	stop_lost	533	508	170	R	Tga	Cga	T	1	SNV	SDHC	protein_coding	YES	MANE_Select	NM_003001.5	ENSP00000356953	-	6/6	c.508T>C	p.Ter170ArgextTer54	0	0	0.412026	0.35407	17.38	0.894160378577751	14.17431	5.27	0.925	0	0.679	1	3.23	0.97649	0.732398	-8.26	Uncertain_significance	0	0	0	54	Q99643
chr1_161958652_T/C	chr1	161958652	C	ENSG00000118217	ENST00000367942	stop_lost	2052	2011	671	Q	Tag	Cag	T	1	SNV	ATF6	protein_coding	YES	MANE_Select	NM_007348.4	ENSP00000356919	-	16/16	c.2011T>C	p.Ter671GlnextTer9	0	0	-0.104996	-0.388596	17	0.846703919579061	9.26353	5.29	0.785	6.083e-07	0.074	0.993	3.056	0.95106	0.295142	-8.4	Uncertain_significance	0	0	0	9	P18850
chr1_167431681_T/G	chr1	167431681	G	ENSG00000198821	ENST00000362089	stop_lost	559	495	165	Y	taA	taC	T	-1	SNV	CD247	protein_coding	YES	MANE_Select	NM_198053.3	ENSP00000354782	-	8/8	c.495A>C	p.Ter165TyrextTer18	0	0	-0.124462	-0.416557	11.22	0.77158967200981	5.103147	0.0295	0.49	1.218e-06	0.102	0.993	0.476	0.72727	0.089122	-8.04	Uncertain_significance	0	1.66656e-05	6.20048e-07	18	P20963
chr1_169465851_A/T	chr1	169465851	T	ENSG00000117479	ENST00000236137	stop_lost	1670	1492	498	K	Taa	Aaa	A	-1	SNV	SLC19A2	protein_coding	YES	MANE_Select	NM_006996.3	ENSP00000236137	-	6/6	c.1492T>A	p.Ter498LysextTer44	0	0	-0.343688	-0.731461	14.36	0.529756968511872	6.601703	5.81	0.735	0	0.218	0.501	2.205	0.31674	0.295142	-6.38	Uncertain_significance	0	0	0	44	O60779
chr1_171635925_T/C	chr1	171635925	C	ENSG00000034971	ENST00000037502	stop_lost	1592	1515	505	W	tgA	tgG	T	-1	SNV	MYOC	protein_coding	YES	MANE_Select	NM_000261.2	ENSP00000037502	-	3/3	c.1515A>G	p.Ter505TrpextTer42	0	0	-0.05022	-0.309914	14.41	0.705587129305075	5.794035	4.88	0.815	0	0.145	0.047	2.172	0.22028	0.053691	-5.77	Uncertain_significance	0	0	0	42	Q99972
chr1_173903889_T/G	chr1	173903889	G	ENSG00000117601	ENST00000367698	stop_lost	1463	1395	465	Y	taA	taC	T	-1	SNV	SERPINC1	protein_coding	YES	MANE_Select	NM_000488.4	ENSP00000356671	-	7/7	c.1395A>C	p.Ter465TyrextTer?	0	0	-0.278439	-0.637735	9.51	0.732734884617863	3.900192	1.99	0.405	0	0.257	0.173	1.982	0.45071	0.053691	-6.75	Uncertain_significance	0	0	0	?	P01008
chr1_173903891_A/G	chr1	173903891	G	ENSG00000117601	ENST00000367698	stop_lost	1461	1393	465	Q	Taa	Caa	A	-1	SNV	SERPINC1	protein_coding	YES	MANE_Select	NM_000488.4	ENSP00000356671	-	7/7	c.1393T>C	p.Ter465GlnextTer?	0	0	-0.286319	-0.649054	13.48	0.789565655149552	5.687976	4.55	0.54	0	0.257	0.573	5.457	0.6328	0.053691	-7.28	Uncertain_significance	0	0	0	?	P01008
chr1_179918237_T/A	chr1	179918237	A	ENSG00000143337	ENST00000606911	stop_lost	1968	1750	584	K	Taa	Aaa	T	1	SNV	TOR1AIP1	protein_coding	YES	MANE_Select	NM_015602.4	ENSP00000476687	-	10/10	c.1750T>A	p.Ter584LysextTer29	0	0	0.000151389	-0.237559	16.38	0.704027601798528	7.828009	5.85	0.835	1.825e-06	0.031	0.302	1.398	0.45564	0.295142	-6.25	Uncertain_significance	0	0	0	29	Q5JTV8
chr1_183556118_C/G	chr1	183556118	G	ENSG00000116701	ENST00000367535	stop_lost	1711	1581	527	Y	taG	taC	C	-1	SNV	NCF2	protein_coding	YES	MANE_Select	NM_000433.4	ENSP00000356505	-	15/15	c.1581G>C	p.Ter527TyrextTer64	0	9.268e-06	-0.341358	-0.728113	12.77	0.722182790219646	4.269069	1.17	0.785	3.65e-06	0.243	0.362	0.244	0.65869	0.256867	-6.16	Uncertain_significance	0	1.33469e-05	6.19859e-07	64	P19878
chr1_193250710_T/G	chr1	193250710	G	ENSG00000134371	ENST00000367435	stop_lost	1764	1594	532	G	Tga	Gga	T	1	SNV	CDC73	protein_coding	YES	MANE_Select	NM_024529.5	ENSP00000356405	-	17/17	c.1594T>G	p.Ter532GlyextTer29	0	0	-0.0399292	-0.295132	14.13	0.716843004412778	20.13282	6.01	0.895	0	0.099	1	7.189	0.99342	0.262962	-11	Uncertain_significance	0	0	0	29	Q6P1J9
chr1_196831998_A/G	chr1	196831998	G	ENSG00000244414	ENST00000320493	stop_lost	1106	992	331	W	tAg	tGg	A	1	SNV	CFHR1	protein_coding	YES	MANE_Select	NM_002113.3	ENSP00000314299	-	6/6	c.992A>G	p.Ter331TrpextTer4	0.000255741394302082	0.008523	-0.589739	-0.721862	0.618	0.518957759975316	2.834318	2.18	0.13	0.0003869	0.108	0	-0.967	0.00656	0.294411	-0.85	Conflicting_classifications_of_pathogenicity	121	0.00486527	0.000416723	4	Q03591
chr1_197008681_T/C	chr1	197008681	C	ENSG00000134389	ENST00000256785	stop_lost	1817	1708	570	R	Tga	Cga	T	1	SNV	CFHR5	protein_coding	YES	MANE_Select	NM_030787.4	ENSP00000256785	-	10/10	c.1708T>C	p.Ter570ArgextTer37	3.40971085651937e-05	0.0003721	-0.721286	-0.953844	0.137	0.262528692587788	0.6383016	-6.79	0.21	6.691e-06	0.04	0	-1.125	0.01915	0.061011	-3.86	Uncertain_significance	0	0.00270162	7.63816e-05	37	Q9BXR6
chr1_197477877_T/A	chr1	197477877	A	ENSG00000134376	ENST00000367400	stop_lost	4380	4219	1407	K	Tag	Aag	T	1	SNV	CRB1	protein_coding	YES	MANE_Select	NM_201253.3	ENSP00000356370	-	12/12	c.4219T>A	p.Ter1407LysextTer111	0	0	0.0628415	-0.147509	15.59	0.511520302022626	10.72688	5.61	0.905	0	0.386	1	7.81	0.99058	0.061011	-11.51	Uncertain_significance	0	0	0	111	P82279
chr1_197477877_T/C	chr1	197477877	C	ENSG00000134376	ENST00000367400	stop_lost	4380	4219	1407	Q	Tag	Cag	T	1	SNV	CRB1	protein_coding	YES	MANE_Select	NM_201253.3	ENSP00000356370	-	12/12	c.4219T>C	p.Ter1407GlnextTer111	0	0	0.119637	-0.0659265	15.39	0.806863387952933	10.72688	5.61	0.92	0	0.386	1	7.81	0.98933	0.061011	-8.17	Uncertain_significance	0	0	0	111	P82279
chr1_198756179_T/C	chr1	198756179	C	ENSG00000081237	ENST00000442510	stop_lost	4060	3919	1307	Q	Tag	Cag	T	1	SNV	PTPRC	protein_coding	YES	MANE_Select	NM_002838.5	ENSP00000411355	-	33/33	c.3919T>C	p.Ter1307GlnextTer4	8.68130914141853e-05	5.002e-05	-0.445764	-0.795221	12.75	0.547326307026329	3.48061	3.7	0.255	6.691e-06	0.155	0.989	3.634	0.43529	0.295142	-4.59	Uncertain_significance	0	8.35841e-05	3.72017e-06	4	P08575
chr1_200644255_C/A	chr1	200644255	A	ENSG00000118197	ENST00000331314	stop_lost	2011	1859	620	L	tGa	tTa	C	-1	SNV	DDX59	protein_coding	YES	MANE_Select	NM_001031725.6	ENSP00000330460	-	8/8	c.1859G>T	p.Ter620LeuextTer22	0	0	-0.3422	-0.455023	13.55	0.775951174544911	8.708875	3.41	0.925	6.691e-06	0.001	1	0.97	0.84217	0.322412	-7.45	Pathogenic	0	0.000150269	7.90385e-06	22	Q5T1V6
chr1_201039831_T/C	chr1	201039831	C	ENSG00000081248	ENST00000362061	stop_lost	5709	5622	1874	W	tgA	tgG	T	-1	SNV	CACNA1S	protein_coding	YES	MANE_Select	NM_000069.3	ENSP00000355192	-	44/44	c.5622A>G	p.Ter1874TrpextTer13	0	3.894e-06	0.0479462	-0.168905	14	0.863285049746658	9.620031	4.66	0.665	0	0.11	0.947	2.055	0.86604	0.053691	-5.43	Uncertain_significance	0	8.47459e-07	6.2365e-07	13	Q13698
chr1_201039832_C/A	chr1	201039832	A	ENSG00000081248	ENST00000362061	stop_lost	5708	5621	1874	L	tGa	tTa	C	-1	SNV	CACNA1S	protein_coding	YES	MANE_Select	NM_000069.3	ENSP00000355192	-	44/44	c.5621G>T	p.Ter1874LeuextTer13	0	0	-0.0154909	-0.260028	11.21	0.902345450385375	10.81709	4.66	0.755	0	0.11	0.994	1.523	0.94052	0.053691	-7.11	Uncertain_significance	0	8.4746e-07	6.23549e-07	13	Q13698
chr1_201039833_A/G	chr1	201039833	G	ENSG00000081248	ENST00000362061	stop_lost	5707	5620	1874	R	Tga	Cga	A	-1	SNV	CACNA1S	protein_coding	YES	MANE_Select	NM_000069.3	ENSP00000355192	-	44/44	c.5620T>C	p.Ter1874ArgextTer13	0	0	0.156952	-0.0123252	14.42	0.888596112604288	10.03565	4.66	0.765	3.041e-06	0.11	0.993	3.637	0.87696	0.053691	-5.82	Uncertain_significance	0	5.93228e-06	4.98789e-06	13	Q13698
chr1_201359212_A/G	chr1	201359212	G	ENSG00000118194	ENST00000656932	stop_lost	967	895	299	Q	Tag	Cag	A	-1	SNV	TNNT2	protein_coding	YES	MANE_Select	NM_001276345.2	ENSP00000499593	-	17/17	c.895T>C	p.Ter299GlnextTer42	0	0	-0.0762846	-0.347354	17.23	0.801661020466901	11.40233	3.98	0.825	0	0.321	1	4.733	0.9771	0.159608	-7.65	Uncertain_significance	0	0	0	42	P45379
chr1_204155017_C/A	chr1	204155017	A	ENSG00000143839	ENST00000272190	stop_lost	1264	1220	407	L	tGa	tTa	C	-1	SNV	REN	protein_coding	YES	MANE_Select	NM_000537.4	ENSP00000272190	-	10/10	c.1220G>T	p.Ter407LeuextTer21	0	0.0001576	-0.422812	-0.565682	9.837	0.719934082300559	3.270308	0.196	0.67	1.642e-05	0.145	0.952	0.127	0.85264	0.053691	-8.67	Uncertain_significance	0	0.000159876	9.9142e-06	21	P00797
chr1_205073765_A/G	chr1	205073765	G	ENSG00000184144	ENST00000331830	stop_lost	3392	3123	1041	W	tgA	tgG	A	1	SNV	CNTN2	protein_coding	YES	MANE_Select	NM_005076.5	ENSP00000330633	-	23/23	c.3123A>G	p.Ter1041TrpextTer42	0	0	-0.0238101	-0.271978	18.57	0.810073271699052	13.53401	5.08	0.13	0	0.056	1	7.124	0.96084	0.257697	-8.23	Uncertain_significance	0	0	0	42	Q02246
chr1_211479037_C/G	chr1	211479037	G	ENSG00000198570	ENST00000680073	stop_lost	993	587	196	S	tGa	tCa	C	-1	SNV	RD3	protein_coding	YES	MANE_Select	NM_001164688.2	ENSP00000505312	-	3/3	c.587G>C	p.Ter196SerextTer20	7.11743772241993e-05	3.342e-05	-0.252106	-0.530071	14.59	0.778472348771644	7.470778	3.39	0.62	1.156e-05	0.053	1	1.789	0.89158	0.06567	-8.48	Uncertain_significance	0	1.44849e-05	1.06489e-05	20	Q7Z3Z2
chr1_218441361_A/T	chr1	218441361	T	ENSG00000092969	ENST00000366930	stop_lost	2610	1244	415	L	tAa	tTa	A	1	SNV	TGFB2	protein_coding	YES	MANE_Select	NM_003238.6	ENSP00000355897	-	7/7	c.1244A>T	p.Ter415LeuextTer39	0	0	0.0413187	-0.178425	16.24	0.790654186992247	16.19734	5.9	0.905	0	0.227	1	6.238	0.97216	0.262962	-11.58	Uncertain_significance	0	0	0	39	P61812
chr1_218441362_A/T	chr1	218441362	T	ENSG00000092969	ENST00000366930	stop_lost	2611	1245	415	Y	taA	taT	A	1	SNV	TGFB2	protein_coding	YES	MANE_Select	NM_003238.6	ENSP00000355897	-	7/7	c.1245A>T	p.Ter415TyrextTer39	0	0	0.00316302	-0.233233	12.57	0.845338693359982	12.31437	5.9	0.85	0	0.227	1	3.137	0.97518	0.262962	-10.86	Uncertain_significance	0	0	0	39	P61812
chr1_220151253_A/T	chr1	220151253	T	ENSG00000118873	ENST00000358951	stop_lost	4296	4180	1394	R	Tga	Aga	A	-1	SNV	RAB3GAP2	protein_coding	YES	MANE_Select	NM_012414.4	ENSP00000351832	-	35/35	c.4180T>A	p.Ter1394ArgextTer11	0	0	-0.0608128	-0.149283	14.55	0.876865464681393	12.56681	5.8	0.11	6.083e-07	0.005	1	5.286	0.98211	0.295142	-8.15	Uncertain_significance	0	3.33189e-05	1.23944e-06	11	Q9H2M9
chr1_225399269_A/T	chr1	225399269	T	ENSG00000185842	ENST00000682510	stop_lost	14048	13854	4618	Y	taA	taT	A	1	SNV	DNAH14	protein_coding	YES	MANE_Select	NM_001367479.1	ENSP00000508305	-	86/86	c.13854A>T	p.Ter4618TyrextTer?	0.00840092699884125	0.008968	-0.2275	-0.0891767	2.709	0.778261138646706	2.11208	3.25	0.17	0.007689	0.159	0.998	1.885	0.8519	0.106106	-6.92	Likely_benign	61	0.00925041	0.00798223	?	-
chr1_226986735_T/C	chr1	226986735	C	ENSG00000163050	ENST00000366777	stop_lost	2057	1942	648	Q	Tag	Cag	T	1	SNV	COQ8A	protein_coding	YES	MANE_Select	NM_020247.5	ENSP00000355739	-	15/15	c.1942T>C	p.Ter648GlnextTer27	2.42365487154629e-05	9.301e-05	-0.109522	-0.395097	7.628	0.571063431039905	4.416909	2.64	0.69	2.494e-05	0.141	0.997	0.394	0.28183	0.295142	4.67	Uncertain_significance	0	2.71197e-05	2.04644e-05	27	Q8NI60
chr1_226986735_T/G	chr1	226986735	G	ENSG00000163050	ENST00000366777	stop_lost	2057	1942	648	E	Tag	Gag	T	1	SNV	COQ8A	protein_coding	YES	MANE_Select	NM_020247.5	ENSP00000355739	-	15/15	c.1942T>G	p.Ter648GluextTer27	0	0.000372	-0.470577	-0.56879	8.017	0.772359956032132	4.416909	2.64	0.685	1.825e-06	0.141	0.997	0.394	0.63178	0.295142	-0.25	Uncertain_significance	0	0.00015593	4.34125e-06	27	Q8NI60
chr1_229431501_A/G	chr1	229431501	G	ENSG00000143632	ENST00000366684	stop_lost	1235	1132	378	Q	Tag	Cag	A	-1	SNV	ACTA1	protein_coding	YES	MANE_Select	NM_001100.4	ENSP00000355645	-	7/7	c.1132T>C	p.Ter378GlnextTer47	0	0	-0.0355482	-0.288839	20.1	0.815946980039369	14.8671	3.89	0.975	0	0.112	1	9.269	0.95912	0.287651	-9	Pathogenic	0	0	0	47	P68133
chr1_231366413_A/G	chr1	231366413	G	ENSG00000135766	ENST00000366641	stop_lost	1678	1279	427	Q	Tag	Cag	A	-1	SNV	EGLN1	protein_coding	YES	MANE_Select	NM_022051.3	ENSP00000355601	-	5/5	c.1279T>C	p.Ter427GlnextTer3	0	0	-0.0677753	-0.335131	10.61	0.826354558140598	9.447806	4.55	0.4	0	0.082	1	1.515	0.74346	0.295142	-2.77	Uncertain_significance	0	0	0	3	Q9GZT9
chr1_234607137_T/C	chr1	234607137	C	ENSG00000168264	ENST00000366609	stop_lost	2448	1764	588	W	tgA	tgG	T	-1	SNV	IRF2BP2	protein_coding	YES	MANE_Select	NM_182972.3	ENSP00000355568	-	2/2	c.1764A>G	p.Ter588TrpextTer14	0	0	0.0394258	-0.181144	19.26	0.911674694364905	20.06479	5.61	0.89	0	0.06	1	7.969	0.98961	0.12189	-10.71	Uncertain_significance	0	0	0	14	Q7Z5L9
chr1_241497828_T/A	chr1	241497828	A	ENSG00000091483	ENST00000366560	stop_lost	1566	1533	511	C	tgA	tgT	T	-1	SNV	FH	protein_coding	YES	MANE_Select	NM_000143.4	ENSP00000355518	-	10/10	c.1533A>T	p.Ter511CysextTer3	0	0	0.0163666	-0.214267	16.27	0.765742039119971	10.30203	4.77	0.42	1.217e-06	0.103	0.998	4.304	0.97131	0.295142	-9.76	Uncertain_significance	0	1.34716e-05	1.25254e-06	3	P07954
chr1_241497828_T/G	chr1	241497828	G	ENSG00000091483	ENST00000366560	stop_lost	1566	1533	511	C	tgA	tgC	T	-1	SNV	FH	protein_coding	YES	MANE_Select	NM_000143.4	ENSP00000355518	-	10/10	c.1533A>C	p.Ter511CysextTer3	0	0	0.0199651	-0.209098	16.5	0.768698954928236	10.30203	4.77	0.42	0	0.103	0.998	4.304	0.9732	0.295142	-9.83	Uncertain_significance	0	0	0	3	P07954
chr1_241497829_C/G	chr1	241497829	G	ENSG00000091483	ENST00000366560	stop_lost	1565	1532	511	S	tGa	tCa	C	-1	SNV	FH	protein_coding	YES	MANE_Select	NM_000143.4	ENSP00000355518	-	10/10	c.1532G>C	p.Ter511SerextTer3	0	0	-0.148895	-0.451654	13.3	0.646205396441997	8.368059	2.58	0.56	0	0.103	0.996	0.409	0.88461	0.295142	-7.59	Uncertain_significance	0	0	0	3	P07954
chr1_241497830_A/T	chr1	241497830	T	ENSG00000091483	ENST00000366560	stop_lost	1564	1531	511	R	Tga	Aga	A	-1	SNV	FH	protein_coding	YES	MANE_Select	NM_000143.4	ENSP00000355518	-	10/10	c.1531T>A	p.Ter511ArgextTer3	0	0	0.199258	0.0484442	17.82	0.839860207797306	19.39745	6.02	0.42	1.825e-06	0.103	1	6.763	0.97941	0.295142	-11.22	Uncertain_significance	0	2.68745e-05	1.87367e-06	3	P07954
chr1_244055368_T/C	chr1	244055368	C	ENSG00000179456	ENST00000358704	stop_lost	1743	1594	532	Q	Taa	Caa	T	1	SNV	ZBTB18	protein_coding	YES	MANE_Select	NM_205768.3	ENSP00000351539	-	2/2	c.1594T>C	p.Ter532GlnextTer15	0	0	-0.116483	-0.405096	16.76	0.859660626969162	21.04548	5.78	0.875	0	0.132	1	7.621	0.99588	0.099367	-10.22	Uncertain_significance	0	0	0	15	Q99592
chr10_6012873_T/G	chr10	6012873	G	ENSG00000134460	ENST00000379959	stop_lost	1034	818	273	S	tAg	tCg	T	-1	SNV	IL2RA	protein_coding	YES	MANE_Select	NM_000417.3	ENSP00000369293	-	8/8	c.818A>C	p.Ter273SerextTer10	0	0	-0.132401	-0.427962	16.51	0.735496955682342	7.026173	3.04	0.575	0	0.532	1	2.727	0.803	0.162113	-7.58	Uncertain_significance	0	1.66589e-05	6.19572e-07	10	P01589
chr10_20785749_A/G	chr10	20785749	G	ENSG00000078114	ENST00000377122	stop_lost	3149	3043	1015	Q	Taa	Caa	A	-1	SNV	NEBL	protein_coding	YES	MANE_Select	NM_006393.3	ENSP00000366326	-	28/28	c.3043T>C	p.Ter1015GlnextTer7	0	3.894e-06	-0.0538756	-0.315165	16.58	0.901889014623584	18.28687	5.46	0.635	1.825e-06	0.428	1	8.17	0.99571	0.164513	-9.04	Uncertain_significance	0	2.54277e-06	1.85922e-06	7	O76041
chr10_23193906_A/G	chr10	23193906	G	ENSG00000168267	ENST00000376504	stop_lost	1206	987	329	W	tgA	tgG	A	1	SNV	PTF1A	protein_coding	YES	MANE_Select	NM_178161.3	ENSP00000365687	-	2/2	c.987A>G	p.Ter329TrpextTer19	0	0	-0.00357591	-0.242913	19.17	0.851300005538172	17.9744	5.83	0.895	0	0.116	1	6.476	0.98945	0.095506	-5.73	Uncertain_significance	0	0	0	19	Q7RTS3
chr10_26211961_T/C	chr10	26211961	C	ENSG00000095777	ENST00000642920	stop_lost	5053	4849	1617	Q	Taa	Caa	T	1	SNV	MYO3A	protein_coding	YES	MANE_Select	NM_017433.5	ENSP00000495965	-	35/35	c.4849T>C	p.Ter1617GlnextTer106	6.78086778155434e-05	0.0001338	0.036135	0.0398307	10.2	0.808210884778266	8.796972	4.76	NA	3.285e-05	NA	1	4.065	0.9495	0.443343	-5.52	Uncertain_significance	0	6.67245e-05	2.85356e-05	106	Q8NEV4
chr10_27538049_T/C	chr10	27538049	C	ENSG00000099246	ENST00000356940	stop_lost	685	619	207	Q	Taa	Caa	T	1	SNV	RAB18	protein_coding	YES	MANE_Select	NM_021252.5	ENSP00000349415	-	7/7	c.619T>C	p.Ter207GlnextTer20	0	0	-0.093448	-0.275154	17.63	0.877043022419783	22.69806	6.16	0.995	1.825e-06	0.589	1	7.65	0.96157	0.295142	-8.44	Pathogenic	0	1.09782e-05	1.85855e-06	20	Q9NP72
chr10_30460834_T/C	chr10	30460834	C	ENSG00000107968	ENST00000263056	stop_lost	1851	1402	468	R	Tga	Cga	T	1	SNV	MAP3K8	protein_coding	YES	MANE_Select	NM_005204.4	ENSP00000263056	-	9/9	c.1402T>C	p.Ter468ArgextTer7	7.11743772241993e-05	0.0001126	-0.0122832	-0.0297186	16.76	0.88940771646942	12.92334	5.25	0.83	7.908e-06	0.3	1	7.078	0.98273	0.295142	-9.96	Uncertain_significance	0	6.66956e-05	4.33865e-06	7	P41279
chr10_62813208_C/G	chr10	62813208	G	ENSG00000122877	ENST00000242480	stop_lost	1767	1430	477	S	tGa	tCa	C	-1	SNV	EGR2	protein_coding	YES	MANE_Select	NM_000399.5	ENSP00000242480	-	2/2	c.1430G>C	p.Ter477SerextTer63	7.11743772241993e-05	1.558e-05	-0.229799	-0.567867	14.28	0.849965117820229	10.71084	4.24	0.98	1.217e-06	0.332	0.493	1.083	0.86413	0.228283	-7.2	Uncertain_significance	0	1.72497e-06	1.27951e-06	63	P11161
chr10_63168047_A/C	chr10	63168047	C	ENSG00000171988	ENST00000399262	stop_lost	7936	7621	2541	E	Taa	Gaa	A	-1	SNV	JMJD1C	protein_coding	YES	MANE_Select	NM_032776.3	ENSP00000382204	-	26/26	c.7621T>G	p.Ter2541GluextTer2	2.83205890682526e-05	5.452e-05	-0.197161	-0.338837	15.69	0.61707534565992	17.8361	5.42	0.59	4.321e-05	0.341	1	7.886	0.99717	0.322412	-6.94	Uncertain_significance	0	5.95617e-05	4.89477e-05	2	Q15652
chr10_65920330_T/C	chr10	65920330	C	ENSG00000183230	ENST00000433211	stop_lost	2889	2688	896	W	tgA	tgG	T	-1	SNV	CTNNA3	protein_coding	YES	MANE_Select	NM_013266.4	ENSP00000389714	-	18/18	c.2688A>G	p.Ter896TrpextTer39	0	0	0.0411495	-0.178668	17.49	0.807747629321331	13.94516	4.78	0.725	0	0.038	1	3.386	0.93071	0.074636	-5.97	Uncertain_significance	0	0	0	39	Q9UI47
chr10_65920332_A/G	chr10	65920332	G	ENSG00000183230	ENST00000433211	stop_lost	2887	2686	896	R	Tga	Cga	A	-1	SNV	CTNNA3	protein_coding	YES	MANE_Select	NM_013266.4	ENSP00000389714	-	18/18	c.2686T>C	p.Ter896ArgextTer39	0	3.894e-06	0.0667588	-0.141882	16.8	0.887765854103938	18.38383	5.92	0.75	1.217e-06	0.038	1	6.438	0.98433	0.074636	-7.9	Uncertain_significance	0	1.69566e-06	1.23999e-06	39	Q9UI47
chr10_67797117_C/A	chr10	67797117	A	ENSG00000108176	ENST00000225171	stop_lost	773	596	199	L	tGa	tTa	C	-1	SNV	DNAJC12	protein_coding	YES	MANE_Select	NM_021800.3	ENSP00000225171	-	5/5	c.596G>T	p.Ter199LeuextTer42	0	3.894e-06	-0.046013	-0.303871	15.77	0.74910320531481	9.40696	3.64	0.96	7.3e-06	0.021	0.994	0.207	0.78582	0.294411	-6.46	Pathogenic	0	1.18805e-05	8.68685e-06	42	Q9UKB3
chr10_70883952_A/G	chr10	70883952	G	ENSG00000166228	ENST00000299299	stop_lost	345	313	105	Q	Tag	Cag	A	-1	SNV	PCBD1	protein_coding	YES	MANE_Select	NM_000281.4	ENSP00000299299	-	4/4	c.313T>C	p.Ter105GlnextTer14	0	1.168e-05	-0.189829	-0.409823	15.9	0.701934526647047	7.851455	5.69	0.92	1.156e-05	0.01	0.994	4.423	0.95391	0.295142	-6.9	Conflicting_classifications_of_pathogenicity	0	1.44081e-05	1.11548e-05	14	P61457
chr10_71362607_A/G	chr10	71362607	G	ENSG00000198246	ENST00000373189	stop_lost	1478	1427	476	W	tAg	tGg	A	1	SNV	SLC29A3	protein_coding	YES	MANE_Select	NM_018344.6	ENSP00000362285	-	6/6	c.1427A>G	p.Ter476TrpextTer30	0	0	-0.0454387	-0.303046	16.32	0.820288743182757	12.95901	5.36	NA	0	0.037	1	5.832	0.7572	0.262962	-4.03	Uncertain_significance	0	0	0	30	Q9BZD2
chr10_72885820_T/A	chr10	72885820	A	ENSG00000156026	ENST00000373053	stop_lost	1063	1054	352	R	Tga	Aga	T	1	SNV	MCU	protein_coding	YES	MANE_Select	NM_138357.3	ENSP00000362144	-	8/8	c.1054T>A	p.Ter352ArgextTer6	0.00233635366299622	0.002636	-0.270252	-0.158641	18.03	0.860684753403196	14.85095	5.13	0.24	0.002458	0.383	1	6.125	0.97367	0.360877	-9.63	Benign	19	0.00324575	0.00295971	6	Q8NE86
chr10_74118167_T/C	chr10	74118167	C	ENSG00000035403	ENST00000211998	stop_lost	3495	3403	1135	Q	Tag	Cag	T	1	SNV	VCL	protein_coding	YES	MANE_Select	NM_014000.3	ENSP00000211998	-	22/22	c.3403T>C	p.Ter1135GlnextTer4	0	0	0.0559487	-0.15741	15.51	0.933086544642582	12.8111	4.35	0.73	6.083e-07	0.215	1	5.952	0.9611	0.256867	-9.2	Uncertain_significance	0	0	0	4	P18206
chr10_75031045_A/G	chr10	75031045	G	ENSG00000156650	ENST00000287239	stop_lost	6735	6221	2074	W	tAg	tGg	A	1	SNV	KAT6B	protein_coding	YES	MANE_Select	NM_012330.4	ENSP00000287239	-	18/18	c.6221A>G	p.Ter2074TrpextTer16	0	3.343e-05	-0.108248	-0.393267	16.86	0.720462714301237	19.11597	5.46	0.73	6.083e-07	0.576	1	7.802	0.9756	0.322412	-8.32	Uncertain_significance	0	0	0	16	Q8WYB5
chr10_77977480_A/G	chr10	77977480	G	ENSG00000148606	ENST00000372371	stop_lost	4279	4171	1391	Q	Tag	Cag	A	-1	SNV	POLR3A	protein_coding	YES	MANE_Select	NM_007055.4	ENSP00000361446	-	31/31	c.4171T>C	p.Ter1391GlnextTer9	0	3.895e-06	-0.151308	-0.45512	13.75	0.83338937645783	10.0281	4.4	0.8	6.083e-07	0.056	1	4.158	0.97412	0.295142	-6.74	Uncertain_significance	0	1.09794e-05	6.19569e-07	9	O14802
chr10_87965471_G/C	chr10	87965471	C	ENSG00000171862	ENST00000371953	stop_lost	2056	1211	404	S	tGa	tCa	G	1	SNV	PTEN	protein_coding	YES	MANE_Select	NM_000314.8	ENSP00000361021	-	9/9	c.1211G>C	p.Ter404SerextTer8	0	0	-0.153928	-0.458884	17.36	0.775493324151124	21.22372	5.26	0.91	0	0.229	1	7.656	0.98311	0.360877	-8.9	Likely_pathogenic	0	0	0	8	P60484
chr10_87965472_A/C	chr10	87965472	C	ENSG00000171862	ENST00000371953	stop_lost	2057	1212	404	C	tgA	tgC	A	1	SNV	PTEN	protein_coding	YES	MANE_Select	NM_000314.8	ENSP00000361021	-	9/9	c.1212A>C	p.Ter404CysextTer8	0	0	-0.105787	-0.389732	16.52	0.685966736312554	17.10287	4.17	0.97	0	0.229	1	8.904	0.97549	0.360877	-7.29	Conflicting_classifications_of_pathogenicity	0	0	0	8	P60484
chr10_87965472_A/G	chr10	87965472	G	ENSG00000171862	ENST00000371953	stop_lost	2057	1212	404	W	tgA	tgG	A	1	SNV	PTEN	protein_coding	YES	MANE_Select	NM_000314.8	ENSP00000361021	-	9/9	c.1212A>G	p.Ter404TrpextTer8	0	0	-0.112088	-0.398783	17.18	0.901826584886258	17.10287	4.17	0.915	0	0.229	1	8.904	0.97183	0.360877	-7.01	Likely_pathogenic	0	0	0	8	P60484
chr10_87965472_A/T	chr10	87965472	T	ENSG00000171862	ENST00000371953	stop_lost	2057	1212	404	C	tgA	tgT	A	1	SNV	PTEN	protein_coding	YES	MANE_Select	NM_000314.8	ENSP00000361021	-	9/9	c.1212A>T	p.Ter404CysextTer8	0	0	-0.102827	-0.385481	17.5	0.690568983408638	17.10287	4.17	0.97	0	0.229	1	8.904	0.97244	0.360877	-8.12	Pathogenic	0	0	0	8	P60484
chr10_88935225_A/G	chr10	88935225	G	ENSG00000107796	ENST00000224784	stop_lost	1198	1132	378	Q	Taa	Caa	A	-1	SNV	ACTA2	protein_coding	YES	MANE_Select	NM_001613.4	ENSP00000224784	-	9/9	c.1132T>C	p.Ter378GlnextTer14	0	0	-0.0192286	-0.265397	19.75	0.859424119511036	20.28413	5.62	0.86	6.083e-07	0.287	1	9.239	0.97964	0.279481	-10.61	Uncertain_significance	0	0	0	14	P62736
chr10_89014450_G/C	chr10	89014450	C	ENSG00000026103	ENST00000652046	stop_lost	1087	1008	336	Y	taG	taC	G	1	SNV	FAS	protein_coding	YES	MANE_Select	NM_000043.6	ENSP00000498466	-	9/9	c.1008G>C	p.Ter336TyrextTer9	7.11743772241993e-05	0	-0.417764	-0.837865	5.751	0.677560430645541	2.861743	1.86	0.04	0	0.385	0.006	1.388	0.14237	0.295142	-1.59	Uncertain_significance	0	8.47675e-07	1.2443e-06	9	P25445
chr10_94852914_A/C	chr10	94852914	C	ENSG00000165841	ENST00000371321	stop_lost	1498	1473	491	C	tgA	tgC	A	1	SNV	CYP2C19	protein_coding	YES	MANE_Select	NM_000769.4	ENSP00000360372	-	9/9	c.1473A>C	p.Ter491CysextTer26	0.000427867629980074	0.001409	-0.632476	-0.688548	6.374	0.589818057785549	3.956278	2.67	0.245	8.759e-05	0.085	0.011	2.388	0.28899	0.080754	-3.64	drug_response	0	0.00125487	6.25851e-05	26	P33261
chr10_96191975_A/G	chr10	96191975	G	ENSG00000095585	ENST00000224337	stop_lost	1540	1369	457	Q	Taa	Caa	A	-1	SNV	BLNK	protein_coding	YES	MANE_Select	NM_013314.4	ENSP00000224337	-	17/17	c.1369T>C	p.Ter457GlnextTer32	0	0	0.00286576	-0.23366	17.59	0.885441342455176	14.58247	5.28	0.8	0	0.291	1	4.115	0.9229	0.295142	-4.96	Uncertain_significance	0	0	0	32	Q8WV28
chr10_97759300_A/G	chr10	97759300	G	ENSG00000155256	ENST00000684270	stop_lost	1431	1236	412	W	tgA	tgG	A	1	SNV	ZFYVE27	protein_coding	YES	MANE_Select	NM_001385875.1	ENSP00000506975	-	13/13	c.1236A>G	p.Ter412TrpextTer40	0.000173611111111111	8.567e-05	-0.0493136	-0.293126	19.33	0.854575930980163	16.27851	5.53	0.915	4.441e-05	0.073	1	6.427	0.97542	0.256867	-8	Uncertain_significance	0	1.3559e-05	1.05327e-05	40	Q5T4F4
chr10_102067800_T/C	chr10	102067800	C	ENSG00000166189	ENST00000299238	stop_lost	2452	2326	776	R	Tga	Cga	T	1	SNV	HPS6	protein_coding	YES	MANE_Select	NM_024747.6	ENSP00000299238	-	1/1	c.2326T>C	p.Ter776ArgextTer38	0.000129016147827535	0.0001636	-0.370148	-0.473276	10.86	0.683753644622452	3.30998	1.15	0.425	8.82e-05	0.116	0.001	0.969	0.09823	0.256867	-3.11	Uncertain_significance	0	0.000130507	0.000110359	38	Q86YV9
chr10_102230515_C/A	chr10	102230515	A	ENSG00000107859	ENST00000370002	stop_lost	1100	908	303	L	tGa	tTa	C	-1	SNV	PITX3	protein_coding	YES	MANE_Select	NM_005029.4	ENSP00000359019	-	4/4	c.908G>T	p.Ter303LeuextTer100	0	0	-0.0417316	-0.297721	19.02	0.925193533867364	10.26451	4.85	0.835	0	0.286	1	5.898	0.93061	0.166803	-12.89	Likely_pathogenic	0	0	0	100	O75364
chr10_102402375_G/C	chr10	102402375	C	ENSG00000077150	ENST00000661543	stop_lost	2866	2702	901	S	tGa	tCa	G	1	SNV	NFKB2	protein_coding	YES	MANE_Select	NM_001322934.2	ENSP00000499294	-	23/23	c.2702G>C	p.Ter901SerextTer24	0	0	-0.163771	-0.473022	16.69	0.884892075828228	10.84894	3.52	0.75	4.266e-06	0.394	1	4.635	0.95884	0.295142	-7.72	Uncertain_significance	0	6.15516e-06	4.582e-06	24	Q00653
chr10_102630153_T/G	chr10	102630153	G	ENSG00000107882	ENST00000369902	stop_lost	1634	1453	485	E	Tag	Gag	T	1	SNV	SUFU	protein_coding	YES	MANE_Select	NM_016169.4	ENSP00000358918	-	12/12	c.1453T>G	p.Ter485GluextTer36	0	3.353e-05	-0.0664122	-0.333173	17.59	0.84948942147064	17.29779	5.53	0.915	6.083e-07	0.102	1	6.379	0.9565	0.279481	-11.48	Uncertain_significance	0	4.00384e-05	1.85912e-06	36	Q9UMX1
chr10_102630154_A/G	chr10	102630154	G	ENSG00000107882	ENST00000369902	stop_lost	1635	1454	485	W	tAg	tGg	A	1	SNV	SUFU	protein_coding	YES	MANE_Select	NM_016169.4	ENSP00000358918	-	12/12	c.1454A>G	p.Ter485TrpextTer36	0	0	-0.0112992	-0.254007	18.56	0.910810734419022	16.57377	5.53	0.9	0	0.102	1	5.646	0.84567	0.279481	-7	Uncertain_significance	0	0	0	36	Q9UMX1
chr10_103077178_T/G	chr10	103077178	G	ENSG00000148842	ENST00000369878	stop_lost	2813	2626	876	E	Tag	Gag	T	1	SNV	CNNM2	protein_coding	YES	MANE_Select	NM_017649.5	ENSP00000358894	-	8/8	c.2626T>G	p.Ter876GluextTer28	0	0	0.0358064	-0.186343	17.87	0.893940293815387	18.87211	5.69	0.865	6.083e-07	0.086	1	7.793	0.99528	0.399407	-11.66	Uncertain_significance	0	0	0	28	Q9H8M5
chr10_103882684_T/C	chr10	103882684	C	ENSG00000107960	ENST00000224950	stop_lost	1254	1107	369	W	tgA	tgG	T	-1	SNV	STN1	protein_coding	YES	MANE_Select	NM_024928.5	ENSP00000224950	-	10/10	c.1107A>G	p.Ter369TrpextTer21	0	0	0.163701	-0.00263138	18.08	0.872307093506471	11.77184	5.29	0.85	0	0.046	1	6.609	0.93157	0.295142	-8.42	Uncertain_significance	0	0	0	21	Q9H668
chr10_111011818_A/C	chr10	111011818	C	ENSG00000108061	ENST00000369452	stop_lost	2037	1749	583	C	tgA	tgC	A	1	SNV	SHOC2	protein_coding	YES	MANE_Select	NM_007373.4	ENSP00000358464	-	9/9	c.1749A>C	p.Ter583CysextTer16	0	0	0.00166347	-0.235387	16.42	0.689282200405779	21.50619	5.64	0.85	0	0.332	1	8.997	0.98797	0.295142	-11.18	Uncertain_significance	0	0	0	16	Q9UQ13
chr10_124397942_T/C	chr10	124397942	C	ENSG00000065154	ENST00000368845	stop_lost	1400	1320	440	W	tgA	tgG	T	-1	SNV	OAT	protein_coding	YES	MANE_Select	NM_000274.4	ENSP00000357838	-	10/10	c.1320A>G	p.Ter440TrpextTer2	0	1.251e-05	0.0834405	-0.11792	19.4	0.819168370446511	11.29195	3.93	0.575	0	0.223	1	5.651	0.86211	0.295142	-7.9	Uncertain_significance	0	0	0	2	P04181
chr10_129837945_A/G	chr10	129837945	G	ENSG00000108001	ENST00000440978	stop_lost	2394	1888	630	Q	Tag	Cag	A	-1	SNV	EBF3	protein_coding	YES	MANE_Select	NM_001375380.1	ENSP00000387543	-	17/17	c.1888T>C	p.Ter630GlnextTer26	0	0	0.198294	0.0470598	15.63	0.768136398349456	2.7971	6.06	NA	0	NA	1	9.249	NA	NA	-9.54	Uncertain_significance	0	0	0	26	-
chr11_824860_T/A	chr11	824860	A	ENSG00000177666	ENST00000336615	stop_lost	1703	1513	505	R	Tga	Aga	T	1	SNV	PNPLA2	protein_coding	YES	MANE_Select	NM_020376.4	ENSP00000337701	-	10/10	c.1513T>A	p.Ter505ArgextTer21	0	0	-0.414936	-0.833804	0.007	0.687138699426925	1.065916	-4.61	0.215	0	0.161	0	-5.204	0.01609	0.256867	-0.8	Uncertain_significance	0	0	0	21	Q96AD5
chr11_2396864_T/C	chr11	2396864	C	ENSG00000110651	ENST00000263645	stop_lost	949	709	237	R	Tga	Cga	T	1	SNV	CD81	protein_coding	YES	MANE_Select	NM_004356.4	ENSP00000263645	-	8/8	c.709T>C	p.Ter237ArgextTer16	0	2.501e-05	0.14853	-0.0244231	19.37	0.871810839642265	10.06926	3.34	0.705	1.825e-06	0.329	1	4.18	0.76629	0.256867	-6.81	Uncertain_significance	0	8.47476e-07	6.201e-07	16	P60033
chr11_4091796_T/C	chr11	4091796	C	ENSG00000167323	ENST00000526596	stop_lost	2756	2149	717	Q	Tag	Cag	T	1	SNV	STIM1	protein_coding	YES	MANE_Select	NM_001382567.1	ENSP00000433266	-	13/13	c.2149T>C	p.Ter717GlnextTer27	0	0	0.0192968	-0.210058	16.81	0.881183967668818	16.48508	5.14	0.875	1.217e-06	0.399	1	5.216	0.96646	0.295142	-10.24	Uncertain_significance	0	8.47486e-07	1.24772e-06	27	-
chr11_6610609_T/C	chr11	6610609	C	ENSG00000166333	ENST00000299421	stop_lost	1498	1357	453	Q	Tag	Cag	T	1	SNV	ILK	protein_coding	YES	MANE_Select	NM_004517.4	ENSP00000299421	-	13/13	c.1357T>C	p.Ter453GlnextTer7	0	3.894e-06	-0.0303333	-0.0556464	17.82	0.908878812018793	18.3063	5.29	0.655	4.258e-06	0.546	1	7.161	0.95669	0.298561	-10.52	Uncertain_significance	0	8.90908e-05	4.33684e-06	7	Q13418
chr11_6614548_A/G	chr11	6614548	G	ENSG00000166340	ENST00000299427	stop_lost	1712	1690	564	R	Tga	Cga	A	-1	SNV	TPP1	protein_coding	YES	MANE_Select	NM_000391.4	ENSP00000299427	-	13/13	c.1690T>C	p.Ter564ArgextTer29	0	0	0.0123044	-0.220102	17.78	0.876619191818074	10.61764	4.49	0.865	0	0.167	1	4.683	0.98678	0.295142	-8.05	Uncertain_significance	0	8.4744e-07	6.19507e-07	29	O14773
chr11_8101617_T/G	chr11	8101617	G	ENSG00000166402	ENST00000299506	stop_lost	1819	1519	507	E	Tag	Gag	T	1	SNV	TUB	protein_coding	YES	MANE_Select	NM_177972.3	ENSP00000299506	-	12/12	c.1519T>G	p.Ter507GluextTer91	0	0	0.0147445	-0.216597	18.42	0.859301810076813	16.57553	4.92	0.965	0	0.404	1	8.017	0.99033	0.256867	-11.98	Uncertain_significance	0	0	0	91	P50607
chr11_19182672_A/G	chr11	19182672	G	ENSG00000129170	ENST00000265968	stop_lost	641	583	195	R	Tga	Cga	A	-1	SNV	CSRP3	protein_coding	YES	MANE_Select	NM_003476.5	ENSP00000265968	-	6/6	c.583T>C	p.Ter195ArgextTer33	0	3.894e-06	0.117407	-0.0691289	17.77	0.897507374889367	20.48884	6.06	0.91	2.434e-06	0.079	1	6.25	0.99643	0.053691	-8.1	Uncertain_significance	0	8.47492e-07	1.23908e-06	33	P50461
chr11_19182672_A/T	chr11	19182672	T	ENSG00000129170	ENST00000265968	stop_lost	641	583	195	R	Tga	Aga	A	-1	SNV	CSRP3	protein_coding	YES	MANE_Select	NM_003476.5	ENSP00000265968	-	6/6	c.583T>A	p.Ter195ArgextTer33	0	1.168e-05	0.141854	-0.0340128	17.69	0.894240115868578	20.48884	6.06	0.91	0	0.079	1	6.25	0.99677	0.053691	-11.11	Uncertain_significance	0	0	0	33	P50461
chr11_22279763_T/C	chr11	22279763	C	ENSG00000171714	ENST00000324559	stop_lost	3148	2740	914	Q	Taa	Caa	T	1	SNV	ANO5	protein_coding	YES	MANE_Select	NM_213599.3	ENSP00000315371	-	22/22	c.2740T>C	p.Ter914GlnextTer3	0	3.894e-06	-0.312661	-0.686892	10.31	0.788242426579799	5.338134	5.53	0.395	6.083e-07	0.042	0.096	2.708	0.41506	0.164513	-4.26	Uncertain_significance	0	8.49224e-07	6.20957e-07	3	Q75V66
chr11_22279764_A/C	chr11	22279764	C	ENSG00000171714	ENST00000324559	stop_lost	3149	2741	914	S	tAa	tCa	A	1	SNV	ANO5	protein_coding	YES	MANE_Select	NM_213599.3	ENSP00000315371	-	22/22	c.2741A>C	p.Ter914SerextTer3	0	0	-0.425577	-0.849089	1.76	0.590393260548619	3.143904	0.487	0.21	1.825e-06	0.042	0.054	1.094	0.11468	0.164513	-3.94	Uncertain_significance	0	3.3964e-06	2.48342e-06	3	Q75V66
chr11_22279765_A/T	chr11	22279765	T	ENSG00000171714	ENST00000324559	stop_lost	3150	2742	914	Y	taA	taT	A	1	SNV	ANO5	protein_coding	YES	MANE_Select	NM_213599.3	ENSP00000315371	-	22/22	c.2742A>T	p.Ter914TyrextTer3	0	0	-0.428594	-0.853422	0.171	0.566224368569075	2.217176	-1.8	0.115	0	0.042	0	-0.184	0.05523	0.164513	-3.71	Uncertain_significance	0	8.49482e-07	6.21086e-07	3	Q75V66
chr11_22624688_A/G	chr11	22624688	G	ENSG00000183161	ENST00000327470	stop_lost	1136	1123	375	Q	Tag	Cag	A	-1	SNV	FANCF	protein_coding	YES	MANE_Select	NM_022725.4	ENSP00000330875	-	1/1	c.1123T>C	p.Ter375GlnextTer33	0	7.788e-06	-0.410602	-0.827578	1.241	0.711360149359238	2.879143	-0.0809	0.02	1.825e-06	0.045	0	0.04	0.05498	0.12189	-1.01	Uncertain_significance	0	5.08569e-06	3.71787e-06	33	Q9NPI8
chr11_26660443_A/G	chr11	26660443	G	ENSG00000134343	ENST00000256737	stop_lost	3091	2945	982	W	tAg	tGg	A	1	SNV	ANO3	protein_coding	YES	MANE_Select	NM_031418.4	ENSP00000256737	-	27/27	c.2945A>G	p.Ter982TrpextTer7	0	3.894e-06	0.065166	-0.14417	18.72	0.849575661370481	22.32345	5.66	0.81	6.083e-07	0.352	1	8.91	0.99783	0.074636	-8.17	Uncertain_significance	0	2.54547e-06	1.86242e-06	7	Q9BYT9
chr11_31789935_T/A	chr11	31789935	A	ENSG00000007372	ENST00000640368	stop_lost	1834	1310	437	L	tAa	tTa	T	-1	SNV	PAX6	protein_coding	YES	MANE_Select	NM_001368894.2	ENSP00000492024	-	14/14	c.1310A>T	p.Ter437LeuextTer14	0	0	0.0956958	-0.100316	16.82	0.990797795821512	13.00473	5	0.995	0	0.658	1	3.848	0.96755	0.553676	-2.72	Pathogenic/Likely_pathogenic	0	0	0	14	P26367
chr11_31789936_A/G	chr11	31789936	G	ENSG00000007372	ENST00000640368	stop_lost	1833	1309	437	Q	Taa	Caa	A	-1	SNV	PAX6	protein_coding	YES	MANE_Select	NM_001368894.2	ENSP00000492024	-	14/14	c.1309T>C	p.Ter437GlnextTer14	0	0	0.0128098	-0.219376	13.18	0.7175919778414	17.72279	6.16	1	0	0.658	1	4.953	0.98866	0.553676	-7.64	Pathogenic/Likely_pathogenic	0	0	0	14	P26367
chr11_31789936_A/T	chr11	31789936	T	ENSG00000007372	ENST00000640368	stop_lost	1833	1309	437	K	Taa	Aaa	A	-1	SNV	PAX6	protein_coding	YES	MANE_Select	NM_001368894.2	ENSP00000492024	-	14/14	c.1309T>A	p.Ter437LysextTer14	0	0	-0.0117127	-0.254601	13.4	0.623491557666947	17.72279	6.16	0.985	0	0.658	1	4.953	0.98869	0.553676	-8.42	Likely_benign	0	0.0249353	0.0040276	14	P26367
chr11_32389058_T/C	chr11	32389058	C	ENSG00000184937	ENST00000452863	stop_lost	1748	1569	523	W	tgA	tgG	T	-1	SNV	WT1	protein_coding	YES	MANE_Select	NM_024426.6	ENSP00000415516	-	10/10	c.1569A>G	p.Ter523TrpextTer22	0	0	0.0179824	-0.211946	18.59	0.77624539462569	8.646999	4.62	0.8	0	0.349	1	4.726	0.50906	0.118714	-5.79	Uncertain_significance	0	0	0	22	P19544
chr11_35260895_T/A	chr11	35260895	A	ENSG00000110436	ENST00000278379	stop_lost	2316	1724	575	L	tAa	tTa	T	-1	SNV	SLC1A2	protein_coding	YES	MANE_Select	NM_004171.4	ENSP00000278379	-	11/11	c.1724A>T	p.Ter575LeuextTer10	0	0	0.0386823	-0.182212	16.55	0.777901489985536	10.48103	5.98	0.865	0	0.216	1	2.032	0.93363	0.078448	-7.53	Uncertain_significance	0	0	0	10	P43004
chr11_44244285_T/G	chr11	44244285	G	ENSG00000151348	ENST00000533608	stop_lost	2360	2155	719	G	Tga	Gga	T	1	SNV	EXT2	protein_coding	YES	MANE_Select	NM_207122.2	ENSP00000431173	-	14/14	c.2155T>G	p.Ter719GlyextTer8	0	0	0.00424417	-0.23168	15.86	0.772294490646479	16.30102	5.35	0.81	0	0.146	1	8.017	0.95678	0.295142	-11.96	Uncertain_significance	0	0	0	8	Q93063
chr11_46705863_A/G	chr11	46705863	G	ENSG00000175213	ENST00000311764	stop_lost	2180	2163	721	W	tgA	tgG	A	1	SNV	ZNF408	protein_coding	YES	MANE_Select	NM_024741.3	ENSP00000309606	-	5/5	c.2163A>G	p.Ter721TrpextTer?	0	3.342e-05	0.0266031	-0.199563	17	0.826936020524358	8.547036	3.07	0.785	0	0.006	0.407	2.702	0.71492	0.256867	-6.09	Uncertain_significance	0	8.48821e-07	6.21235e-07	?	Q9H9D4
chr11_47329149_G/T	chr11	47329149	T	ENSG00000110514	ENST00000706887	stop_lost	5154	4952	1651	L	tGa	tTa	G	1	SNV	MADD	protein_coding	YES	MANE_Select	NM_001376571.1	ENSP00000516604	-	37/37	c.4952G>T	p.Ter1651LeuextTer27	0	5.561e-05	0.0410562	-0.178802	17.68	0.859290262865574	15.29212	4.86	0.86	6.084e-06	0.312	1	4.362	0.98943	0.322412	-8.29	Uncertain_significance	0	2.66923e-05	1.23993e-06	27	-
chr11_47331871_T/C	chr11	47331871	C	ENSG00000134571	ENST00000545968	stop_lost	3880	3825	1275	W	tgA	tgG	T	-1	SNV	MYBPC3	protein_coding	YES	MANE_Select	NM_000256.3	ENSP00000442795	-	34/35	c.3825A>G	p.Ter1275TrpextTer76	0	0	-0.0232601	-0.271188	13.49	0.868136408692304	11.56835	4.23	0.985	0	0.237	0.999	2.67	0.55585	0.060467	-7.03	Uncertain_significance	0	0	0	76	Q14896
chr11_47571628_G/C	chr11	47571628	C	ENSG00000110536	ENST00000326674	stop_lost	629	605	202	S	tGa	tCa	G	1	SNV	PTPMT1	protein_coding	YES	MANE_Select	NM_175732.3	ENSP00000325958	-	4/4	c.605G>C	p.Ter202SerextTer38	0.00359154070122217	0.02042	-0.708386	-0.774067	11.32	0.812049822148461	4.519161	3.83	0.105	0.004004	0.047	0.275	1.475	0.23723	0.295142	-4.5	Benign	45	0.0214336	0.00438681	38	Q8WUK0
chr11_57614581_A/C	chr11	57614581	C	ENSG00000149131	ENST00000278407	stop_lost	1563	1503	501	C	tgA	tgC	A	1	SNV	SERPING1	protein_coding	YES	MANE_Select	NM_000062.3	ENSP00000278407	-	8/8	c.1503A>C	p.Ter501CysextTer46	0	0	-0.0764531	-0.347596	16.45	0.748511301726664	8.478927	4.8	0.98	0	0.324	0.997	5.459	0.97637	0.423528	-8.83	Conflicting_classifications_of_pathogenicity	0	0	0	46	P05155
chr11_61368709_A/C	chr11	61368709	C	ENSG00000149483	ENST00000278826	stop_lost	675	489	163	C	tgA	tgC	A	1	SNV	TMEM138	protein_coding	YES	MANE_Select	NM_016464.5	ENSP00000278826	-	5/5	c.489A>C	p.Ter163CysextTer12	0	0	0.122182	-0.0622701	18.78	0.630046149301689	20.01082	5.95	0.815	0	0.051	1	8.207	0.9932	0.256867	-10.73	Uncertain_significance	0	0	0	12	Q9NPI0
chr11_61446071_A/G	chr11	61446071	G	ENSG00000167985	ENST00000301761	stop_lost	524	501	167	W	tgA	tgG	A	1	SNV	SDHAF2	protein_coding	YES	MANE_Select	NM_017841.4	ENSP00000301761	-	4/4	c.501A>G	p.Ter167TrpextTer22	0	0	-0.0683338	-0.253068	17.78	0.896488181747312	12.20828	5.55	0.35	0	0.048	1	4.005	0.96081	0.298561	-7.37	Uncertain_significance	0	1.666e-05	6.19517e-07	22	Q9NX18
chr11_62392283_A/C	chr11	62392283	C	ENSG00000162174	ENST00000415229	stop_lost	1141	926	309	S	tAa	tCa	A	1	SNV	ASRGL1	protein_coding	YES	MANE_Select	NM_001083926.2	ENSP00000400057	-	7/7	c.926A>C	p.Ter309SerextTer10	0	0.001505	-0.724554	-0.838176	0.636	0.69698026291391	2.091546	-1.17	0.06	5.779e-05	0.012	0.001	-0.287	0.1431	0.295142	-2.08	Uncertain_significance	1	0.00166982	0.00010166	10	Q7L266
chr11_62614837_T/G	chr11	62614837	G	ENSG00000149489	ENST00000278833	stop_lost	1079	1054	352	E	Tag	Gag	T	1	SNV	ROM1	protein_coding	YES	MANE_Select	NM_000327.4	ENSP00000278833	-	3/3	c.1054T>G	p.Ter352GluextTer31	0	6.688e-05	-0.214516	-0.545914	13.68	0.82484065335689	7.178491	3.95	0.705	6.105e-07	0.045	0.998	1.324	0.72017	0.156188	-4.43	Uncertain_significance	0	1.33337e-05	6.19967e-07	31	Q03395
chr11_62615703_A/C	chr11	62615703	C	ENSG00000149541	ENST00000265471	stop_lost	1045	1006	336	G	Tga	Gga	A	-1	SNV	B3GAT3	protein_coding	YES	MANE_Select	NM_012200.4	ENSP00000265471	-	5/5	c.1006T>G	p.Ter336GlyextTer56	0	0	0.0766807	-0.12763	15.64	0.871340914683469	16.84564	4.8	0.87	0	0.012	1	8.659	0.99484	0.256867	-12.43	Uncertain_significance	0	0	0	56	O94766
chr11_64299725_A/G	chr11	64299725	G	ENSG00000182450	ENST00000422670	stop_lost	1523	1181	394	W	tAg	tGg	A	1	SNV	KCNK4	protein_coding	YES	MANE_Select	NM_033310.3	ENSP00000402797	-	7/7	c.1181A>G	p.Ter394TrpextTer88	0	0	-0.0561388	-0.318416	18.13	0.829860827339599	6.769208	1.82	0.915	0	0.261	0.952	2.28	0.80685	0.59774	-5.75	Uncertain_significance	0	0	0	88	Q9NYG8
chr11_64746660_C/A	chr11	64746660	A	ENSG00000068976	ENST00000164139	stop_lost	2604	2528	843	L	tGa	tTa	C	-1	SNV	PYGM	protein_coding	YES	MANE_Select	NM_005609.4	ENSP00000164139	-	20/20	c.2528G>T	p.Ter843LeuextTer54	0	0	-0.166743	-0.477291	18.17	0.782369517429819	5.357081	4.17	0.925	0	0.118	1	2.54	0.41709	0.139742	-7.43	Likely_pathogenic	0	0	0	54	P11217
chr11_64746661_A/T	chr11	64746661	T	ENSG00000068976	ENST00000164139	stop_lost	2603	2527	843	R	Tga	Aga	A	-1	SNV	PYGM	protein_coding	YES	MANE_Select	NM_005609.4	ENSP00000164139	-	20/20	c.2527T>A	p.Ter843ArgextTer54	0	7.788e-06	-0.00946829	-0.251377	17.53	0.890013715310627	4.329242	3.27	0.945	0	0.118	1	2.377	0.18332	0.139742	-6.7	Uncertain_significance	0	0	0	54	P11217
chr11_64804336_A/T	chr11	64804336	T	ENSG00000133895	ENST00000450708	stop_lost	1892	1831	611	R	Tga	Aga	A	-1	SNV	MEN1	protein_coding	YES	MANE_Select	NM_001370259.2	ENSP00000394933	-	10/10	c.1831T>A	p.Ter611ArgextTer21	0	0	0.0897373	-0.108875	19.29	0.877391750229453	12.47367	4.33	0.71	0	0.653	1	7.514	0.95965	0.298561	-12.46	Pathogenic	0	0	0	21	O00255
chr11_65351759_A/C	chr11	65351759	C	ENSG00000133884	ENST00000528416	stop_lost	1211	1176	392	C	tgA	tgC	A	1	SNV	DPF2	protein_coding	YES	MANE_Select	NM_006268.5	ENSP00000436901	-	11/11	c.1176A>C	p.Ter392CysextTer11	0	0	0.00223572	-0.234565	17.77	0.837124250030568	14.04596	4.72	0.77	0	0.065	1	4.185	0.99087	0.295142	-7.62	Likely_benign	0	0	0	11	Q92785
chr11_65539080_T/A	chr11	65539080	A	ENSG00000168056	ENST00000301873	stop_lost	4312	3912	1304	C	tgA	tgT	T	-1	SNV	LTBP3	protein_coding	YES	MANE_Select	NM_001130144.3	ENSP00000301873	-	28/28	c.3912A>T	p.Ter1304CysextTer12	0	0	0.0940814	-0.102635	18.11	0.93045148887602	12.57737	4.57	0.12	0	0.211	0.962	2.314	0.96382	0.256867	-8.7	Pathogenic	0	0	0	12	Q9NS15
chr11_65719783_T/C	chr11	65719783	C	ENSG00000172922	ENST00000308418	stop_lost	535	495	165	W	tgA	tgG	T	-1	SNV	RNASEH2C	protein_coding	YES	MANE_Select	NM_032193.4	ENSP00000308193	-	4/4	c.495A>G	p.Ter165TrpextTer135	0	2.781e-05	0.321314	0.223769	20.2	0.895229901532771	9.537693	3.89	0.67	0	0.025	0.827	1	0.66605	0.766844	-4.73	Uncertain_significance	0	2.6698e-05	1.23912e-06	135	Q8TDP1
chr11_65719783_T/G	chr11	65719783	G	ENSG00000172922	ENST00000308418	stop_lost	535	495	165	C	tgA	tgC	T	-1	SNV	RNASEH2C	protein_coding	YES	MANE_Select	NM_032193.4	ENSP00000308193	-	4/4	c.495A>C	p.Ter165CysextTer135	0	3.894e-06	-0.062859	-0.231215	19.34	0.779916079510615	9.537693	3.89	0.65	3.65e-06	0.025	0.827	1	0.74766	0.766844	-6.08	Uncertain_significance	0	2.19582e-05	4.95646e-06	135	Q8TDP1
chr11_66042507_T/C	chr11	66042507	C	ENSG00000175229	ENST00000312006	stop_lost	1559	1296	432	W	tgA	tgG	T	-1	SNV	GAL3ST3	protein_coding	YES	MANE_Select	NM_033036.3	ENSP00000308591	-	3/3	c.1296A>G	p.Ter432TrpextTer37	0	0	-0.113927	-0.401425	17.37	0.783819373768664	5.118683	4.17	0.665	0	0.013	0.004	0.958	0.22124	0.159608	-2.75	Uncertain_significance	0	8.92581e-07	6.78174e-07	37	Q96A11
chr11_66243280_A/C	chr11	66243280	C	ENSG00000175115	ENST00000320580	stop_lost	3107	2892	964	C	tgA	tgC	A	1	SNV	PACS1	protein_coding	YES	MANE_Select	NM_018026.4	ENSP00000316454	-	24/24	c.2892A>C	p.Ter964CysextTer96	0	0	0.0288949	-0.196271	17.84	0.84300739028905	8.750473	3.21	0.785	0	0.203	1	3.33	0.89581	0.295142	-8.4	Uncertain_significance	0	0	0	96	Q6VY07
chr11_67365138_A/G	chr11	67365138	G	ENSG00000175505	ENST00000312438	stop_lost	735	676	226	R	Tga	Cga	A	-1	SNV	CLCF1	protein_coding	YES	MANE_Select	NM_013246.3	ENSP00000309338	-	3/3	c.676T>C	p.Ter226ArgextTer170	0	0	-0.0185874	-0.264476	17.49	0.857008649563794	11.59323	4.94	0.985	0	0.153	1	6.194	0.95507	0.156188	-7.71	Pathogenic	0	0	0	170	Q9UBD9
chr11_67490993_A/T	chr11	67490993	T	ENSG00000110711	ENST00000279146	stop_lost	1126	993	331	C	tgA	tgT	A	1	SNV	AIP	protein_coding	YES	MANE_Select	NM_003977.4	ENSP00000279146	-	6/6	c.993A>T	p.Ter331CysextTer?	0	0	-0.0232601	-0.271188	20.7	0.812743863676697	10.50741	4.19	0.805	0	0.212	0.997	2.779	0.49712	0.295142	-6.32	Uncertain_significance	0	0	0	?	O00170
chr11_67991548_A/C	chr11	67991548	C	ENSG00000110057	ENST00000227471	stop_lost	1846	1792	598	G	Tga	Gga	A	-1	SNV	UNC93B1	protein_coding	YES	MANE_Select	NM_030930.4	ENSP00000227471	-	11/11	c.1792T>G	p.Ter598GlyextTer?	0	0	-0.279818	-0.639715	11.95	0.698537313011574	4.997309	3.24	0.8	0	0.049	0.007	1.035	0.16477	0.184171	-4.11	Uncertain_significance	0	0	0	?	Q9H1C4
chr11_70472871_A/G	chr11	70472871	G	ENSG00000162105	ENST00000601538	stop_lost	5813	5548	1850	Q	Taa	Caa	A	-1	SNV	SHANK2	protein_coding	YES	MANE_Select	NM_012309.5	ENSP00000469689	-	26/26	c.5548T>C	p.Ter1850GlnextTer30	0	0	0.0677871	-0.140405	16.96	0.830171832489643	20.7458	6.03	0.905	0	0.342	1	7.236	0.97598	0.184171	-8.32	Uncertain_significance	0	0	0	30	Q9UPX8
chr11_71435377_A/G	chr11	71435377	G	ENSG00000172893	ENST00000355527	stop_lost	1661	1426	476	Q	Taa	Caa	A	-1	SNV	DHCR7	protein_coding	YES	MANE_Select	NM_001360.3	ENSP00000347717	-	9/9	c.1426T>C	p.Ter476GlnextTer51	0.000147015583651867	9.301e-05	-0.297778	-0.396214	14.28	0.711605802573606	10.76058	5.12	0.97	1.217e-06	0.204	1	6.376	0.9488	0.295142	-8.31	Conflicting_classifications_of_pathogenicity	0	8.91385e-05	3.72224e-06	51	Q9UBM7
chr11_71435377_A/T	chr11	71435377	T	ENSG00000172893	ENST00000355527	stop_lost	1661	1426	476	K	Taa	Aaa	A	-1	SNV	DHCR7	protein_coding	YES	MANE_Select	NM_001360.3	ENSP00000347717	-	9/9	c.1426T>A	p.Ter476LysextTer51	0	0	-0.145672	-0.447024	14.38	0.512998814207327	10.76058	5.12	0.955	0	0.204	1	6.376	0.97191	0.295142	-11.47	Likely_pathogenic	0	0	0	51	Q9UBM7
chr11_72293368_T/C	chr11	72293368	C	ENSG00000162129	ENST00000538039	stop_lost	2090	2033	678	W	tAg	tGg	T	-1	SNV	CLPB	protein_coding	YES	MANE_Select	NM_001258392.3	ENSP00000441518	-	16/16	c.2033A>G	p.Ter678TrpextTer71	0	0	0.0398275	-0.180567	15.5	0.878111093374206	13.99748	6.07	0.95	6.089e-07	0.461	1	2.835	0.71985	0.295142	-5.48	Uncertain_significance	0	0	0	71	Q9H078
chr11_74457254_A/G	chr11	74457254	G	ENSG00000175538	ENST00000310128	stop_lost	651	310	104	Q	Taa	Caa	A	-1	SNV	KCNE3	protein_coding	YES	MANE_Select	NM_005472.5	ENSP00000310557	-	3/3	c.310T>C	p.Ter104GlnextTer62	0	3.894e-06	0.0226001	-0.205313	17.55	0.814480388928266	15.37042	5.75	0.895	6.083e-07	0.305	1	6.11	0.99015	0.162113	-8.04	Uncertain_significance	0	8.47491e-07	6.19682e-07	62	Q9Y6H6
chr11_77123868_T/C	chr11	77123868	C	ENSG00000149260	ENST00000648180	stop_lost	2080	1921	641	R	Tga	Cga	T	1	SNV	CAPN5	protein_coding	YES	MANE_Select	NM_004055.5	ENSP00000498132	-	13/13	c.1921T>C	p.Ter641ArgextTer71	0	7.788e-06	0.269735	0.149679	18.72	0.853536940286102	13.30808	5.57	0.965	4.866e-06	0.184	1	6.752	0.92669	0.295142	-8.48	Uncertain_significance	0	6.78229e-06	5.58099e-06	71	O15484
chr11_77123870_A/T	chr11	77123870	T	ENSG00000149260	ENST00000648180	stop_lost	2082	1923	641	C	tgA	tgT	A	1	SNV	CAPN5	protein_coding	YES	MANE_Select	NM_004055.5	ENSP00000498132	-	13/13	c.1923A>T	p.Ter641CysextTer71	3.15477317180895e-05	2.726e-05	0.0965205	-0.0991315	17.81	0.839150388026946	12.44096	4.43	0.935	4.258e-05	0.184	0.998	3.958	0.98427	0.295142	-10.69	Uncertain_significance	0	4.40908e-05	3.47364e-05	71	O15484
chr11_89295364_T/A	chr11	89295364	A	ENSG00000077498	ENST00000263321	stop_lost	1667	1588	530	K	Taa	Aaa	T	1	SNV	TYR	protein_coding	YES	MANE_Select	NM_000372.5	ENSP00000263321	-	5/5	c.1588T>A	p.Ter530LysextTer3	0	0	-0.108643	-0.393834	15.67	0.853686862528309	7.895641	4.97	0.47	3.65e-06	0.088	0.952	4.965	0.95651	0.077194	-8.41	Conflicting_classifications_of_pathogenicity	0	5.11456e-06	4.36358e-06	3	P14679
chr11_94180869_A/T	chr11	94180869	T	ENSG00000110218	ENST00000227638	stop_lost	1753	1281	427	C	tgA	tgT	A	1	SNV	PANX1	protein_coding	YES	MANE_Select	NM_015368.4	ENSP00000227638	-	5/5	c.1281A>T	p.Ter427CysextTer1	0	0	-0.103955	-0.3871	12.95	0.740961837383377	6.58033	2.57	0.19	0	0.177	0.998	2.814	0.95768	0.295142	-8.12	Uncertain_significance	0	0	0	1	Q96RD7
chr11_101452957_A/T	chr11	101452957	T	ENSG00000137672	ENST00000344327	stop_lost	3298	2794	932	K	Taa	Aaa	A	-1	SNV	TRPC6	protein_coding	YES	MANE_Select	NM_004621.6	ENSP00000340913	-	13/13	c.2794T>A	p.Ter932LysextTer51	0	1.251e-05	-0.0938274	-0.372553	15.92	0.65973539054652	10.23889	4.39	0.965	6.083e-07	0.554	1	5.094	0.99373	0.053691	-6.27	Uncertain_significance	0	1.66667e-05	6.19658e-07	51	Q9Y210
chr11_103479253_G/C	chr11	103479253	C	ENSG00000187240	ENST00000375735	stop_lost	13073	12924	4308	Y	taG	taC	G	1	SNV	DYNC2H1	protein_coding	YES	MANE_Select	NM_001377.3	ENSP00000364887	-	89/89	c.12924G>C	p.Ter4308TyrextTer29	7.11743772241993e-05	1.558e-05	-0.402167	-0.751816	0.983	0.476219661099427	3.548851	0.12	0.705	2.433e-06	0.146	0.915	0.806	0.74454	0.13384	-4.77	Uncertain_significance	0	6.79958e-06	4.976e-06	29	Q8NCM8
chr11_108365506_T/C	chr11	108365506	C	ENSG00000149311	ENST00000675843	stop_lost	9319	9169	3057	R	Tga	Cga	T	1	SNV	ATM	protein_coding	YES	MANE_Select	NM_000051.4	ENSP00000501606	-	63/63	c.9169T>C	p.Ter3057ArgextTer29	0	0	0.274692	0.1568	18.97	0.822140416881373	14.96328	5.09	0.89	0	0.167	1	7.637	0.97562	0.322412	-10.15	Conflicting_classifications_of_pathogenicity	0	0	0	29	Q13315
chr11_108365506_T/G	chr11	108365506	G	ENSG00000149311	ENST00000675843	stop_lost	9319	9169	3057	G	Tga	Gga	T	1	SNV	ATM	protein_coding	YES	MANE_Select	NM_000051.4	ENSP00000501606	-	63/63	c.9169T>G	p.Ter3057GlyextTer29	0	0	0.0499422	-0.166038	13.75	0.798030423528406	14.96328	5.09	0.865	0	0.167	1	7.637	0.97972	0.322412	-12.12	Likely_pathogenic	0	0	0	29	Q13315
chr11_108365507_G/C	chr11	108365507	C	ENSG00000149311	ENST00000675843	stop_lost	9320	9170	3057	S	tGa	tCa	G	1	SNV	ATM	protein_coding	YES	MANE_Select	NM_000051.4	ENSP00000501606	-	63/63	c.9170G>C	p.Ter3057SerextTer29	0	0	-0.151415	-0.455273	14.04	0.771227282992664	12.51444	4.1	0.87	0	0.167	1	3.835	0.97631	0.322412	-8.49	Likely_pathogenic	0	0	0	29	Q13315
chr11_108365508_A/G	chr11	108365508	G	ENSG00000149311	ENST00000675843	stop_lost	9321	9171	3057	W	tgA	tgG	A	1	SNV	ATM	protein_coding	YES	MANE_Select	NM_000051.4	ENSP00000501606	-	63/63	c.9171A>G	p.Ter3057TrpextTer29	0	0	0.0407318	-0.179268	17.59	0.740163334834882	13.00975	5.09	0.82	0	0.167	1	6.131	0.98266	0.322412	-8.08	Likely_pathogenic	0	0	0	29	Q13315
chr11_108365508_A/T	chr11	108365508	T	ENSG00000149311	ENST00000675843	stop_lost	9321	9171	3057	C	tgA	tgT	A	1	SNV	ATM	protein_coding	YES	MANE_Select	NM_000051.4	ENSP00000501606	-	63/63	c.9171A>T	p.Ter3057CysextTer29	0	0	0.0452305	-0.172806	19.33	0.753874455901909	13.00975	5.09	0.83	0	0.167	1	6.131	0.98113	0.322412	-10.34	Uncertain_significance	0	0	0	29	Q13315
chr11_112094968_T/A	chr11	112094968	A	ENSG00000204370	ENST00000375549	stop_lost	513	478	160	R	Tga	Aga	T	1	SNV	SDHD	protein_coding	YES	MANE_Select	NM_003002.4	ENSP00000364699	-	4/4	c.478T>A	p.Ter160ArgextTer3	0	0	0.221773	0.0807852	17.47	0.888154172438947	14.98869	4.76	0.535	0	0.267	1	5.966	0.99264	0.295142	-9.99	Uncertain_significance	0	0	0	3	O14521
chr11_112094968_T/G	chr11	112094968	G	ENSG00000204370	ENST00000375549	stop_lost	513	478	160	G	Tga	Gga	T	1	SNV	SDHD	protein_coding	YES	MANE_Select	NM_003002.4	ENSP00000364699	-	4/4	c.478T>G	p.Ter160GlyextTer3	0	0	0.026271	-0.20004	13.62	0.886236960456482	14.98869	4.76	0.58	0	0.267	1	5.966	0.99279	0.295142	-10.12	Uncertain_significance	0	0	0	3	O14521
chr11_112094969_G/C	chr11	112094969	C	ENSG00000204370	ENST00000375549	stop_lost	514	479	160	S	tGa	tCa	G	1	SNV	SDHD	protein_coding	YES	MANE_Select	NM_003002.4	ENSP00000364699	-	4/4	c.479G>C	p.Ter160SerextTer3	0	0	-0.13194	-0.427299	14.94	0.85126777751743	9.365636	3.85	0.85	0	0.267	1	1.541	0.96167	0.295142	-7.38	Uncertain_significance	0	0	0	3	O14521
chr11_112094969_G/T	chr11	112094969	T	ENSG00000204370	ENST00000375549	stop_lost	514	479	160	L	tGa	tTa	G	1	SNV	SDHD	protein_coding	YES	MANE_Select	NM_003002.4	ENSP00000364699	-	4/4	c.479G>T	p.Ter160LeuextTer3	0	4.673e-05	0.00561145	-0.229716	16.49	0.859236194692913	9.365636	3.85	0.935	1.582e-05	0.267	1	1.541	0.96018	0.295142	-7.64	Conflicting_classifications_of_pathogenicity	0	3.3004e-05	9.31388e-06	3	O14521
chr11_112094970_A/G	chr11	112094970	G	ENSG00000204370	ENST00000375549	stop_lost	515	480	160	W	tgA	tgG	A	1	SNV	SDHD	protein_coding	YES	MANE_Select	NM_003002.4	ENSP00000364699	-	4/4	c.480A>G	p.Ter160TrpextTer3	0	0	0.0731093	-0.13276	16.26	0.907292577926426	15.90586	4.76	0.55	0	0.267	1	6.605	0.99437	0.295142	-7.35	Uncertain_significance	0	0	0	3	O14521
chr11_112094970_A/T	chr11	112094970	T	ENSG00000204370	ENST00000375549	stop_lost	515	480	160	C	tgA	tgT	A	1	SNV	SDHD	protein_coding	YES	MANE_Select	NM_003002.4	ENSP00000364699	-	4/4	c.480A>T	p.Ter160CysextTer3	0	0	0.115083	-0.072468	15.81	0.900005204064543	15.90586	4.76	0.6	0	0.267	1	6.605	0.99488	0.295142	-9.88	Uncertain_significance	0	0	0	3	O14521
chr11_112233555_G/C	chr11	112233555	C	ENSG00000150787	ENST00000280362	stop_lost	454	438	146	Y	taG	taC	G	1	SNV	PTS	protein_coding	YES	MANE_Select	NM_000317.3	ENSP00000280362	-	6/6	c.438G>C	p.Ter146TyrextTer70	0	0	-0.0815811	-0.354962	9.643	0.753139620228463	8.877128	3.02	0.905	0	0.3	0.995	2.333	0.93048	0.322412	-8.25	Uncertain_significance	0	0	0	70	Q03393
chr11_117412166_T/C	chr11	117412166	C	ENSG00000110274	ENST00000278935	stop_lost	4529	4381	1461	R	Tga	Cga	T	1	SNV	CEP164	protein_coding	YES	MANE_Select	NM_014956.5	ENSP00000278935	-	33/33	c.4381T>C	p.Ter1461ArgextTer57	0	0	-0.156621	-0.462751	14.91	0.803646488620738	6.090429	4.12	0.905	0	0.008	0.941	5.535	0.80001	0.295142	-7.38	Pathogenic	0	0	0	57	Q9UPV0
chr11_118137028_C/G	chr11	118137028	G	ENSG00000177098	ENST00000324727	stop_lost	836	686	229	S	tGa	tCa	C	-1	SNV	SCN4B	protein_coding	YES	MANE_Select	NM_174934.4	ENSP00000322460	-	5/5	c.686G>C	p.Ter229SerextTer25	0	0	-0.176915	-0.491902	17.84	0.719429996993834	10.42545	3.17	0.885	0	0.288	1	3.992	0.94984	0.162113	-9.8	Uncertain_significance	0	0	0	25	Q8IWT1
chr11_119093281_T/G	chr11	119093281	G	ENSG00000256269	ENST00000652429	stop_lost	1237	1084	362	E	Taa	Gaa	T	1	SNV	HMBS	protein_coding	YES	MANE_Select	NM_000190.4	ENSP00000498786	-	14/14	c.1084T>G	p.Ter362GluextTer31	0	3.894e-06	0.0232566	-0.20437	19.28	0.800585210372504	11.71448	4.99	0.855	0	0.44	1	6.859	0.99301	0.12324	-8.67	Uncertain_significance	0	0	0	31	P08397
chr11_119341550_A/G	chr11	119341550	G	ENSG00000235718	ENST00000619721	stop_lost	1930	1738	580	R	Tga	Cga	A	-1	SNV	MFRP	protein_coding	YES	MANE_Select	NM_031433.4	ENSP00000481824	-	13/15	c.1738T>C	p.Ter580ArgextTer2	0	0	0.0339574	-0.188999	19.62	0.921616661259328	11.83405	4.1	0.52	0	0.096	1	6.784	0.94254	0.11394	-8.35	Uncertain_significance	0	0	0	2	Q9BY79
chr11_124632236_T/C	chr11	124632236	C	ENSG00000154144	ENST00000441174	stop_lost	1454	1234	412	R	Tga	Cga	T	1	SNV	TBRG1	protein_coding	YES	MANE_Select	NM_032811.3	ENSP00000409016	-	9/9	c.1234T>C	p.Ter412ArgextTer14	0.000273875375132116	0.0003622	-0.325626	-0.399539	14.19	0.820501322183434	5.80249	4.56	0.06	0.0002786	0.005	0.89	2.182	0.50679	0.295142	-5.66	Uncertain_significance	0	0.000367914	0.000277058	14	Q3YBR2
chr12_908790_T/A	chr12	908790	A	ENSG00000060237	ENST00000315939	stop_lost	8134	7147	2383	K	Tag	Aag	T	1	SNV	WNK1	protein_coding	YES	MANE_Select	NM_018979.4	ENSP00000313059	-	28/28	c.7147T>A	p.Ter2383LysextTer2	0	0.003889	-0.304896	-0.246116	16.58	0.896524984287291	17.05113	5.24	0.41	1.217e-05	0.348	1	7.21	0.97133	0.295142	-10.74	Uncertain_significance	0	0.00212048	3.71493e-05	2	Q9H4A3
chr12_908790_T/C	chr12	908790	C	ENSG00000060237	ENST00000315939	stop_lost	8134	7147	2383	Q	Tag	Cag	T	1	SNV	WNK1	protein_coding	YES	MANE_Select	NM_018979.4	ENSP00000313059	-	28/28	c.7147T>C	p.Ter2383GlnextTer2	0	0	0.0741925	-0.131204	16.5	0.899705475148233	17.05113	5.24	0.48	0	0.348	1	7.21	0.96853	0.295142	-9.46	Uncertain_significance	0	0	0	2	Q9H4A3
chr12_4370343_C/G	chr12	4370343	G	ENSG00000118972	ENST00000237837	stop_lost	886	756	252	Y	taG	taC	C	-1	SNV	FGF23	protein_coding	YES	MANE_Select	NM_020638.3	ENSP00000237837	-	3/3	c.756G>C	p.Ter252TyrextTer32	2.82246683601468e-05	9.301e-05	-0.530205	-0.830251	10.93	0.726295028077688	5.125914	3.6	0.585	1.217e-06	0.078	0.501	1.025	0.34384	0.056701	-4.97	Uncertain_significance	0	0.000534736	1.67383e-05	32	Q9GZV9
chr12_4687106_T/A	chr12	4687106	A	ENSG00000139180	ENST00000266544	stop_lost	1145	1132	378	K	Tag	Aag	T	1	SNV	NDUFA9	protein_coding	YES	MANE_Select	NM_005002.5	ENSP00000266544	-	11/11	c.1132T>A	p.Ter378LysextTer27	0	0	-0.106004	-0.307179	14.19	0.801903608565251	8.704407	5.03	0.835	0	0.109	0.999	3.907	0.9789	0.322412	-9.07	Uncertain_significance	0	1.66622e-05	6.19529e-07	27	Q16795
chr12_5949017_A/C	chr12	5949017	C	ENSG00000110799	ENST00000261405	stop_lost	8690	8440	2814	G	Tga	Gga	A	-1	SNV	VWF	protein_coding	YES	MANE_Select	NM_000552.5	ENSP00000261405	-	52/52	c.8440T>G	p.Ter2814GlyextTer38	0	0	0.0333761	-0.189834	11.74	0.849995286547474	12.51077	5.25	0.845	0	0.115	0.989	1.815	0.91793	0.256867	-6.54	Uncertain_significance	0	0	0	38	P04275
chr12_8138285_T/C	chr12	8138285	C	ENSG00000111729	ENST00000229332	stop_lost	974	712	238	R	Tga	Cga	T	1	SNV	CLEC4A	protein_coding	YES	MANE_Select	NM_016184.4	ENSP00000229332	-	6/6	c.712T>C	p.Ter238ArgextTer6	0.00169430994244329	0.01597	-0.32669	-0.228418	11.52	0.810842838191216	4.305428	1.65	0.425	0.001336	0.391	0.472	0.892	0.36722	0.164513	-4.42	Benign	11	0.0157491	0.00108539	6	Q9UMR7
chr12_8604286_A/T	chr12	8604286	T	ENSG00000111732	ENST00000229335	stop_lost	687	595	199	R	Tga	Aga	A	-1	SNV	AICDA	protein_coding	YES	MANE_Select	NM_020661.4	ENSP00000229335	-	5/5	c.595T>A	p.Ter199ArgextTer1	0	7.788e-06	0.179102	0.0194914	20.2	0.814104332776357	15.20332	5.11	0.495	3.041e-06	0.607	1	6.226	0.96694	0.732398	-10.93	Uncertain_significance	0	4.23866e-06	3.09846e-06	1	Q9GZX7
chr12_12718944_T/G	chr12	12718944	G	ENSG00000111276	ENST00000228872	stop_lost	1067	595	199	E	Taa	Gaa	T	1	SNV	CDKN1B	protein_coding	YES	MANE_Select	NM_004064.5	ENSP00000228872	-	2/3	c.595T>G	p.Ter199GluextTer60	0	0	-0.18728	-0.506791	17.84	0.846292040805116	16.41724	5.55	0.92	0	0.115	1	5.524	0.96484	0.12324	-11.41	Uncertain_significance	0	0	0	60	P46527
chr12_12718945_A/C	chr12	12718945	C	ENSG00000111276	ENST00000228872	stop_lost	1068	596	199	S	tAa	tCa	A	1	SNV	CDKN1B	protein_coding	YES	MANE_Select	NM_004064.5	ENSP00000228872	-	2/3	c.596A>C	p.Ter199SerextTer60	0	0	-0.149931	-0.453142	17.32	0.795621945594428	13.87784	5.25	0.905	0	0.115	1	4.773	0.93554	0.12324	-9.33	Uncertain_significance	0	0	0	60	P46527
chr12_12718946_A/T	chr12	12718946	T	ENSG00000111276	ENST00000228872	stop_lost	1069	597	199	Y	taA	taT	A	1	SNV	CDKN1B	protein_coding	YES	MANE_Select	NM_004064.5	ENSP00000228872	-	2/3	c.597A>T	p.Ter199TyrextTer60	0	0	0.0310655	-0.193153	17.47	0.934697900439857	17.36544	5.55	0.91	0	0.115	1	6.427	0.97257	0.12324	-9.85	Uncertain_significance	0	0	0	60	P46527
chr12_13562783_T/G	chr12	13562783	G	ENSG00000273079	ENST00000609686	stop_lost	5163	4455	1485	C	tgA	tgC	T	-1	SNV	GRIN2B	protein_coding	YES	MANE_Select	NM_000834.5	ENSP00000477455	-	14/14	c.4455A>C	p.Ter1485CysextTer7	0	0	-0.022007	-0.269388	18.22	0.768591870105377	17.80037	5.02	0.805	0	0.039	1	7.618	0.99695	0.074636	-10.37	Uncertain_significance	0	0	0	7	Q13224
chr12_14882141_A/G	chr12	14882141	G	ENSG00000111341	ENST00000539261	stop_lost	373	310	104	R	Tga	Cga	A	-1	SNV	MGP	protein_coding	YES	MANE_Select	NM_000900.5	ENSP00000445907	-	4/4	c.310T>C	p.Ter104ArgextTer2	0.000161987041036717	5.841e-05	-0.259583	-0.547003	16.02	0.811810868265769	6.786237	5.12	0.305	1.764e-05	0.206	0.462	5.269	0.65585	0.645754	-6.64	Uncertain_significance	0	2.03401e-05	1.79695e-05	2	P08493
chr12_23534219_T/C	chr12	23534219	C	ENSG00000134532	ENST00000451604	stop_lost	2361	2292	764	W	tgA	tgG	T	-1	SNV	SOX5	protein_coding	YES	MANE_Select	NM_006940.6	ENSP00000398273	-	15/15	c.2292A>G	p.Ter764TrpextTer1	0	0	0.0499422	-0.166038	21.5	0.887636805285326	17.37329	5.96	0.73	0	0.631	1	5.492	0.97769	0.078448	-9.19	Uncertain_significance	0	0	0	1	P35711
chr12_27958559_T/C	chr12	27958559	C	ENSG00000087494	ENST00000545234	stop_lost	1103	534	178	W	tgA	tgG	T	-1	SNV	PTHLH	protein_coding	YES	MANE_Select	NM_198965.2	ENSP00000441765	-	6/6	c.534A>G	p.Ter178TrpextTer53	0	0	0.00764496	-0.226795	18.81	0.915953663515997	13.68044	5.58	0.995	0	0.263	1	3.443	0.8615	0.162113	-5.27	Pathogenic	0	0	0	53	P12272
chr12_47973407_T/A	chr12	47973407	A	ENSG00000139219	ENST00000380518	stop_lost	4619	4464	1488	Y	taA	taT	T	-1	SNV	COL2A1	protein_coding	YES	MANE_Select	NM_001844.5	ENSP00000369889	-	54/54	c.4464A>T	p.Ter1488TyrextTer34	0	0	0.198867	0.047882	16.49	0.854548133292552	8.847466	2.23	0.93	0	0.618	1	5.059	0.97751	0.360735	-9.95	Uncertain_significance	0	0	0	34	P02458
chr12_47973408_T/G	chr12	47973408	G	ENSG00000139219	ENST00000380518	stop_lost	4618	4463	1488	S	tAa	tCa	T	-1	SNV	COL2A1	protein_coding	YES	MANE_Select	NM_001844.5	ENSP00000369889	-	54/54	c.4463A>C	p.Ter1488SerextTer34	0	0	0.116613	-0.0702696	16.16	0.869449379841336	13.3536	4.62	0.975	0	0.618	1	3.489	0.98768	0.360735	-10.37	Uncertain_significance	0	0	0	34	P02458
chr12_47973409_A/C	chr12	47973409	C	ENSG00000139219	ENST00000380518	stop_lost	4617	4462	1488	E	Taa	Gaa	A	-1	SNV	COL2A1	protein_coding	YES	MANE_Select	NM_001844.5	ENSP00000369889	-	54/54	c.4462T>G	p.Ter1488GluextTer34	0	0	0.0385828	-0.182355	17.94	0.863171733996622	16.29151	4.62	0.965	0	0.618	1	9.267	0.99484	0.360735	-11.85	Uncertain_significance	0	0	0	34	P02458
chr12_47973409_A/G	chr12	47973409	G	ENSG00000139219	ENST00000380518	stop_lost	4617	4462	1488	Q	Taa	Caa	A	-1	SNV	COL2A1	protein_coding	YES	MANE_Select	NM_001844.5	ENSP00000369889	-	54/54	c.4462T>C	p.Ter1488GlnextTer34	0	0	0.0909327	-0.107158	17.98	0.866492253104639	16.29151	4.62	0.975	0	0.618	1	9.267	0.99449	0.360735	-9.36	Uncertain_significance	0	0	0	34	P02458
chr12_47973409_A/T	chr12	47973409	T	ENSG00000139219	ENST00000380518	stop_lost	4617	4462	1488	K	Taa	Aaa	A	-1	SNV	COL2A1	protein_coding	YES	MANE_Select	NM_001844.5	ENSP00000369889	-	54/54	c.4462T>A	p.Ter1488LysextTer34	0	0	0.076909	-0.127302	18.05	0.90595961734586	16.29151	4.62	0.97	0	0.618	1	9.267	0.99471	0.360735	-12.05	Uncertain_significance	0	0	0	34	P02458
chr12_56005025_T/A	chr12	56005025	A	ENSG00000139531	ENST00000266971	stop_lost	1819	1636	546	R	Tga	Aga	T	1	SNV	SUOX	protein_coding	YES	MANE_Select	NM_001032386.2	ENSP00000266971	-	5/5	c.1636T>A	p.Ter546ArgextTer14	0	0.0006449	-0.265322	-0.183972	14.37	0.848514776625658	7.784781	4.42	0.755	4.745e-05	0.442	0.987	2.142	0.54453	0.262962	-4.95	Conflicting_classifications_of_pathogenicity	3	0.00161414	9.37429e-05	14	P51687
chr12_57583177_T/C	chr12	57583177	C	ENSG00000155980	ENST00000455537	stop_lost	3325	3097	1033	Q	Taa	Caa	T	1	SNV	KIF5A	protein_coding	YES	MANE_Select	NM_004984.4	ENSP00000408979	-	28/29	c.3097T>C	p.Ter1033GlnextTer46	0	0	-0.0329835	-0.285155	18.63	0.899917901821035	16.04856	4.69	0.965	0	0.34	1	6.008	0.9567	0.250003	-10.76	Uncertain_significance	0	0	0	46	Q12840
chr12_57748526_C/A	chr12	57748526	A	ENSG00000135446	ENST00000257904	stop_lost	1066	911	304	L	tGa	tTa	C	-1	SNV	CDK4	protein_coding	YES	MANE_Select	NM_000075.4	ENSP00000257904	-	8/8	c.911G>T	p.Ter304LeuextTer46	0	0	-0.0844395	-0.359068	15.06	0.860415260380416	6.957014	1.82	0.785	6.084e-07	0.36	0.898	0.186	0.86722	0.295142	-7.38	Uncertain_significance	0	2.19964e-05	1.2428e-06	46	P11802
chr12_57748527_A/T	chr12	57748527	T	ENSG00000135446	ENST00000257904	stop_lost	1065	910	304	R	Tga	Aga	A	-1	SNV	CDK4	protein_coding	YES	MANE_Select	NM_000075.4	ENSP00000257904	-	8/8	c.910T>A	p.Ter304ArgextTer46	0	0	0.210703	0.0648834	16.64	0.860516768853521	8.899341	3.47	0.785	0	0.36	0.965	1.586	0.75963	0.295142	-7.72	Uncertain_significance	0	0	0	46	P11802
chr12_63809092_A/C	chr12	63809092	C	ENSG00000118600	ENST00000261234	stop_lost	1384	1332	444	Y	taA	taC	A	1	SNV	RXYLT1	protein_coding	YES	MANE_Select	NM_014254.3	ENSP00000261234	-	6/6	c.1332A>C	p.Ter444TyrextTer4	5.67697984672154e-05	0.000215	-0.441514	-0.67899	6.386	0.741433054336286	4.175319	1.05	0.175	2.867e-05	0.011	0.993	3.119	0.73502	0.163922	-6.68	Uncertain_significance	0	3.72449e-05	2.86793e-05	4	Q9Y2B1
chr12_64716742_T/C	chr12	64716742	C	ENSG00000135677	ENST00000258145	stop_lost	1788	1658	553	W	tAg	tGg	T	-1	SNV	GNS	protein_coding	YES	MANE_Select	NM_002076.4	ENSP00000258145	-	14/14	c.1658A>G	p.Ter553TrpextTer16	0	1e-04	-0.173809	-0.232395	17.04	0.832419146648805	8.956154	5.48	0.725	2.069e-05	0.271	0.994	1.337	0.90776	0.322412	-5.01	Uncertain_significance	0	0.000116709	5.63091e-06	16	P15586
chr12_68839847_T/C	chr12	68839847	C	ENSG00000135679	ENST00000258149	stop_lost	1793	1492	498	Q	Tag	Cag	T	1	SNV	MDM2	protein_coding	YES	MANE_Select	NM_002392.6	ENSP00000258149	-	11/11	c.1492T>C	p.Ter498GlnextTer5	0	0	0.0147884	-0.216534	16.08	0.826333613037626	14.04227	5.24	0.98	0	0.624	1	4.14	0.8649	0.256867	-5.54	Likely_pathogenic	0	0	0	5	Q00987
chr12_69610007_A/G	chr12	69610007	G	ENSG00000198812	ENST00000361484	stop_lost	901	832	278	R	Tga	Cga	A	-1	SNV	LRRC10	protein_coding	YES	MANE_Select	NM_201550.4	ENSP00000355166	-	1/1	c.832T>C	p.Ter278ArgextTer40	6.5772165219679e-05	6.488e-05	-0.393234	-0.565962	14.52	0.894926605078533	7.139128	3.73	0.4	5.961e-05	0.011	1	1.424	0.61673	0.06567	-5.57	Uncertain_significance	0	7.96929e-05	6.19838e-05	40	Q5BKY1
chr12_79775930_T/A	chr12	79775930	A	ENSG00000058272	ENST00000450142	stop_lost	3258	3092	1031	L	tAa	tTa	T	-1	SNV	PPP1R12A	protein_coding	YES	MANE_Select	NM_002480.3	ENSP00000389168	-	25/25	c.3092A>T	p.Ter1031LeuextTer71	0	0	0.200211	0.0498121	7.468	0.809973642529412	6.8116	3.4	0.945	0	0.609	0.998	1.775	0.95359	0.322412	-2.3	Uncertain_significance	0	0	0	71	O14974
chr12_101684403_T/G	chr12	101684403	G	ENSG00000196091	ENST00000361466	stop_lost	3614	3514	1172	G	Tga	Gga	T	1	SNV	MYBPC1	protein_coding	YES	MANE_Select	NM_002465.4	ENSP00000354849	-	31/32	c.3514T>G	p.Ter1172GlyextTer6	0	3.894e-06	-0.0329786	-0.285148	15.84	0.738217167107276	4.475119	5.85	0.7	0	0.283	1	7.674	0.96411	0.06567	-7.75	Uncertain_significance	0	0	0	6	Q00872
chr12_109596575_T/C	chr12	109596575	C	ENSG00000110921	ENST00000228510	stop_lost	1283	1189	397	R	Tga	Cga	T	1	SNV	MVK	protein_coding	YES	MANE_Select	NM_000431.4	ENSP00000228510	-	11/11	c.1189T>C	p.Ter397ArgextTer34	0	0	0.108997	-0.0812105	18.63	0.8848657439303	9.139052	4.9	0.995	0	0.343	1	4.023	0.89148	0.184171	-5.81	Conflicting_classifications_of_pathogenicity	0	0	0	34	Q03426
chr12_109783622_T/C	chr12	109783622	C	ENSG00000111199	ENST00000261740	stop_lost	2695	2615	872	W	tAg	tGg	T	-1	SNV	TRPV4	protein_coding	YES	MANE_Select	NM_021625.5	ENSP00000261740	-	16/16	c.2615A>G	p.Ter872TrpextTer102	0	9.269e-06	0.0116719	-0.0388637	17.01	0.846853263568543	11.51192	5.33	0.96	1.825e-06	0.533	1	3.991	0.88035	0.295142	-7	Uncertain_significance	0	4.00352e-05	2.47963e-06	102	Q9HBA0
chr12_110346469_G/C	chr12	110346469	C	ENSG00000174437	ENST00000539276	stop_lost	3671	3128	1043	S	tGa	tCa	G	1	SNV	ATP2A2	protein_coding	YES	MANE_Select	NM_170665.4	ENSP00000440045	-	20/20	c.3128G>C	p.Ter1043SerextTer10	0	0	-0.127208	-0.420502	17.67	0.816044966382956	47.57206	6.07	0.855	0	0.427	1	10.003	0.98484	0.256867	-10.92	Uncertain_significance	0	0	0	10	P16615
chr12_110911079_A/C	chr12	110911079	C	ENSG00000111245	ENST00000228841	stop_lost	549	499	167	E	Tag	Gag	A	-1	SNV	MYL2	protein_coding	YES	MANE_Select	NM_000432.4	ENSP00000228841	-	7/7	c.499T>G	p.Ter167GluextTer?	0	0	-0.095352	-0.374743	16.39	0.723694344243643	12.49247	4.95	0.86	0	0.105	1	6.624	0.88978	0.162113	-8.88	Uncertain_significance	0	0	0	?	P10916
chr12_110911079_A/G	chr12	110911079	G	ENSG00000111245	ENST00000228841	stop_lost	549	499	167	Q	Tag	Cag	A	-1	SNV	MYL2	protein_coding	YES	MANE_Select	NM_000432.4	ENSP00000228841	-	7/7	c.499T>C	p.Ter167GlnextTer?	0	0	-0.019152	-0.265287	16.49	0.730074161078222	12.49247	4.95	0.84	0	0.105	1	6.624	0.78069	0.162113	-3.64	Likely_pathogenic	0	0	0	?	P10916
chr12_112504764_A/G	chr12	112504764	G	ENSG00000179295	ENST00000351677	stop_lost	1947	1782	594	W	tgA	tgG	A	1	SNV	PTPN11	protein_coding	YES	MANE_Select	NM_002834.5	ENSP00000340944	-	15/16	c.1782A>G	p.Ter594TrpextTer19	0	0	0.0446826	-0.173593	19.49	0.882310729651327	19.02792	5.65	0.9	0	0.598	1	8.15	0.99299	0.295142	-8.71	Uncertain_significance	0	0	0	19	Q06124
chr12_122208383_A/G	chr12	122208383	G	ENSG00000184047	ENST00000464942	stop_lost	756	718	240	R	Tga	Cga	A	-1	SNV	DIABLO	protein_coding	YES	MANE_Select	NM_001371333.1	ENSP00000442360	-	6/6	c.718T>C	p.Ter240ArgextTer48	0	6.686e-05	0.131789	-0.0484704	16.78	0.894358474947475	17.90286	5.66	0.94	6.083e-07	0.47	1	7.31	0.98358	0.295142	-9.13	Likely_pathogenic	0	1.69496e-06	1.24072e-06	48	Q9NR28
chr12_132621970_T/C	chr12	132621970	C	ENSG00000187848	ENST00000643471	stop_lost	1455	1414	472	R	Tga	Cga	T	1	SNV	P2RX2	protein_coding	YES	MANE_Select	NM_170682.4	ENSP00000494644	-	11/11	c.1414T>C	p.Ter472ArgextTer92	0	6.686e-05	-0.0310732	0.0179129	15.81	0.838156333338391	9.072298	4.11	0.525	1.83e-06	0.46	0.753	0.374	0.93719	0.092769	-5.19	Uncertain_significance	0	0.000155971	4.33804e-06	92	Q9UBL9
chr13_27963117_A/G	chr13	27963117	G	ENSG00000165556	ENST00000381020	stop_lost	1249	940	314	R	Tga	Cga	A	-1	SNV	CDX2	protein_coding	YES	MANE_Select	NM_001265.6	ENSP00000370408	-	3/3	c.940T>C	p.Ter314ArgextTer13	0	0	0.156273	-0.0133007	18.31	0.895078114240946	13.88778	5.37	0.715	0	0.116	0.988	1.159	0.81436	0.095506	-7.08	Likely_pathogenic	0	0	0	13	Q99626
chr13_32398768_T/G	chr13	32398768	G	ENSG00000139618	ENST00000380152	stop_lost	10454	10255	3419	E	Taa	Gaa	T	1	SNV	BRCA2	protein_coding	YES	MANE_Select	NM_000059.4	ENSP00000369497	-	27/27	c.10255T>G	p.Ter3419GluextTer10	0	0	-0.448511	-0.882032	0.07	0.679046651396061	2.029868	-6.82	0.205	0	0.187	0	-0.572	0.02708	0.359288	-0.87	Uncertain_significance	0	0	0	10	P51587
chr13_36304365_T/A	chr13	36304365	A	ENSG00000133104	ENST00000438666	stop_lost	2173	2001	667	C	tgA	tgT	T	-1	SNV	SPART	protein_coding	YES	MANE_Select	NM_015087.5	ENSP00000406061	-	9/9	c.2001A>T	p.Ter667CysextTer1	0	3.707e-05	-0.380739	-0.603154	9.746	0.857060024314906	4.530249	3.95	0.25	3.041e-06	0.161	0	-0.23	0.34063	0.295142	-2.02	Uncertain_significance	0	5.3376e-05	2.47839e-06	1	Q8N0X7
chr13_36304367_A/T	chr13	36304367	T	ENSG00000133104	ENST00000438666	stop_lost	2171	1999	667	R	Tga	Aga	A	-1	SNV	SPART	protein_coding	YES	MANE_Select	NM_015087.5	ENSP00000406061	-	9/9	c.1999T>A	p.Ter667ArgextTer1	3.38401840906015e-05	0.004403	-0.527665	-0.530327	15.56	0.895675782254745	5.432852	3.92	0.225	0.0002804	0.161	0.01	1.976	0.14239	0.295142	-7.06	Likely_benign	1	0.00413091	0.000206317	1	Q8N0X7
chr13_48261222_T/A	chr13	48261222	A	ENSG00000136156	ENST00000647800	stop_lost	954	799	267	R	Tga	Aga	T	1	SNV	ITM2B	protein_coding	YES	MANE_Select	NM_021999.5	ENSP00000497221	-	6/6	c.799T>A	p.Ter267ArgextTer11	0	0	0.00664596	-0.22823	18.44	0.795570275469494	14.60176	5.68	0.955	0	0.339	1	3.891	0.96289	0.322412	-7.36	Pathogenic	0	0	0	11	Q9Y287
chr13_48261223_G/T	chr13	48261223	T	ENSG00000136156	ENST00000647800	stop_lost	955	800	267	L	tGa	tTa	G	1	SNV	ITM2B	protein_coding	YES	MANE_Select	NM_021999.5	ENSP00000497221	-	6/6	c.800G>T	p.Ter267LeuextTer11	0	0	-0.123081	-0.414574	17.77	0.781109889641532	14.83698	4.84	0.92	0	0.339	1	6.505	0.97403	0.322412	-7.52	Likely_pathogenic	0	1.1039e-05	6.25553e-07	11	Q9Y287
chr13_51934758_A/G	chr13	51934758	G	ENSG00000123191	ENST00000242839	stop_lost	4509	4396	1466	R	Tga	Cga	A	-1	SNV	ATP7B	protein_coding	YES	MANE_Select	NM_000053.4	ENSP00000242839	-	21/21	c.4396T>C	p.Ter1466ArgextTer1	3.74953130858643e-05	3.894e-06	-0.0327844	-0.284869	15.35	0.871979547122344	8.989	4.16	0.995	6.083e-07	0.46	1	1.826	0.91944	0.150579	-5.36	Conflicting_classifications_of_pathogenicity	0	1.09806e-05	1.23946e-06	1	P35670
chr13_72759797_A/G	chr13	72759797	G	ENSG00000083520	ENST00000377767	stop_lost	2943	2875	959	Q	Tag	Cag	A	-1	SNV	DIS3	protein_coding	YES	MANE_Select	NM_014953.5	ENSP00000366997	-	21/21	c.2875T>C	p.Ter959GlnextTer14	0.0024029975536494	0.003049	-0.369057	-0.303046	15.53	0.890176948485444	14.04957	6.06	0.83	0.002533	0.183	1	4.271	0.94695	0.322412	-4.76	Likely_benign	11	0.00325608	0.00261131	14	Q9Y2L1
chr13_73015918_A/G	chr13	73015918	G	ENSG00000083535	ENST00000326291	stop_lost	2537	2273	758	W	tAg	tGg	A	1	SNV	PIBF1	protein_coding	YES	MANE_Select	NM_006346.4	ENSP00000317144	-	18/18	c.2273A>G	p.Ter758TrpextTer19	2.82326369282891e-05	3.344e-05	-0.232298	-0.571457	13.18	0.859270265766853	5.600465	3.56	0.72	2.434e-06	0.106	0.217	1.943	0.27903	0.322412	-3.84	Uncertain_significance	0	3.44075e-06	2.52544e-06	19	Q8WXW3
chr13_85793985_A/G	chr13	85793985	G	ENSG00000184564	ENST00000647374	stop_lost	3054	2524	842	Q	Tag	Cag	A	-1	SNV	SLITRK6	protein_coding	YES	MANE_Select	NM_032229.3	ENSP00000495507	-	2/2	c.2524T>C	p.Ter842GlnextTer12	0	0	-0.159432	-0.36616	15.14	0.861362645589104	14.51164	6	NA	3.65e-06	NA	1	2.156	0.94719	0.053691	-5.37	Uncertain_significance	0	1.7701e-05	2.51534e-06	12	Q9H5Y7
chr13_103046133_C/G	chr13	103046133	G	ENSG00000125255	ENST00000245312	stop_lost	1215	1047	349	Y	taG	taC	C	-1	SNV	SLC10A2	protein_coding	YES	MANE_Select	NM_000452.3	ENSP00000245312	-	6/6	c.1047G>C	p.Ter349TyrextTer17	0	1.947e-05	-0.490694	-0.84577	2.113	0.58376140209979	3.322374	0.899	0.395	4.258e-06	0.063	0.228	0.389	0.07788	0.074636	-4.36	Uncertain_significance	0	2.19592e-05	6.19662e-06	17	Q12908
chr13_103046135_A/G	chr13	103046135	G	ENSG00000125255	ENST00000245312	stop_lost	1213	1045	349	Q	Tag	Cag	A	-1	SNV	SLC10A2	protein_coding	YES	MANE_Select	NM_000452.3	ENSP00000245312	-	6/6	c.1045T>C	p.Ter349GlnextTer17	0	3.343e-05	-0.47946	-0.74496	7.562	0.691516479777189	5.342885	4.19	0.575	1.338e-05	0.063	0.947	1.238	0.48442	0.074636	-3.08	Uncertain_significance	0	1.33326e-05	8.05561e-06	17	Q12908
chr13_110641537_T/G	chr13	110641537	G	ENSG00000134905	ENST00000257347	stop_lost	1718	1695	565	C	tgA	tgC	T	-1	SNV	CARS2	protein_coding	YES	MANE_Select	NM_024537.4	ENSP00000257347	-	15/15	c.1695A>C	p.Ter565CysextTer37	0	0	-0.354894	-0.664692	11.03	0.540935810555379	3.875369	3.47	0.55	1.217e-06	0.002	0.025	0.472	0.50465	0.283894	-3.29	Uncertain_significance	0	1.66589e-05	6.20265e-07	37	Q9HA77
chr13_110641539_A/C	chr13	110641539	C	ENSG00000134905	ENST00000257347	stop_lost	1716	1693	565	G	Tga	Gga	A	-1	SNV	CARS2	protein_coding	YES	MANE_Select	NM_024537.4	ENSP00000257347	-	15/15	c.1693T>G	p.Ter565GlyextTer37	0	0	-0.396003	-0.806607	0.445	0.64229624248919	2.843011	0.448	0.4	0	0.002	0.004	0.221	0.36098	0.283894	-3.2	Uncertain_significance	0	0	0	37	Q9HA77
chr13_114326280_G/T	chr13	114326280	T	ENSG00000198824	ENST00000361283	stop_lost	2757	2438	813	L	tGa	tTa	G	1	SNV	CHAMP1	protein_coding	YES	MANE_Select	NM_032436.4	ENSP00000354730	-	3/3	c.2438G>T	p.Ter813LeuextTer1	0	1.251e-05	-0.193708	-0.516025	11.06	0.794728725919697	4.490598	2.24	0.235	1.217e-06	0.015	0.998	1.253	0.91657	0.295142	-6.1	Uncertain_significance	0	1.2113e-05	3.84231e-06	1	Q96JM3
chr14_21351214_T/C	chr14	21351214	C	ENSG00000092200	ENST00000400017	stop_lost	3974	3859	1287	R	Tga	Cga	T	1	SNV	RPGRIP1	protein_coding	YES	MANE_Select	NM_020366.4	ENSP00000382895	-	25/25	c.3859T>C	p.Ter1287ArgextTer21	0	6.253e-05	0.00429151	-0.231612	11.32	0.878290443022919	6.698319	4.5	0.7	1.643e-05	0.626	0.637	1.229	0.69738	0.115753	-3.92	Uncertain_significance	0	6.79463e-05	7.60745e-06	21	Q96KN7
chr14_22773612_A/G	chr14	22773612	G	ENSG00000155465	ENST00000674313	stop_lost	1692	1534	512	Q	Taa	Caa	A	-1	SNV	SLC7A7	protein_coding	YES	MANE_Select	NM_003982.4	ENSP00000501493	-	10/10	c.1534T>C	p.Ter512GlnextTer39	2.82246683601468e-05	7.788e-06	-0.0354584	-0.28871	13.87	0.806339276858741	13.70176	5.52	0.855	9.129e-06	0.297	0.986	5.268	0.96881	0.256867	-6.82	Uncertain_significance	0	1.10343e-05	8.68471e-06	39	Q9UM01
