dr-yoon/TAILVAR/dataset/test_data/stoploss_RME_filtered.txt
Upload_variation	Chromosome	Position	Allele	Gene	Feature	Consequence	cDNA_position	CDS_position	Protein_position	Amino_acids	Codons_REF	Codons_ALT	REF_ALLELE	STRAND	VARIANT_CLASS	SYMBOL	BIOTYPE	CANONICAL	MANE	MANE_SELECT	ENSP	SOURCE	EXON	HGVSc	HGVSp	ALFA_Total_AF	AllofUs_POPMAX_AF	BayesDel_addAF	BayesDel_noAF	CADD	DANN	Eigen_PC	GERP	MutationTaster	RegeneronME_ALL_AF	VEST4	phastCons100	phyloP100	FATHMM_MKL	fitCons_int	GPN_MSA	ClinVar_CLNSIG	gnomAD4.1_nhomalt_joint	gnomAD4.1_AF_grpmax_joint	gnomAD4.1_AF_joint	extended_length	Uniprot
chr1_10947665_A/G	chr1	10947665	G	ENSG00000175262	ENST00000377004	stop_lost	2509	2470	824	R	Tga	Cga	A	-1	SNV	C1orf127	protein_coding	YES	MANE_Select	NM_001170754.2	ENSP00000366203	-	12/13	c.2470T>C	p.Ter824ArgextTer22	9.88077201765365e-05	1.947e-05	-0.422599	-0.84481	0.335	0.473839303438363	1.899871	-1.21	0.16	2.859e-05	0	0	-0.846	0.0045	0.074636	-0.46	-	1	3.48476e-05	2.68374e-05	22	-
chr1_11846011_A/G	chr1	11846011	G	ENSG00000175206	ENST00000376480	stop_lost	553	454	152	R	Tga	Cga	A	-1	SNV	NPPA	protein_coding	YES	MANE_Select	NM_006172.4	ENSP00000365663	-	3/3	c.454T>C	p.Ter152ArgextTer2	0.164071659710172	0.4159	-0.579502	-0.461371	12.66	0.790296025254548	4.355228	0.954	0.1	0.1554	0.206	0.998	0.328	0.00117	0.093477	1.75	Benign	22231	0.408234	0.152622	2	P01160
chr1_18872845_T/G	chr1	18872845	G	ENSG00000159423	ENST00000375341	stop_lost	1724	1692	564	C	tgA	tgC	T	-1	SNV	ALDH4A1	protein_coding	YES	MANE_Select	NM_003748.4	ENSP00000364490	-	15/15	c.1692A>C	p.Ter564CysextTer38	8.43028157140448e-05	7.788e-06	-0.117417	-0.406438	18.61	0.731229523430985	9.439903	3.78	0.88	4.868e-06	0.213	1	7.242	0.98044	0.262962	-9.87	-	0	6.78438e-06	4.96065e-06	38	P30038
chr1_20114114_C/A	chr1	20114114	A	ENSG00000117215	ENST00000375105	stop_lost	476	438	146	Y	taG	taT	C	-1	SNV	PLA2G2D	protein_coding	YES	MANE_Select	NM_012400.4	ENSP00000364246	-	4/4	c.438G>T	p.Ter146TyrextTer21	0	0.001272	-0.366774	-0.764622	3.268	0.743987177354367	3.272118	1.19	0.225	0	0.012	0.018	0.203	0.21695	0.078448	-6.74	-	0	0	0	21	Q9UNK4
chr1_26475146_T/C	chr1	26475146	C	ENSG00000198830	ENST00000361427	stop_lost	444	271	91	R	Tga	Cga	T	1	SNV	HMGN2	protein_coding	YES	MANE_Select	NM_005517.4	ENSP00000355228	-	6/6	c.271T>C	p.Ter91ArgextTer125	0.0118568232662192	0	0.162414	-0.00447966	17.5	0.902554795533074	16.72583	5.48	0.685	0	0.322	1	5.772	0.95717	0.256867	-7.58	-	0	0	0	125	P05204
chr1_35115257_T/C	chr1	35115257	C	ENSG00000197056	ENST00000359858	stop_lost	3559	3427	1143	Q	Taa	Caa	T	1	SNV	ZMYM1	protein_coding	YES	MANE_Select	NM_024772.5	ENSP00000352920	-	10/10	c.3427T>C	p.Ter1143GlnextTer5	7.11743772241993e-05	1.947e-05	-0.260598	-0.612108	5.667	0.768600205468793	4.261627	4.28	0.05	6.083e-06	0.034	0.002	0.867	0.08925	0.24053	-2.73	-	0	8.57979e-07	6.35979e-07	5	Q5SVZ6
chr1_45509214_G/C	chr1	45509214	C	ENSG00000132763	ENST00000401061	stop_lost	881	848	283	S	tGa	tCa	G	1	SNV	MMACHC	protein_coding	YES	MANE_Select	NM_015506.3	ENSP00000383840	-	4/4	c.848G>C	p.Ter283SerextTer14	0.000109332343820403	0.007634	-0.478113	-0.594551	12.11	0.74051517368529	7.102379	3.51	0.715	0.0002409	0.23	0.962	1.351	0.82688	0.160901	-5.41	Conflicting_classifications_of_pathogenicity	1	0.00329924	0.000232352	14	Q9Y4U1
chr1_45509214_G/T	chr1	45509214	T	ENSG00000132763	ENST00000401061	stop_lost	881	848	283	L	tGa	tTa	G	1	SNV	MMACHC	protein_coding	YES	MANE_Select	NM_015506.3	ENSP00000383840	-	4/4	c.848G>T	p.Ter283LeuextTer14	0.000168968167722442	0.00549	-0.519086	-0.513281	14.17	0.756909853416667	7.102379	3.51	0.315	0.001648	0.23	0.962	1.351	0.82175	0.160901	-5.66	Conflicting_classifications_of_pathogenicity	4	0.00611789	0.000230493	14	Q9Y4U1
chr1_46547732_A/G	chr1	46547732	G	ENSG00000162456	ENST00000481882	stop_lost	805	373	125	R	Tga	Cga	A	-1	SNV	KNCN	protein_coding	YES	MANE_Select	NM_001322255.2	ENSP00000419705	-	4/4	c.373T>C	p.Ter125ArgextTer4	0.000911935895391485	0.01359	-0.372965	-0.296838	15.73	0.802182539809241	7.356631	2.47	0.015	0.0009388	0.003	0.994	3.877	0.83954	0.095506	-6.04	-	10	0.0131439	0.000675177	4	A6PVL3
chr1_52821629_A/G	chr1	52821629	G	ENSG00000162378	ENST00000294353	stop_lost	2436	2235	745	W	tgA	tgG	A	1	SNV	ZYG11B	protein_coding	YES	MANE_Select	NM_024646.3	ENSP00000294353	-	14/14	c.2235A>G	p.Ter745TrpextTer1	9.36329588014981e-05	0.0001003	0.0518448	-0.163305	17.83	0.876315446631959	15.43111	5.69	0.465	2.433e-06	0.006	1	4.538	0.97337	0.162113	-6.25	-	0	1.33844e-05	6.21052e-07	1	Q9C0D3
chr1_53088009_T/C	chr1	53088009	C	ENSG00000162383	ENST00000371494	stop_lost	1872	1683	561	W	tgA	tgG	T	-1	SNV	SLC1A7	protein_coding	YES	MANE_Select	NM_006671.6	ENSP00000360549	-	11/11	c.1683A>G	p.Ter561TrpextTer66	0.000445831475702185	0	0.0495996	-0.16653	18.25	0.890158096241926	12.63898	4.64	0.94	0	0.011	1	2.58	0.58097	0.056701	-6.01	-	0	0	0	66	O00341
chr1_59762582_T/C	chr1	59762582	C	ENSG00000172456	ENST00000303721	stop_lost	1725	1654	552	R	Tga	Cga	T	1	SNV	FGGY	protein_coding	YES	MANE_Select	NM_018291.5	ENSP00000305922	-	16/16	c.1654T>C	p.Ter552ArgextTer28	5.83334143519644e-05	0.0009302	-0.298969	-0.347215	15.73	0.823669170121977	5.636741	3.73	0.81	6.693e-06	0.077	0.977	4.158	0.94753	0.162113	-6.32	-	1	0.00350212	9.79364e-05	28	Q96C11
chr1_64834564_A/G	chr1	64834564	G	ENSG00000162434	ENST00000342505	stop_lost	3757	3463	1155	Q	Taa	Caa	A	-1	SNV	JAK1	protein_coding	YES	MANE_Select	NM_002227.4	ENSP00000343204	-	25/25	c.3463T>C	p.Ter1155GlnextTer3	0	0.004084	-0.389793	-0.332421	13.77	0.872597982294759	7.703528	3.09	0.15	0.0001705	0.122	0.997	0.979	0.91848	0.322412	-3.71	Likely_benign	4	0.00467518	0.000286415	3	P23458
chr1_74469879_T/A	chr1	74469879	A	ENSG00000162621	ENST00000294635	stop_lost	3855	3743	1248	L	tAa	tTa	T	-1	SNV	LRRC53	protein_coding	YES	MANE_Select	NM_001382280.1	ENSP00000294635	-	5/5	c.3743A>T	p.Ter1248LeuextTer14	6.93481276005548e-05	0.0107	-0.339929	-0.249385	2.7	0.585408384038267	NA	-0.232	NA	0	0.006	0.813	-0.017	0.55646	0.061011	-5.06	-	2	0.00994227	0.00071895	14	A6NM62
chr1_74706296_T/C	chr1	74706296	C	ENSG00000116791	ENST00000340866	stop_lost	1098	990	330	W	tgA	tgG	T	-1	SNV	CRYZ	protein_coding	YES	MANE_Select	NM_001889.4	ENSP00000339399	-	9/9	c.990A>G	p.Ter330TrpextTer1	0.000248217348136113	0.0002674	-0.547057	-0.727393	6.691	0.505220519724786	3.088326	0.204	0.18	7.786e-05	0.159	0.635	0.38	0.08214	0.322412	-4.29	-	0	0.000166389	5.55722e-05	1	Q08257
chr1_84555000_C/G	chr1	84555000	G	ENSG00000117151	ENST00000370630	stop_lost	1182	1157	386	S	tGa	tCa	C	-1	SNV	CTBS	protein_coding	YES	MANE_Select	NM_004388.3	ENSP00000359664	-	7/7	c.1157G>C	p.Ter386SerextTer40	0.000635381682853771	0.002545	-0.736312	-0.860517	5.855	0.730027536044771	2.753512	-0.273	0.61	0.0003954	0.083	0	-0.073	0.3212	0.294411	-3.61	-	0	0.00181758	0.000295817	40	Q01459
chr1_114397650_A/T	chr1	114397650	T	ENSG00000197323	ENST00000358465	stop_lost	3509	3382	1128	K	Taa	Aaa	A	-1	SNV	TRIM33	protein_coding	YES	MANE_Select	NM_015906.4	ENSP00000351250	-	20/20	c.3382T>A	p.Ter1128LysextTer51	0.000252908447142135	0	-0.0550493	-0.316851	17.23	0.912389219730967	21.18756	5.46	0.96	0	0.184	1	8.603	0.98843	0.295142	-11.02	-	0	2.72465e-05	2.78557e-06	51	Q9UPN9
chr1_117034099_T/G	chr1	117034099	G	ENSG00000134256	ENST00000682167	stop_lost	3122	3064	1022	G	Tga	Gga	T	1	SNV	CD101	protein_coding	YES	MANE_Select	NM_001256106.3	ENSP00000508039	-	9/10	c.3064T>G	p.Ter1022GlyextTer28	9.36329588014981e-05	1.251e-05	-0.397288	-0.808453	4.678	0.710629069714102	3.04684	3	0.375	1.217e-06	0.115	0.905	2.378	0.19068	0.164513	-7.01	-	0	8.47465e-07	6.19592e-07	28	Q93033
chr1_149791515_T/G	chr1	149791515	G	ENSG00000150337	ENST00000369168	stop_lost	1173	1123	375	E	Tag	Gag	T	1	SNV	FCGR1A	protein_coding	YES	MANE_Select	NM_000566.4	ENSP00000358165	-	6/6	c.1123T>G	p.Ter375GluextTer47	4.80122911465335e-05	0	-0.84393	-0.98995	0.003	0.553568611854321	1.314095	-2.79	0.265	0.0001898	0.088	0	-2.625	0.00394	0.053691	0.37	-	0	0.00230068	0.000121708	47	P12314
chr1_149887526_A/G	chr1	149887526	G	ENSG00000184270	ENST00000331128	stop_lost	440	391	131	Q	Taa	Caa	A	-1	SNV	H2AC21	protein_coding	YES	MANE_Select	NM_175065.3	ENSP00000332790	-	1/1	c.391T>C	p.Ter131GlnextTer?	8.68130914141853e-05	0	-0.310769	-0.684174	15.04	0.691330005825997	7.193593	3.83	0.29	1.217e-06	0.187	0.942	4.089	0.68581	0.046548	-8.33	-	0	1.1021e-05	6.21152e-07	?	Q8IUE6
chr1_152154746_A/G	chr1	152154746	G	ENSG00000215853	ENST00000316073	stop_lost	2418	2353	785	R	Tga	Cga	A	-1	SNV	RPTN	protein_coding	YES	MANE_Select	NM_001122965.1	ENSP00000317895	-	3/3	c.2353T>C	p.Ter785ArgextTer108	0.000137394092054042	0.0004656	-0.649852	-0.788027	0.216	0.56801433049013	1.929933	-2.54	0.35	5.353e-05	0.004	0	-0.602	0.00131	0.053691	-0.05	-	0	0.000758759	4.09137e-05	108	Q6XPR3
chr1_152350611_C/G	chr1	152350611	G	ENSG00000143520	ENST00000388718	stop_lost	7248	7175	2392	S	tGa	tCa	C	-1	SNV	FLG2	protein_coding	YES	MANE_Select	NM_001014342.3	ENSP00000373370	-	3/3	c.7175G>C	p.Ter2392SerextTer172	0.000263550110872805	0.005107	-0.786755	-0.900977	0.162	0.683508212475456	2.73856	-0.413	0.31	0.0003917	0.006	0	0.008	0.02722	0.061011	-1.45	Uncertain_significance	0	0.00551211	0.000295617	172	Q5D862
chr1_152776726_T/A	chr1	152776726	A	ENSG00000240386	ENST00000334371	stop_lost	428	355	119	R	Tga	Aga	T	1	SNV	LCE1F	protein_coding	YES	MANE_Select	NM_178354.3	ENSP00000334187	-	2/2	c.355T>A	p.Ter119ArgextTer6	9.36329588014981e-05	1.251e-05	0.0216324	-0.206703	16.52	0.846940173968074	8.558886	3.08	0.16	1.825e-06	0.04	0.956	1.549	0.92902	0.053691	-4.91	-	0	2.61063e-06	1.93953e-06	6	Q5T754
chr1_152798137_T/G	chr1	152798137	G	ENSG00000172155	ENST00000326233	stop_lost	416	343	115	G	Tga	Gga	T	1	SNV	LCE1D	protein_coding	YES	MANE_Select	NM_178352.3	ENSP00000316737	-	2/2	c.343T>G	p.Ter115GlyextTer4	0.0373832279197061	0.1021	-0.532132	-0.461491	6.887	0.564488463785114	6.107688	2.35	0.025	0.03532	0.007	0.933	0.83	0.36295	0.074636	-5.6	-	4991	0.090526	0.0504216	4	Q5T752
chr1_153149891_A/G	chr1	153149891	G	ENSG00000159516	ENST00000368748	stop_lost	280	220	74	Q	Taa	Caa	A	-1	SNV	SPRR2G	protein_coding	YES	MANE_Select	NM_001014291.4	ENSP00000357737	-	2/2	c.220T>C	p.Ter74GlnextTer3	0.000220118864186661	0.01806	-0.588199	-0.607295	4.65	0.649029390082439	3.616684	3.02	0.045	0.0004556	0.02	0.001	0.364	0.18046	0.061011	-1.87	-	18	0.0117712	0.000732314	3	Q9BYE4
chr1_153780002_A/G	chr1	153780002	G	ENSG00000143554	ENST00000624995	stop_lost	2143	2052	684	W	tgA	tgG	A	1	SNV	SLC27A3	protein_coding	YES	MANE_Select	NM_024330.4	ENSP00000485061	-	10/10	c.2052A>G	p.Ter684TrpextTer?	0.000102385128337533	0.001163	-0.130689	-0.227185	18.01	0.865952289805002	9.183485	4.26	0.81	0.0001052	0.008	0.999	4.221	0.84349	0.262962	-7.74	-	0	0.000756531	5.961e-05	?	Q5K4L6
chr1_159062694_A/C	chr1	159062694	C	ENSG00000163568	ENST00000368130	stop_lost	1184	1030	344	E	Tag	Gag	A	-1	SNV	AIM2	protein_coding	YES	MANE_Select	NM_004833.3	ENSP00000357112	-	6/6	c.1030T>G	p.Ter344GluextTer16	0.00344049784843013	0.03672	-0.825326	-0.930437	0.211	0.55497350109341	2.13258	-1.92	0.045	0.002663	0.31	0.001	-0.06	0.01249	0.295142	0.13	Conflicting_classifications_of_pathogenicity	53	0.0362435	0.00197058	16	O14862
chr1_159927347_A/C	chr1	159927347	C	ENSG00000085552	ENST00000368094	stop_lost	3753	3538	1180	G	Tga	Gga	A	-1	SNV	IGSF9	protein_coding	YES	MANE_Select	NM_001135050.2	ENSP00000357073	-	21/21	c.3538T>G	p.Ter1180GlyextTer5	3.28817572011048e-05	0.0001205	0.0323771	-0.191269	13.92	0.709273289772255	13.97462	5.41	0.69	6.083e-06	0.053	1	5.034	0.9807	0.184171	-10.73	-	0	9.34729e-05	4.33851e-06	5	Q9P2J2
chr1_160827814_T/G	chr1	160827814	G	ENSG00000122224	ENST00000263285	stop_lost	1980	1966	656	G	Tga	Gga	T	1	SNV	LY9	protein_coding	YES	MANE_Select	NM_002348.4	ENSP00000263285	-	10/10	c.1966T>G	p.Ter656GlyextTer59	0.000110704077935671	0.001272	-0.596193	-0.635643	7.886	0.715034261209745	6.142078	3.58	0.85	0.0001107	0.139	0.747	2.433	0.46704	0.164513	-6.56	-	0	0.00120825	8.59433e-05	59	Q9HBG7
chr1_161624517_A/G	chr1	161624517	G	ENSG00000162747	ENST00000650385	stop_lost	782	700	234	R	Tga	Cga	A	-1	SNV	FCGR3B	protein_coding	YES	MANE_Select	NM_001244753.2	ENSP00000497461	-	5/5	c.700T>C	p.Ter234ArgextTer21	0.000421514078570224	0	-0.654431	-0.788235	12.34	0.564963082456508	2.14906	-0.309	0.03	4.745e-05	0.292	0.015	1.485	0.00232	0.074388	0.98	-	16	0.00144801	0.00015681	21	O75015
chr1_161727661_G/C	chr1	161727661	C	ENSG00000162746	ENST00000367948	stop_lost	1514	1280	427	S	tGa	tCa	G	1	SNV	FCRLB	protein_coding	YES	MANE_Select	NM_001002901.4	ENSP00000356925	-	8/8	c.1280G>C	p.Ter427SerextTer48	0.000113584734211722	0.001687	-0.702153	-0.787847	14.42	0.6906837426966	4.094051	1.18	0.47	0.0001125	0.011	0.94	1.128	0.4772	0.119682	-5.21	-	1	0.00136664	6.98871e-05	48	Q6BAA4
chr1_175147071_A/G	chr1	175147071	G	ENSG00000120332	ENST00000239462	stop_lost	4038	3900	1300	W	tgA	tgG	A	1	SNV	TNN	protein_coding	YES	MANE_Select	NM_022093.2	ENSP00000239462	-	19/19	c.3900A>G	p.Ter1300TrpextTer4	0.000125782647584973	0.001186	-0.492595	-0.547831	14.17	0.841373659893245	7.859956	5.47	0.46	8.638e-05	0.231	0.998	3.508	0.43196	0.116174	-6.47	-	0	0.00103805	6.03544e-05	4	Q9UQP3
chr1_176842452_T/C	chr1	176842452	C	ENSG00000116183	ENST00000367662	stop_lost	6534	5374	1792	Q	Taa	Caa	T	1	SNV	PAPPA2	protein_coding	YES	MANE_Select	NM_020318.3	ENSP00000356634	-	23/23	c.5374T>C	p.Ter1792GlnextTer33	0	0.001075	-0.197086	-0.210359	13.35	0.767766376590405	9.995	3.44	0.825	2.555e-05	0.061	1	2.567	0.7498	0.074636	-5.11	-	0	0.000560181	3.28681e-05	33	Q9BXP8
chr1_196831998_A/G	chr1	196831998	G	ENSG00000244414	ENST00000320493	stop_lost	1106	992	331	W	tAg	tGg	A	1	SNV	CFHR1	protein_coding	YES	MANE_Select	NM_002113.3	ENSP00000314299	-	6/6	c.992A>G	p.Ter331TrpextTer4	0.000255741394302082	0.008523	-0.589739	-0.721862	0.618	0.518957759975316	2.834318	2.18	0.13	0.0003869	0.108	0	-0.967	0.00656	0.294411	-0.85	Conflicting_classifications_of_pathogenicity	121	0.00486527	0.000416723	4	Q03591
chr1_197008681_T/C	chr1	197008681	C	ENSG00000134389	ENST00000256785	stop_lost	1817	1708	570	R	Tga	Cga	T	1	SNV	CFHR5	protein_coding	YES	MANE_Select	NM_030787.4	ENSP00000256785	-	10/10	c.1708T>C	p.Ter570ArgextTer37	3.40971085651937e-05	0.0003721	-0.721286	-0.953844	0.137	0.262528692587788	0.6383016	-6.79	0.21	6.691e-06	0.04	0	-1.125	0.01915	0.061011	-3.86	Uncertain_significance	0	0.00270162	7.63816e-05	37	Q9BXR6
chr1_205440925_T/A	chr1	205440925	A	ENSG00000281406	ENST00000629624	stop_lost	267	102	34	C	tgA	tgT	T	-1	SNV	BLACAT1	protein_coding	YES	MANE_Select	NM_001397426.2	ENSP00000498225	-	2/2	c.102A>T	p.Ter34CysextTer16	0.000142348754448399	0.0008249	NA	NA	18.2	0.90405148139965	NA	5.11	NA	0	NA	1	6.1	NA	NA	-9.82	-	0	0.000675545	0.000190384	16	-
chr1_209675995_A/G	chr1	209675995	G	ENSG00000123689	ENST00000367029	stop_lost	481	311	104	W	tAg	tGg	A	1	SNV	G0S2	protein_coding	YES	MANE_Select	NM_015714.4	ENSP00000355996	-	2/2	c.311A>G	p.Ter104TrpextTer58	0.000595581353576797	0.004691	-0.398656	-0.343775	17.03	0.813994584939769	6.255652	4.75	0.915	0.0003194	0.039	0.995	3.446	0.95559	0.110573	-5.55	-	0	0.00482487	0.000246681	58	P27469
chr1_225399269_A/T	chr1	225399269	T	ENSG00000185842	ENST00000682510	stop_lost	14048	13854	4618	Y	taA	taT	A	1	SNV	DNAH14	protein_coding	YES	MANE_Select	NM_001367479.1	ENSP00000508305	-	86/86	c.13854A>T	p.Ter4618TyrextTer?	0.00840092699884125	0.008968	-0.2275	-0.0891767	2.709	0.778261138646706	2.11208	3.25	0.17	0.007689	0.159	0.998	1.885	0.8519	0.106106	-6.92	Likely_benign	61	0.00925041	0.00798223	?	-
chr1_241592151_T/C	chr1	241592151	C	ENSG00000117009	ENST00000366559	stop_lost	1526	1459	487	R	Tga	Cga	T	1	SNV	KMO	protein_coding	YES	MANE_Select	NM_003679.5	ENSP00000355517	-	15/15	c.1459T>C	p.Ter487ArgextTer1	0.000468305110145362	0.002855	-0.633617	-0.684713	3.794	0.522615514905414	1.793925	-5.1	0.04	0.0002178	0.126	0	-0.279	0.04043	0.464309	-1.55	-	0	0.00310791	0.000152566	1	O15229
chr1_241801215_A/C	chr1	241801215	C	ENSG00000162843	ENST00000437684	stop_lost	3480	3276	1092	Y	taA	taC	A	1	SNV	WDR64	protein_coding	YES	MANE_Select	NM_001367482.1	ENSP00000402446	-	28/28	c.3276A>C	p.Ter1092TyrextTer11	5.69018102362563e-05	2.726e-05	-0.521091	-0.668215	12.36	0.711196469947145	4.649575	2.35	0.375	4.258e-06	0.007	0.711	1.501	0.04444	0.053691	-3.69	-	0	1.95042e-05	0.000204582	11	-
chr1_247876487_T/C	chr1	247876487	C	ENSG00000162722	ENST00000366481	stop_lost	1519	1459	487	Q	Taa	Caa	T	1	SNV	TRIM58	protein_coding	YES	MANE_Select	NM_015431.4	ENSP00000355437	-	6/6	c.1459T>C	p.Ter487GlnextTer9	0.00675542127851818	0.007963	-0.625911	-0.660178	6.284	0.729644428850369	3.883961	3.18	0.05	0.007329	0.003	0.003	0.216	0.04657	0.061011	-1.58	-	41	0.00904476	0.00742115	9	Q8NG06
chr1_248204004_T/A	chr1	248204004	A	ENSG00000228198	ENST00000641626	stop_lost	992	937	313	R	Tga	Aga	T	1	SNV	OR2M3	protein_coding	YES	MANE_Select	NM_001004689.2	ENSP00000492981	-	2/2	c.937T>A	p.Ter313ArgextTer3	0.00617510073787221	0.006379	-0.792485	-0.89487	1.909	0.374443507033159	1.162773	-0.316	0.01	0.006055	0	0	0.041	0.00949	0.061011	-1.63	-	48	0.00771899	0.00613174	3	Q8NG83
chr10_1019517_T/A	chr10	1019517	A	ENSG00000148377	ENST00000277517	stop_lost	749	684	228	C	tgA	tgT	T	-1	SNV	IDI2	protein_coding	YES	MANE_Select	NM_033261.3	ENSP00000277517	-	5/5	c.684A>T	p.Ter228CysextTer23	0.0315622715086522	0.1425	-0.643292	-0.578689	3.849	0.583845897538723	3.58015	3.3	0.14	0.02942	0.004	0.192	1.403	0.39945	0.256867	-9.33	-	1269	0.141369	0.0284051	23	Q9BXS1
chr10_23120861_G/T	chr10	23120861	T	ENSG00000148450	ENST00000376510	stop_lost	578	548	183	L	tGa	tTa	G	1	SNV	MSRB2	protein_coding	YES	MANE_Select	NM_012228.4	ENSP00000365693	-	5/5	c.548G>T	p.Ter183LeuextTer24	4.29313527669257e-05	0.0001668	-0.521515	-0.707461	15.29	0.678792622943078	8.23676	5.11	0.445	1.703e-05	0.044	1	3.488	0.87359	0.295142	-8.94	-	0	0.000200294	1.17817e-05	24	Q9Y3D2
chr10_30460834_T/C	chr10	30460834	C	ENSG00000107968	ENST00000263056	stop_lost	1851	1402	468	R	Tga	Cga	T	1	SNV	MAP3K8	protein_coding	YES	MANE_Select	NM_005204.4	ENSP00000263056	-	9/9	c.1402T>C	p.Ter468ArgextTer7	7.11743772241993e-05	0.0001126	-0.0122832	-0.0297186	16.76	0.88940771646942	12.92334	5.25	0.83	7.908e-06	0.3	1	7.078	0.98273	0.295142	-9.96	Uncertain_significance	0	6.66956e-05	4.33865e-06	7	P41279
chr10_42831094_T/C	chr10	42831094	C	ENSG00000165733	ENST00000374518	stop_lost	3916	3847	1283	R	Tga	Cga	T	1	SNV	BMS1	protein_coding	YES	MANE_Select	NM_014753.4	ENSP00000363642	-	23/23	c.3847T>C	p.Ter1283ArgextTer14	9.65400061785604e-05	0.001272	-0.476496	-0.657802	6.4	0.606787544649386	3.552208	-1.18	0.285	3.65e-05	0.005	0.024	0.6	0.66929	0.295142	-1.9	-	0	0.000106257	4.29592e-05	14	Q14692
chr10_43481922_A/G	chr10	43481922	G	ENSG00000243660	ENST00000437590	stop_lost	869	624	208	W	tgA	tgG	A	1	SNV	ZNF487	protein_coding	YES	MANE_Select	NM_001355444.3	ENSP00000392335	-	4/4	c.624A>G	p.Ter208TrpextTer2	0.000213523131672598	0.01256	-0.732458	-0.817937	8.284	0.819617255349761	2.605647	0.342	0.01	0	NA	0	-0.588	0.00065	0.074636	-3.73	-	6	0.00286338	0.000298435	2	-
chr10_72885820_T/A	chr10	72885820	A	ENSG00000156026	ENST00000373053	stop_lost	1063	1054	352	R	Tga	Aga	T	1	SNV	MCU	protein_coding	YES	MANE_Select	NM_138357.3	ENSP00000362144	-	8/8	c.1054T>A	p.Ter352ArgextTer6	0.00233635366299622	0.002636	-0.270252	-0.158641	18.03	0.860684753403196	14.85095	5.13	0.24	0.002458	0.383	1	6.125	0.97367	0.360877	-9.63	Benign	19	0.00324575	0.00295971	6	Q8NE86
chr10_73130901_T/C	chr10	73130901	C	ENSG00000166321	ENST00000357321	stop_lost	1179	1057	353	Q	Tag	Cag	T	1	SNV	NUDT13	protein_coding	YES	MANE_Select	NM_015901.6	ENSP00000349874	-	9/9	c.1057T>C	p.Ter353GlnextTer21	0	0.000788	-0.350587	-0.316904	13.39	0.776736596960185	7.075007	4.26	0.765	0.0002956	0.017	1	1.164	0.39151	0.156188	-3.9	-	0	0.000949778	3.53387e-05	21	Q86X67
chr10_88606905_T/C	chr10	88606905	C	ENSG00000204022	ENST00000371939	stop_lost	1413	1099	367	Q	Taa	Caa	T	1	SNV	LIPJ	protein_coding	YES	MANE_Select	NM_001010939.3	ENSP00000361007	-	11/11	c.1099T>C	p.Ter367GlnextTer8	9.36329588014981e-05	0.0001126	-0.152041	-0.456173	13.28	0.841823686461739	5.753011	5.09	0.29	9.733e-06	0.008	0.043	2.353	0.28659	0.078448	-2.56	-	0	1.3847e-05	1.96496e-06	8	Q5W064
chr10_92694767_G/T	chr10	92694767	T	ENSG00000152804	ENST00000282728	stop_lost	844	812	271	L	tGa	tTa	G	1	SNV	HHEX	protein_coding	YES	MANE_Select	NM_002729.5	ENSP00000282728	-	4/4	c.812G>T	p.Ter271LeuextTer1	5.66027056093281e-05	0.001272	-0.128152	-0.235954	19.05	0.780161889323517	15.89081	5.44	0.43	2.92e-05	0.426	1	2.41	0.8946	0.145562	-6.65	-	0	0.000164853	1.75037e-05	1	Q03014
chr10_94852914_A/C	chr10	94852914	C	ENSG00000165841	ENST00000371321	stop_lost	1498	1473	491	C	tgA	tgC	A	1	SNV	CYP2C19	protein_coding	YES	MANE_Select	NM_000769.4	ENSP00000360372	-	9/9	c.1473A>C	p.Ter491CysextTer26	0.000427867629980074	0.001409	-0.632476	-0.688548	6.374	0.589818057785549	3.956278	2.67	0.245	8.759e-05	0.085	0.011	2.388	0.28899	0.080754	-3.64	drug_response	0	0.00125487	6.25851e-05	26	P33261
chr10_101609471_G/T	chr10	101609471	T	ENSG00000166171	ENST00000370151	stop_lost	628	612	204	Y	taG	taT	G	1	SNV	DPCD	protein_coding	YES	MANE_Select	NM_015448.3	ENSP00000359170	-	6/6	c.612G>T	p.Ter204TyrextTer?	0.000140000908113999	0.003142	-0.644798	-0.703287	12.56	0.780231443902901	6.383706	3.95	0.79	0.0001892	0.011	0.959	1.606	0.9196	0.283894	-6.74	-	1	0.00283796	0.000140037	?	Q9BVM2
chr10_116663907_T/C	chr10	116663907	C	ENSG00000165863	ENST00000588184	stop_lost	755	704	235	W	tAg	tGg	T	-1	SNV	SPMIP5	protein_coding	YES	MANE_Select	NM_001350931.2	ENSP00000465712	-	6/6	c.704A>G	p.Ter235TrpextTer11	9.36329588014981e-05	0.001272	-0.418965	-0.824105	7.616	0.635564781567033	NA	2.47	0.115	6.083e-07	0.007	0.021	0.999	0.04533	0.262962	-2.19	-	0	0.000166945	6.51129e-07	11	Q8WW14
chr10_123688158_T/G	chr10	123688158	G	ENSG00000154478	ENST00000284674	stop_lost	1065	1012	338	G	Tga	Gga	T	1	SNV	GPR26	protein_coding	YES	MANE_Select	NM_153442.4	ENSP00000284674	-	3/3	c.1012T>G	p.Ter338GlyextTer11	0.000300475213106267	0.003691	-0.428771	-0.38882	14.36	0.673833539918498	13.20474	5.59	0.28	0.0002643	0.005	1	2.368	0.91847	0.051841	-7.59	-	2	0.00379913	0.00018637	11	Q8NDV2
chr10_124760503_C/G	chr10	124760503	G	ENSG00000203791	ENST00000368836	stop_lost,splice_region_variant	930	876	292	Y	taG	taC	C	-1	SNV	EEF1AKMT2	protein_coding	YES	MANE_Select	NM_212554.4	ENSP00000357829	-	7/7	c.876G>C	p.Ter292TyrextTer2	0	0.001272	0.0446826	-0.173593	22.6	0.955822026706921	13.76171	5.05	NA	0	0.002	1	4.062	0.98051	0.732398	-7.56	-	0	0	0	2	Q5JPI9
chr10_124984990_T/A	chr10	124984990	A	ENSG00000019995	ENST00000359653	stop_lost	2496	2125	709	R	Tga	Aga	T	1	SNV	ZRANB1	protein_coding	YES	MANE_Select	NM_017580.3	ENSP00000352676	-	9/9	c.2125T>A	p.Ter709ArgextTer74	0.00111308993766696	0	-0.00415094	-0.243739	18	0.888339256687708	14.85691	5.27	0.98	0	0.005	1	7.488	0.70288	0.295142	-11.97	-	0	0.000239517	1.83293e-05	74	Q9UGI0
chr10_133625101_A/C	chr10	133625101	C	ENSG00000225899	ENST00000425520	stop_lost	888	835	279	G	Tga	Gga	A	-1	SNV	FRG2B	protein_coding	YES	MANE_Select	NM_001080998.2	ENSP00000401310	-	4/4	c.835T>G	p.Ter279GlyextTer3	0.0340281612368857	0	-0.559097	-1.04088	0.014	0.147570397833028	0.9979239	-0.218	0.005	0.0004266	0.012	0.011	-2.354	2e-04	0.061011	0.27	-	17	0.162709	0.0738218	3	Q96QU4
chr11_6482219_T/G	chr11	6482219	G	ENSG00000132286	ENST00000254616	stop_lost	326	310	104	E	Tag	Gag	T	1	SNV	TIMM10B	protein_coding	YES	MANE_Select	NM_012192.4	ENSP00000254616	-	3/3	c.310T>G	p.Ter104GluextTer16	0.00255049158967069	0.03293	-0.446895	-0.390335	17.47	0.799217196269066	10.67835	4.62	0.195	0.002974	0.023	0.465	1.785	0.50581	0.12189	-6.16	-	50	0.0339392	0.00219028	16	Q9Y5J6
chr11_6785987_A/C	chr11	6785987	C	ENSG00000279486	ENST00000641258	stop_lost	1422	950	317	S	tAg	tCg	A	1	SNV	OR2AG1	protein_coding	YES	MANE_Select	NM_001004489.3	ENSP00000493074	-	2/2	c.950A>C	p.Ter317SerextTer13	4.34140835286967e-05	0.000744	-0.543588	-0.662225	7.62	0.704543860638864	3.181986	1.57	NA	1.642e-05	NA	0.011	1.42	0.04475	0.061011	-2.06	-	0	0.000491906	2.18381e-05	13	Q9H205
chr11_18245378_C/A	chr11	18245378	A	ENSG00000134339	ENST00000256733	stop_lost	438	368	123	L	tGa	tTa	C	-1	SNV	SAA2	protein_coding	YES	MANE_Select	NM_030754.5	ENSP00000256733	-	4/4	c.368G>T	p.Ter123LeuextTer13	3.11895702077225e-05	0.0001251	-0.195265	-0.454615	18.35	0.79616700978004	11.1758	3.81	0.585	1.217e-06	0.156	0.978	0.974	0.71126	0.071141	-8.36	-	0	3.38969e-06	2.47821e-06	13	P0DJI9
chr11_34882719_A/T	chr11	34882719	T	ENSG00000149089	ENST00000395787	stop_lost	822	727	243	K	Taa	Aaa	A	-1	SNV	APIP	protein_coding	YES	MANE_Select	NM_015957.4	ENSP00000379133	-	7/7	c.727T>A	p.Ter243LysextTer11	6.93481276005548e-05	0.003009	-0.696044	-0.778143	15.72	0.657077366566728	9.811495	5.36	0.095	7.606e-05	0.01	1	7.774	0.98063	0.322412	-9.88	-	2	0.00230643	0.000137387	11	Q96GX9
chr11_45906571_A/G	chr11	45906571	G	ENSG00000234776	ENST00000449465	stop_lost	321	295	99	R	Tga	Cga	A	-1	SNV	FREY1	protein_coding	YES	MANE_Select	NM_001080446.3	ENSP00000401498	-	3/3	c.295T>C	p.Ter99ArgextTer?	0.000401284109149278	2.501e-05	-0.0443436	-0.301473	16.18	0.797721034415714	8.050387	4.57	0.385	3.65e-06	0.011	0.994	5.489	0.87981	0.060467	-5.86	-	0	8.73778e-07	6.47671e-07	?	C9JXX5
chr11_47571628_G/C	chr11	47571628	C	ENSG00000110536	ENST00000326674	stop_lost	629	605	202	S	tGa	tCa	G	1	SNV	PTPMT1	protein_coding	YES	MANE_Select	NM_175732.3	ENSP00000325958	-	4/4	c.605G>C	p.Ter202SerextTer38	0.00359154070122217	0.02042	-0.708386	-0.774067	11.32	0.812049822148461	4.519161	3.83	0.105	0.004004	0.047	0.275	1.475	0.23723	0.295142	-4.5	Benign	45	0.0214336	0.00438681	38	Q8WUK0
chr11_55269336_T/C	chr11	55269336	C	ENSG00000150244	ENST00000417545	stop_lost	786	673	225	R	Tga	Cga	T	1	SNV	TRIM48	protein_coding	YES	MANE_Select	NM_024114.5	ENSP00000402414	-	5/6	c.673T>C	p.Ter225ArgextTer167	0.0351061254136067	0.06793	-0.794661	-0.86869	1.207	0.776085214133498	1.411992	0.596	0.085	0.06122	0.004	0.001	-2.973	0.00014	0.061011	-0.1	-	12903	0.0706781	0.0650494	167	Q8IWZ4
chr11_55891632_A/C	chr11	55891632	C	ENSG00000124900	ENST00000449290	stop_lost	1451	1359	453	C	tgA	tgC	A	1	SNV	TRIM51	protein_coding	YES	MANE_Select	NM_032681.4	ENSP00000395086	-	7/7	c.1359A>C	p.Ter453CysextTer31	0.000143520068889633	0.005089	-0.709559	-0.797247	3.423	0.46061130364928	2.670048	1.36	0.12	0.0002324	0.012	0.002	0.12	0.00385	0.061011	-1.5	-	2	0.00515635	0.000247393	31	Q9BSJ1
chr11_56361195_T/G	chr11	56361195	G	ENSG00000172487	ENST00000533152	stop_lost	1004	949	317	E	Taa	Gaa	T	1	SNV	OR8J1	protein_coding	YES	MANE_Select	NM_001005205.3	ENSP00000477259	-	2/2	c.949T>G	p.Ter317GluextTer2	3.59531171352556e-05	0.0006142	-0.707649	-0.86207	8.945	0.585973495507696	3.310858	1.46	0.025	7.608e-05	0.001	0.002	0.376	0.10497	0.061011	-1.6	-	0	0.000325675	5.2752e-05	2	Q8NGP2
chr11_56742830_A/C	chr11	56742830	C	ENSG00000172457	ENST00000641668	stop_lost	1001	937	313	G	Tga	Gga	A	-1	SNV	OR9G4	protein_coding	YES	MANE_Select	NM_001005284.2	ENSP00000493182	-	2/2	c.937T>G	p.Ter313GlyextTer36	3.28817572011048e-05	2.781e-05	-0.373285	-0.773974	3.581	0.685846880940503	3.65524	2.8	NA	0	NA	0	-0.036	0.18198	0.061011	-1.62	-	0	2.67695e-05	1.24257e-06	36	-
chr11_58215722_A/G	chr11	58215722	G	ENSG00000280204	ENST00000641544	stop_lost	1112	939	313	W	tgA	tgG	A	1	SNV	OR1S1	protein_coding	YES	MANE_Select	NM_001004458.4	ENSP00000493053	-	2/2	c.939A>G	p.Ter313TrpextTer73	0.328918366529075	0.7719	-0.758506	-0.718497	8.307	0.746086690438538	3.21121	2.61	NA	0.3508	NA	0.029	0.942	0.00966	0.061011	-3.33	-	103191	0.730384	0.348336	73	-
chr11_58358126_T/G	chr11	58358126	G	ENSG00000197786	ENST00000357377	stop_lost	944	944	315	S	tAa	tCa	T	-1	SNV	OR5B17	protein_coding	YES	MANE_Select	NM_001005489.2	ENSP00000349945	-	1/1	c.944A>C	p.Ter315SerextTer?	3.53157225596836e-05	7.503e-05	-0.385519	-0.791548	5.429	0.594510957952728	2.558486	-0.479	0.01	1.156e-05	0	0	-0.157	0.04148	0.061011	-1.62	-	0	1.6306e-05	1.32339e-05	?	Q8NGF7
chr11_58358127_A/G	chr11	58358127	G	ENSG00000197786	ENST00000357377	stop_lost	943	943	315	Q	Taa	Caa	A	-1	SNV	OR5B17	protein_coding	YES	MANE_Select	NM_001005489.2	ENSP00000349945	-	1/1	c.943T>C	p.Ter315GlnextTer?	0.000586358152069732	0.003448	-0.792685	-0.915405	0.063	0.720652707636635	1.548249	-1.76	0.03	0.0002398	0	0	-2.073	0.01478	0.061011	-1.69	-	1	0.00310868	0.000191827	?	Q8NGF7
chr11_59478363_T/A	chr11	59478363	A	ENSG00000254466	ENST00000530162	stop_lost	1484	934	312	K	Tag	Aag	T	1	SNV	OR4D10	protein_coding	YES	MANE_Select	NM_001004705.2	ENSP00000436424	-	3/3	c.934T>A	p.Ter312LysextTer36	0.00320632316754903	0	-0.427536	-0.851902	2.397	0.300312192069215	2.352412	1.11	0.075	0	0.004	0.001	-0.06	0.01498	0.061011	-2.24	-	0	0.000448193	3.46922e-05	36	Q8NGI6
chr11_59896213_G/T	chr11	59896213	T	ENSG00000285231	ENST00000646438	stop_lost	609	582	194	Y	taG	taT	G	1	SNV	OOSP3	protein_coding	YES	MANE_Select	NM_001395255.1	ENSP00000495263	-	5/5	c.582G>T	p.Ter194TyrextTer7	0	0.001272	NA	NA	3.293	0.7721183754035	NA	0.918	NA	0	NA	0.135	1.14	0.01339	0.077785	-2.87	-	0	0.00189155	5.02137e-05	7	A0A2R8YFM6
chr11_60507122_T/A	chr11	60507122	A	ENSG00000071203	ENST00000016913	stop_lost	859	802	268	K	Tag	Aag	T	1	SNV	MS4A12	protein_coding	YES	MANE_Select	NM_017716.3	ENSP00000016913	-	7/7	c.802T>A	p.Ter268LysextTer1	0.000891662951404369	0	-0.466779	-0.908272	0.085	0.363398714959807	2.022995	0.521	0	0	0.033	0	-0.893	0.01988	0.078448	-3.61	-	0	0	0	1	Q9NXJ0
chr11_62392283_A/C	chr11	62392283	C	ENSG00000162174	ENST00000415229	stop_lost	1141	926	309	S	tAa	tCa	A	1	SNV	ASRGL1	protein_coding	YES	MANE_Select	NM_001083926.2	ENSP00000400057	-	7/7	c.926A>C	p.Ter309SerextTer10	0	0.001505	-0.724554	-0.838176	0.636	0.69698026291391	2.091546	-1.17	0.06	5.779e-05	0.012	0.001	-0.287	0.1431	0.295142	-2.08	Uncertain_significance	1	0.00166982	0.00010166	10	Q7L266
chr11_62602475_T/C	chr11	62602475	C	ENSG00000149499	ENST00000394773	stop_lost	3009	2691	897	W	tgA	tgG	T	-1	SNV	EML3	protein_coding	YES	MANE_Select	NM_153265.3	ENSP00000378254	-	22/22	c.2691A>G	p.Ter897TrpextTer35	0.000173731758165393	0.000493	-0.295154	-0.325486	18.29	0.867559213021795	9.328713	5.34	0.855	4.258e-05	0.071	0.992	1.721	0.85668	0.627647	-6	-	0	0.000498767	3.31504e-05	35	Q32P44
chr11_62832376_T/C	chr11	62832376	C	ENSG00000283268	ENST00000636508	stop_lost	466	375	125	W	tgA	tgG	T	-1	SNV	TEX54	protein_coding	YES	MANE_Select	NM_001395459.1	ENSP00000490507	-	1/1	c.375A>G	p.Ter125TrpextTer14	0	0.001116	NA	NA	18.1	0.801438162257387	NA	4.95	NA	0	NA	0.921	2.184	0.55974	0.046548	-5.74	-	0	0.000632574	3.88753e-05	14	A0A1B0GVG6
chr11_63163826_A/C	chr11	63163826	C	ENSG00000196600	ENST00000306494	stop_lost	2803	1642	548	E	Tag	Gag	A	-1	SNV	SLC22A25	protein_coding	YES	MANE_Select	NM_199352.6	ENSP00000307443	-	12/12	c.1642T>G	p.Ter548GluextTer41	0.000305723137127018	0.001404	-0.409096	-0.825414	0.049	0.793587634665281	3.05392	2.57	0.085	0.0003011	0.005	0	-1.675	0.01517	0.06567	-0.97	-	5	0.000300451	0.000295245	41	Q6T423
chr11_63763420_A/G	chr11	63763420	G	ENSG00000188070	ENST00000433688	stop_lost	2188	2035	679	Q	Tag	Cag	A	-1	SNV	ZFTA	protein_coding	YES	MANE_Select	NM_001144936.2	ENSP00000482180	-	5/5	c.2035T>C	p.Ter679GlnextTer35	9.36329588014981e-05	5.024e-05	-0.163967	-0.473304	15.99	0.81827342091692	NA	4.1	0.36	0	0.006	0	0.87	0.18049	0.186212	-3.48	-	0	0	0	35	C9JLR9
chr11_64371478_T/C	chr11	64371478	C	ENSG00000162302	ENST00000334205	stop_lost	2391	2317	773	Q	Taa	Caa	T	1	SNV	RPS6KA4	protein_coding	YES	MANE_Select	NM_003942.3	ENSP00000333896	-	17/17	c.2317T>C	p.Ter773GlnextTer5	0.00177902621722846	0	-0.0402237	-0.295555	15.23	0.789050427879097	8.036932	4.83	0.56	0	0.168	1	2.125	0.68923	0.256867	-7.05	-	0	0.000103659	2.23143e-05	5	O75676
chr11_65853335_G/C	chr11	65853335	C	ENSG00000172803	ENST00000308342	stop_lost	1315	1212	404	Y	taG	taC	G	1	SNV	SNX32	protein_coding	YES	MANE_Select	NM_152760.3	ENSP00000310620	-	13/13	c.1212G>C	p.Ter404TyrextTer9	0.00011125945705385	3.894e-06	-0.163031	-0.471959	13.05	0.915557421668717	6.989119	3.18	0.11	0	0	0.84	1.706	0.94546	0.112419	-3.7	-	0	2.22797e-05	1.85869e-06	9	Q86XE0
chr11_75006492_A/T	chr11	75006492	T	ENSG00000162139	ENST00000294064	stop_lost	1514	1386	462	Y	taA	taT	A	1	SNV	NEU3	protein_coding	YES	MANE_Select	NM_006656.6	ENSP00000294064	-	3/3	c.1386A>T	p.Ter462TyrextTer3	0.000972342264477096	0.004618	-0.648513	-0.704602	7.535	0.750652025398887	2.887438	0.896	0.035	0.004677	0.216	0.006	1.002	0.26648	0.322412	-1.52	-	31	0.00604825	0.00478059	3	Q9UQ49
chr11_88113989_T/C	chr11	88113989	C	ENSG00000123892	ENST00000243662	stop_lost	694	635	212	W	tAg	tGg	T	-1	SNV	RAB38	protein_coding	YES	MANE_Select	NM_022337.3	ENSP00000243662	-	3/3	c.635A>G	p.Ter212TrpextTer1	0	0.002545	-0.0748228	-0.176126	18.13	0.867380478559228	12.8265	5.47	0.615	2.433e-06	0.247	1	4.613	0.84016	0.262962	-6.7	-	0	2.22797e-05	1.85855e-06	1	P57729
chr11_93148539_A/C	chr11	93148539	C	ENSG00000180773	ENST00000326402	stop_lost	1672	1513	505	E	Tag	Gag	A	-1	SNV	SLC36A4	protein_coding	YES	MANE_Select	NM_152313.4	ENSP00000317382	-	11/11	c.1513T>G	p.Ter505GluextTer1	5.94071169726133e-05	0.002794	-0.419738	-0.377491	16.33	0.834990100472599	13.22161	5.52	0.225	0.0001423	0.014	1	3.657	0.97273	0.294411	-7.34	-	3	0.00341239	0.000228756	1	Q6YBV0
chr11_102520777_T/C	chr11	102520777	C	ENSG00000137673	ENST00000260227	stop_lost	850	803	268	W	tAg	tGg	T	-1	SNV	MMP7	protein_coding	YES	MANE_Select	NM_002423.5	ENSP00000260227	-	6/6	c.803A>G	p.Ter268TrpextTer23	0.000187265917602996	2.501e-05	-0.315788	-0.601653	2.91	0.686942616442321	3.643635	3.57	0.325	1.278e-05	0.097	0.055	0.602	0.17518	0.218109	-2.54	-	0	1.69538e-05	6.38217e-07	23	P09237
chr11_102713349_C/G	chr11	102713349	G	ENSG00000118113	ENST00000236826	stop_lost	1502	1403	468	S	tGa	tCa	C	-1	SNV	MMP8	protein_coding	YES	MANE_Select	NM_002424.3	ENSP00000236826	-	10/10	c.1403G>C	p.Ter468SerextTer34	4.34103142906755e-05	0.001163	-0.773351	-0.881307	0.351	0.589815882215289	2.816673	-0.00997	0.175	0.0004612	0.073	0	-0.569	0.0409	0.06567	-4.1	-	0	0.00202186	7.59335e-05	34	P22894
chr11_102863100_C/G	chr11	102863100	G	ENSG00000262406	ENST00000571244	stop_lost	1458	1413	471	Y	taG	taC	C	-1	SNV	MMP12	protein_coding	YES	MANE_Select	NM_002426.6	ENSP00000458585	-	10/10	c.1413G>C	p.Ter471TyrextTer5	0.000157686069562083	0.0009004	-0.435316	-0.522529	4.63	0.65623440000604	NA	4.04	NA	0.0002945	0.111	0.198	0.567	0.89216	0.061011	-4.2	-	2	0.000860467	0.000216247	5	P39900
chr11_106052851_C/G	chr11	106052851	G	ENSG00000182359	ENST00000531837	stop_lost	2087	1838	613	S	tGa	tCa	C	-1	SNV	KBTBD3	protein_coding	YES	MANE_Select	NM_198439.3	ENSP00000432163	-	4/4	c.1838G>C	p.Ter613SerextTer3	0.000284697508896797	0.00101	-0.760016	-0.920835	0.886	0.802751498047372	3.711179	2.16	0.2	8.395e-05	0.164	0.019	0.741	0.31634	0.074636	-3.41	-	0	0.00114253	5.79054e-05	3	Q8NAB2
chr11_111913894_G/C	chr11	111913894	C	ENSG00000170276	ENST00000304298	stop_lost	644	548	183	S	tGa	tCa	G	1	SNV	HSPB2	protein_coding	YES	MANE_Select	NM_001541.4	ENSP00000302476	-	2/2	c.548G>C	p.Ter183SerextTer54	0.000187265917602996	3.343e-05	-0.266741	-0.620931	17.21	0.839653050962862	13.42026	5.48	0.915	1.825e-06	0.156	1	3.853	0.85762	0.078448	-6.59	-	0	2.23115e-05	6.24391e-07	54	Q16082
chr11_118229895_C/G	chr11	118229895	G	ENSG00000160588	ENST00000278949	stop_lost	778	707	236	S	tGa	tCa	C	-1	SNV	MPZL3	protein_coding	YES	MANE_Select	NM_198275.3	ENSP00000278949	-	6/6	c.707G>C	p.Ter236SerextTer1	9.36329588014981e-05	0	-0.0557351	-0.317836	14.5	0.824314679610434	11.09926	4.77	0.445	6.083e-07	0.026	1	2.623	0.9383	0.562547	-6.97	-	0	1.33319e-05	6.19795e-07	1	Q6UWV2
chr11_122959443_T/C	chr11	122959443	C	ENSG00000109944	ENST00000227349	stop_lost	2638	2335	779	Q	Tag	Cag	T	1	SNV	JHY	protein_coding	YES	MANE_Select	NM_024806.4	ENSP00000227349	-	9/9	c.2335T>C	p.Ter779GlnextTer50	0	0.001302	-0.221068	-0.212595	14.44	0.828581685171676	10.05544	5.87	0.87	1.034e-05	0.045	1	4.424	0.90705	0.074636	-8.01	-	0	0.000579607	2.41644e-05	50	Q6NUN7
chr12_908790_T/A	chr12	908790	A	ENSG00000060237	ENST00000315939	stop_lost	8134	7147	2383	K	Tag	Aag	T	1	SNV	WNK1	protein_coding	YES	MANE_Select	NM_018979.4	ENSP00000313059	-	28/28	c.7147T>A	p.Ter2383LysextTer2	0	0.003889	-0.304896	-0.246116	16.58	0.896524984287291	17.05113	5.24	0.41	1.217e-05	0.348	1	7.21	0.97133	0.295142	-10.74	Uncertain_significance	0	0.00212048	3.71493e-05	2	Q9H4A3
chr12_2803256_T/C	chr12	2803256	C	ENSG00000004478	ENST00000001008	stop_lost	1548	1378	460	Q	Tag	Cag	T	1	SNV	FKBP4	protein_coding	YES	MANE_Select	NM_002014.4	ENSP00000001008	-	10/10	c.1378T>C	p.Ter460GlnextTer30	0	0.001272	-0.099978	-0.381388	14.38	0.835756605947161	7.155793	3.38	0.825	7.3e-06	0.043	1	2.912	0.8011	0.295142	-4.6	-	0	0.00259171	1.52664e-05	30	Q02790
chr12_6620130_T/G	chr12	6620130	G	ENSG00000184574	ENST00000329858	stop_lost	1388	1119	373	C	tgA	tgC	T	-1	SNV	LPAR5	protein_coding	YES	MANE_Select	NM_020400.6	ENSP00000327875	-	2/2	c.1119A>C	p.Ter373CysextTer80	9.36329588014981e-05	2.501e-05	-0.0504546	-0.310251	16.71	0.74029855910911	6.557231	4.84	0.965	2.433e-06	0.097	0.073	2.021	0.70657	0.256867	-5.35	-	0	1.66689e-05	6.19706e-07	80	Q9H1C0
chr12_8138285_T/C	chr12	8138285	C	ENSG00000111729	ENST00000229332	stop_lost	974	712	238	R	Tga	Cga	T	1	SNV	CLEC4A	protein_coding	YES	MANE_Select	NM_016184.4	ENSP00000229332	-	6/6	c.712T>C	p.Ter238ArgextTer6	0.00169430994244329	0.01597	-0.32669	-0.228418	11.52	0.810842838191216	4.305428	1.65	0.425	0.001336	0.391	0.472	0.892	0.36722	0.164513	-4.42	Benign	11	0.0157491	0.00108539	6	Q9UMR7
chr12_8221822_T/C	chr12	8221822	C	ENSG00000171847	ENST00000538603	stop_lost	1954	1395	465	W	tgA	tgG	T	-1	SNV	FAM90A1	protein_coding	YES	MANE_Select	NM_018088.3	ENSP00000445418	-	7/7	c.1395A>G	p.Ter465TrpextTer14	0.00011125945705385	0	-0.334543	-0.718324	4.704	0.578216978486266	2.649555	1.06	0.12	0	0.029	0.002	-0.428	0.00352	0.078448	0.45	-	0	1.69727e-06	1.25408e-06	14	Q86YD7
chr12_10412574_A/T	chr12	10412574	T	ENSG00000205810	ENST00000396439	stop_lost	766	721	241	R	Tga	Aga	A	-1	SNV	KLRC3	protein_coding	YES	MANE_Select	NM_002261.3	ENSP00000379716	-	7/7	c.721T>A	p.Ter241ArgextTer29	0	0.00172	-0.580597	-0.768635	3.138	0.758973021440425	2.747961	0.381	0.61	0	0.089	0.038	0.346	0.02261	0.053691	0	-	0	0.000459218	4.70379e-05	29	Q07444
chr12_11021672_T/C	chr12	11021672	C	ENSG00000212124	ENST00000390673	stop_lost	949	900	300	W	tgA	tgG	T	-1	SNV	TAS2R19	protein_coding	YES	MANE_Select	NM_176888.2	ENSP00000375091	-	1/1	c.900A>G	p.Ter300TrpextTer10	0.186287575892196	0	-0.343497	-0.731186	0.263	0.457213293112923	2.291279	-1.29	0.015	2.434e-06	0.001	0	-2.561	0.00067	0.099367	0.52	-	0	0.284534	0.0913698	10	P59542
chr12_11021674_A/C	chr12	11021674	C	ENSG00000212124	ENST00000390673	stop_lost	947	898	300	G	Tga	Gga	A	-1	SNV	TAS2R19	protein_coding	YES	MANE_Select	NM_176888.2	ENSP00000375091	-	1/1	c.898T>G	p.Ter300GlyextTer10	2.69643531251685e-05	9.301e-05	-0.500783	-0.957116	0.124	0.436792314066625	1.358811	-5.95	0.02	1.825e-06	0.001	0	-0.286	0.01663	0.099367	-1.58	-	0	0.000357526	9.95017e-06	10	P59542
chr12_18648027_G/C	chr12	18648027	C	ENSG00000139144	ENST00000538779	stop_lost	4598	4460	1487	S	tGa	tCa	G	1	SNV	PIK3C2G	protein_coding	YES	MANE_Select	NM_001288772.2	ENSP00000445381	-	33/33	c.4460G>C	p.Ter1487SerextTer4	0.0160556852632679	0.01716	-0.480236	-0.447666	14.3	0.768961267969694	8.921796	3.17	0.025	0.01489	0.015	1	1.721	0.85941	0.061011	-5.52	-	248	0.0190417	0.0157339	4	O75747
chr12_25204311_G/T	chr12	25204311	T	ENSG00000205707	ENST00000381356	stop_lost	410	272	91	L	tGa	tTa	G	1	SNV	ETFRF1	protein_coding	YES	MANE_Select	NM_001001660.3	ENSP00000370761	-	3/3	c.272G>T	p.Ter91LeuextTer5	0	0.003348	-0.405026	-0.351956	9.395	0.743929118357549	4.838173	1.11	0.005	3.468e-05	0.042	0.973	1.032	0.57289	0.322412	-4.81	-	1	0.00339259	0.000110792	5	Q6IPR1
chr12_39294425_T/A	chr12	39294425	A	ENSG00000139116	ENST00000361418	stop_lost	5174	5024	1675	L	tAa	tTa	T	-1	SNV	KIF21A	protein_coding	YES	MANE_Select	NM_001173464.2	ENSP00000354878	-	38/38	c.5024A>T	p.Ter1675LeuextTer2	0	0.0002376	-0.301951	-0.28577	12.36	0.777522015229279	8.752128	5.13	0.475	0.0001405	0.61	1	1.174	0.77443	0.294411	-6.41	-	0	0.00055	2.05533e-05	2	Q7Z4S6
chr12_48693035_A/T	chr12	48693035	T	ENSG00000129315	ENST00000261900	stop_lost	2211	2179	727	K	Taa	Aaa	A	-1	SNV	CCNT1	protein_coding	YES	MANE_Select	NM_001240.4	ENSP00000261900	-	9/9	c.2179T>A	p.Ter727LysextTer12	0.00134268238102342	0	-0.0573014	-0.320086	17.18	0.682886520327439	16.88452	4.63	0.725	0	0.219	1	8.147	0.98794	0.256867	-11.4	-	0	8.51426e-05	1.25598e-05	12	O60563
chr12_49526255_A/G	chr12	49526255	G	ENSG00000123352	ENST00000552918	stop_lost	2070	1638	546	W	tgA	tgG	A	1	SNV	SPATS2	protein_coding	YES	MANE_Select	NM_023071.4	ENSP00000447947	-	14/14	c.1638A>G	p.Ter546TrpextTer16	0.000438308130615823	0.0006302	-0.27766	-0.227963	18.35	0.878788424476382	12.81267	4.5	0.81	5.231e-05	0.018	1	5.523	0.97862	0.295142	-7.05	-	0	0.000660217	3.62375e-05	16	Q86XZ4
chr12_49965176_G/C	chr12	49965176	C	ENSG00000161798	ENST00000293599	stop_lost	943	797	266	S	tGa	tCa	G	1	SNV	AQP5	protein_coding	YES	MANE_Select	NM_001651.4	ENSP00000293599	-	4/4	c.797G>C	p.Ter266SerextTer12	0	0.001272	-0.15224	-0.456459	18.07	0.770115079704096	10.86013	5.23	0.665	0	0.096	1	1.842	0.84456	0.090766	-8.14	-	0	0	0	12	P55064
chr12_56005025_T/A	chr12	56005025	A	ENSG00000139531	ENST00000266971	stop_lost	1819	1636	546	R	Tga	Aga	T	1	SNV	SUOX	protein_coding	YES	MANE_Select	NM_001032386.2	ENSP00000266971	-	5/5	c.1636T>A	p.Ter546ArgextTer14	0	0.0006449	-0.265322	-0.183972	14.37	0.848514776625658	7.784781	4.42	0.755	4.745e-05	0.442	0.987	2.142	0.54453	0.262962	-4.95	Conflicting_classifications_of_pathogenicity	3	0.00161414	9.37429e-05	14	P51687
chr12_56229211_T/C	chr12	56229211	C	ENSG00000139579	ENST00000267023	stop_lost	757	634	212	Q	Tag	Cag	T	1	SNV	NABP2	protein_coding	YES	MANE_Select	NM_024068.4	ENSP00000267023	-	7/7	c.634T>C	p.Ter212GlnextTer24	6.57981313330701e-05	3.517e-05	0.165886	0.000507422	17	0.852230707252303	15.55999	5.39	0.925	4.866e-06	0.017	1	4.705	0.97026	0.322412	-9.14	-	0	1.33948e-05	4.34495e-06	24	Q9BQ15
chr12_56952029_T/G	chr12	56952029	G	ENSG00000139547	ENST00000398138	stop_lost	1100	954	318	C	tgA	tgC	T	-1	SNV	RDH16	protein_coding	YES	MANE_Select	NM_003708.5	ENSP00000381206	-	4/4	c.954A>C	p.Ter318CysextTer2	0.000778816199376947	0	-0.310079	-0.683183	6.604	0.544550724564683	3.652369	3.07	0.08	0	0.003	0	0.02	0.06319	0.080785	-1.86	-	0	8.47861e-07	4.95952e-06	2	O75452
chr12_57456848_G/C	chr12	57456848	C	ENSG00000139269	ENST00000266646	stop_lost	1283	1053	351	Y	taG	taC	G	1	SNV	INHBE	protein_coding	YES	MANE_Select	NM_031479.5	ENSP00000266646	-	2/2	c.1053G>C	p.Ter351TyrextTer84	0.00011125945705385	0	-0.0963949	-0.376241	16.27	0.832084231613766	12.87877	4.65	0.685	2.433e-06	0.011	1	2.164	0.89306	0.256391	-10.81	-	0	0.000165344	3.10175e-06	84	P58166
chr12_76858952_T/G	chr12	76858952	G	ENSG00000175183	ENST00000311083	stop_lost	665	582	194	Y	taA	taC	T	-1	SNV	CSRP2	protein_coding	YES	MANE_Select	NM_001321.3	ENSP00000310901	-	6/6	c.582A>C	p.Ter194TyrextTer11	0.000180099054479964	0.0002341	-0.0756378	-0.282779	7.083	0.814670268298446	6.260154	2.37	0.75	3.346e-05	0.338	0.099	0.067	0.98762	0.322412	-3.23	-	0	6.7815e-06	4.33781e-05	11	Q16527
chr12_79775931_A/T	chr12	79775931	T	ENSG00000058272	ENST00000450142	stop_lost	3257	3091	1031	K	Taa	Aaa	A	-1	SNV	PPP1R12A	protein_coding	YES	MANE_Select	NM_002480.3	ENSP00000389168	-	25/25	c.3091T>A	p.Ter1031LysextTer71	0.00774086378737542	0	0.00932134	-0.224387	13.15	0.805231378291058	15.5009	4.7	0.955	0	0.609	1	6.752	0.98499	0.322412	-7.64	-	0	0.00631453	0.00242345	71	O14974
chr12_109447180_T/C	chr12	109447180	C	ENSG00000174527	ENST00000310903	stop_lost	3176	3115	1039	R	Tga	Cga	T	1	SNV	MYO1H	protein_coding	YES	MANE_Select	NM_001101421.4	ENSP00000439182	-	32/32	c.3115T>C	p.Ter1039ArgextTer1	0.000408964501881237	0.001613	-0.0534869	0.143609	17.71	0.864582667962995	13.4279	5.42	0.535	0.000132	0.015	1	4.116	0.97779	0.099367	-8.04	-	0	0.00193866	9.83103e-05	1	-
chr12_121020563_A/T	chr12	121020563	T	ENSG00000135114	ENST00000257570	stop_lost	1818	1543	515	K	Tag	Aag	A	-1	SNV	OASL	protein_coding	YES	MANE_Select	NM_003733.4	ENSP00000257570	-	6/6	c.1543T>A	p.Ter515LysextTer39	0	1.558e-05	-0.347736	-0.737275	11.36	0.70060599794426	5.142033	3.51	0.39	8.516e-06	0.096	0.091	2.276	0.43732	0.162113	-3.07	-	0	4.27407e-06	5.63197e-06	39	Q15646
chr12_123466279_T/C	chr12	123466279	C	ENSG00000184209	ENST00000526639	stop_lost	820	739	247	Q	Tag	Cag	T	1	SNV	SNRNP35	protein_coding	YES	MANE_Select	NM_022717.4	ENSP00000432595	-	2/2	c.739T>C	p.Ter247GlnextTer9	0.000328904091566899	0.001048	-0.411377	-0.369549	15.28	0.774552024397672	8.512399	4.71	0.39	7.908e-05	0.013	1	1.14	0.91649	0.322412	-4.56	-	1	0.00142414	7.12121e-05	9	Q16560
chr13_27256524_A/C	chr13	27256524	C	ENSG00000122026	ENST00000311549	stop_lost	522	482	161	S	tAa	tCa	A	1	SNV	RPL21	protein_coding	YES	MANE_Select	NM_000982.4	ENSP00000346027	-	6/6	c.482A>C	p.Ter161SerextTer1	0.13998127340824	0	-0.0590245	-0.322561	11.31	0.914817547687837	7.585159	1.91	0.605	0	0.016	1	4.699	0.96903	0.256867	-8.77	-	0	0	0	1	P46778
chr13_36304367_A/T	chr13	36304367	T	ENSG00000133104	ENST00000438666	stop_lost	2171	1999	667	R	Tga	Aga	A	-1	SNV	SPART	protein_coding	YES	MANE_Select	NM_015087.5	ENSP00000406061	-	9/9	c.1999T>A	p.Ter667ArgextTer1	3.38401840906015e-05	0.004403	-0.527665	-0.530327	15.56	0.895675782254745	5.432852	3.92	0.225	0.0002804	0.161	0.01	1.976	0.14239	0.295142	-7.06	Likely_benign	1	0.00413091	0.000206317	1	Q8N0X7
chr13_72759797_A/G	chr13	72759797	G	ENSG00000083520	ENST00000377767	stop_lost	2943	2875	959	Q	Tag	Cag	A	-1	SNV	DIS3	protein_coding	YES	MANE_Select	NM_014953.5	ENSP00000366997	-	21/21	c.2875T>C	p.Ter959GlnextTer14	0.0024029975536494	0.003049	-0.369057	-0.303046	15.53	0.890176948485444	14.04957	6.06	0.83	0.002533	0.183	1	4.271	0.94695	0.322412	-4.76	Likely_benign	11	0.00325608	0.00261131	14	Q9Y2L1
chr13_96986746_T/A	chr13	96986746	A	ENSG00000165621	ENST00000541038	stop_lost	1470	1014	338	C	tgA	tgT	T	-1	SNV	OXGR1	protein_coding	YES	MANE_Select	NM_001346194.2	ENSP00000437356	-	4/4	c.1014A>T	p.Ter338CysextTer6	0.000717160046216981	0.0008567	-0.552475	-0.6494	6.924	0.489479210200521	5.378715	3.38	0.37	0.0003814	0.047	0.105	1.427	0.91923	0.078448	-6.16	-	1	0.000433789	0.000349242	6	Q96P68
chr14_19828371_G/T	chr14	19828371	T	ENSG00000176294	ENST00000557677	stop_lost	1007	923	308	L	tGa	tTa	G	1	SNV	OR4N2	protein_coding	YES	MANE_Select	NM_001004723.3	ENSP00000452022	-	2/2	c.923G>T	p.Ter308LeuextTer9	0.000115794349235757	0	-0.429681	-0.854983	6.582	0.495187031166762	2.335325	-2.25	0	0	0.005	0	-0.022	0.1628	0.061011	-1.57	-	0	1.73267e-06	1.2873e-06	9	Q8NGD1
chr14_22633768_C/G	chr14	22633768	G	ENSG00000255804	ENST00000540461	stop_lost	1326	1044	348	Y	taG	taC	C	-1	SNV	OR6J1	protein_coding	YES	MANE_Select	NM_001348233.2	ENSP00000437629	-	2/2	c.1044G>C	p.Ter348TyrextTer12	0.00131761442441054	0.005014	-0.639792	-0.69084	5.506	0.745575360415457	3.204329	0.397	0.07	0	0.001	0	-0.066	0.0489	0.06567	-1.35	-	1	0.00546516	0.000529514	12	Q8NGC5
chr14_23272889_T/C	chr14	23272889	C	ENSG00000215277	ENST00000430154	stop_lost	1022	901	301	Q	Tag	Cag	T	1	SNV	RNF212B	protein_coding	YES	MANE_Select	NM_001282322.3	ENSP00000397830	-	15/15	c.901T>C	p.Ter301GlnextTer6	0.00278539084842707	0.009232	-0.396674	-0.336315	9.2	0.669969750282676	4.892248	2.6	0.06	0.0006597	0.045	0.948	0.645	0.58458	0.162113	-2.16	-	4	0.00869421	0.000464479	6	A8MTL3
chr14_24238776_T/C	chr14	24238776	C	ENSG00000100938	ENST00000399440	stop_lost	1129	1045	349	Q	Tag	Cag	T	1	SNV	GMPR2	protein_coding	YES	MANE_Select	NM_001002002.3	ENSP00000382369	-	10/10	c.1045T>C	p.Ter349GlnextTer2	6.81384573453257e-05	0.0003627	-0.209764	-0.149502	13.09	0.814420233491496	10.23204	5.04	0.54	0.0002245	0.161	0.963	2.026	0.81875	0.283894	-5.98	-	0	0.000583431	2.23365e-05	2	Q9P2T1
chr14_24606604_T/A	chr14	24606604	A	ENSG00000100450	ENST00000216338	stop_lost	812	740	247	L	tAa	tTa	T	-1	SNV	GZMH	protein_coding	YES	MANE_Select	NM_033423.5	ENSP00000216338	-	5/5	c.740A>T	p.Ter247LeuextTer4	0.000641891891891892	0.04412	-0.616236	-0.624376	3.182	0.441051124296898	2.557732	-1.67	0.04	0.003374	0.025	0	-0.386	0.0692	0.074898	-1.48	Benign	77	0.0451425	0.00239633	4	P20718
chr14_55044362_T/C	chr14	55044362	C	ENSG00000180008	ENST00000555846	stop_lost	1776	1321	441	Q	Tag	Cag	T	1	SNV	SOCS4	protein_coding	YES	MANE_Select	NM_199421.2	ENSP00000452522	-	3/3	c.1321T>C	p.Ter441GlnextTer1	0	0.0006449	-0.578934	-0.737311	7.993	0.777121405544176	5.388268	1.29	0.31	3.164e-05	0.301	0.931	1.003	0.8433	0.322412	-4.27	-	1	0.000960061	4.51286e-05	1	Q8WXH5
chr14_64939489_T/G	chr14	64939489	G	ENSG00000176153	ENST00000389614	stop_lost	591	572	191	S	tAg	tCg	T	-1	SNV	GPX2	protein_coding	YES	MANE_Select	NM_002083.4	ENSP00000374265	-	2/2	c.572A>C	p.Ter191SerextTer?	7.11743772241993e-05	0.0001483	-0.167428	-0.296747	16.98	0.769149644768606	15.13708	6.05	0.12	3.65e-06	NA	1	6.736	0.90791	0.088506	-10.96	-	0	9.34879e-05	4.34109e-06	?	P18283
chr14_66498470_T/G	chr14	66498470	G	ENSG00000196553	ENST00000636229	stop_lost	1024	892	298	E	Tag	Gag	T	1	SNV	CCDC196	protein_coding	YES	MANE_Select	NM_001351576.1	ENSP00000489898	-	10/10	c.892T>G	p.Ter298GluextTer14	0	0.001272	NA	NA	12.98	0.804117181423619	NA	0.632	NA	0	NA	0.999	0.994	0.48265	0.065574	-4.45	-	0	0	0	14	A0A1B0GTZ2
chr14_73492941_T/G	chr14	73492941	G	ENSG00000170468	ENST00000304061	stop_lost	2009	1924	642	E	Tag	Gag	T	1	SNV	RIOX1	protein_coding	YES	MANE_Select	NM_024644.5	ENSP00000477507	-	1/1	c.1924T>G	p.Ter642GluextTer26	0.00011125945705385	0	-0.392842	-0.802067	5.341	0.672151295631312	NA	1.96	NA	0	0.033	0	0.41	0.17604	0.255962	-0.6	-	0	0	6.20347e-07	26	Q9H6W3
chr14_73966930_A/G	chr14	73966930	G	ENSG00000187097	ENST00000334696	stop_lost	1561	1285	429	R	Tga	Cga	A	-1	SNV	ENTPD5	protein_coding	YES	MANE_Select	NM_001249.5	ENSP00000335246	-	16/16	c.1285T>C	p.Ter429ArgextTer22	0	0.001272	0.11177	-0.0772263	19.03	0.897995204859423	16.18414	5.55	0.865	2.433e-06	0.052	1	7.276	0.99566	0.295142	-8.76	-	0	1.69573e-06	1.2395e-06	22	O75356
chr14_77331194_A/G	chr14	77331194	G	ENSG00000100577	ENST00000216465	stop_lost	783	650	217	W	tAg	tGg	A	1	SNV	GSTZ1	protein_coding	YES	MANE_Select	NM_145870.3	ENSP00000216465	-	9/9	c.650A>G	p.Ter217TrpextTer19	0.000157872421041236	0.002545	-0.359241	-0.324179	18.18	0.818822967806836	11.98725	4.07	0.345	0.0001113	0.597	1	4.783	0.897	0.184171	-5.3	-	3	0.00181818	0.000151915	19	-
chr14_105498946_A/G	chr14	105498946	G	ENSG00000185347	ENST00000392523	stop_lost	1618	1488	496	W	tgA	tgG	A	1	SNV	TEDC1	protein_coding	YES	MANE_Select	NM_001367178.1	ENSP00000376308	-	9/9	c.1488A>G	p.Ter496TrpextTer60	7.08014726706315e-05	0.001272	-0.378717	-0.526732	12.45	0.788172268069817	3.747644	2.83	0.905	1.399e-05	0.113	0	0.34	0.12691	0.252514	-1.55	-	0	0.000173713	1.00067e-05	60	Q86SX3
chr15_20534261_A/G	chr15	20534261	G	ENSG00000277322	ENST00000619213	stop_lost,splice_region_variant	2264	2173	725	Q	Tag	Cag	A	-1	SNV	GOLGA6L6	protein_coding	YES	MANE_Select	NM_001145004.2	ENSP00000480376	-	8/9	c.2173T>C	p.Ter725GlnextTer8	0.0122862286228623	0	-0.716576	-0.784503	1.221	0.517610467354658	0.7340253	NA	NA	0.02611	0.002	0	-0.777	0.00179	0.061011	0.26	-	378	0.173924	0.0783748	8	A8MZA4
chr15_22466823_T/C	chr15	22466823	C	ENSG00000277865	ENST00000622895	stop_lost,splice_region_variant	2654	2563	855	Q	Tag	Cag	T	1	SNV	GOLGA6L22	protein_coding	YES	MANE_Select	NM_001396956.1	ENSP00000483673	-	8/9	c.2563T>C	p.Ter855GlnextTer8	0.0432721712538226	0	NA	NA	1.679	NA	NA	NA	NA	0.02184	NA	0	-1.117	NA	NA	0.27	-	2056	0.429768	0.202223	8	H0YM25
chr15_40393596_A/C	chr15	40393596	C	ENSG00000128944	ENST00000249776	stop_lost	1065	950	317	S	tAa	tCa	A	1	SNV	KNSTRN	protein_coding	YES	MANE_Select	NM_033286.4	ENSP00000249776	-	9/9	c.950A>C	p.Ter317SerextTer13	0.00120091498284407	0.0146	-0.480058	-0.445426	13.04	0.802957390892116	6.022518	2.97	0.255	0.0001624	0.037	1	1.82	0.69504	0.295142	-2.71	Benign	7	0.0163412	0.000541803	13	Q9Y448
chr15_45433016_A/G	chr15	45433016	G	ENSG00000166920	ENST00000396650	stop_lost	325	252	84	W	tgA	tgG	A	1	SNV	C15orf48	protein_coding	YES	MANE_Select	NM_197955.3	ENSP00000379887	-	5/5	c.252A>G	p.Ter84TrpextTer8	0	0.002511	-0.338532	-0.258239	16.71	0.853557393951769	11.343	6.08	NA	1.703e-05	0.012	0.998	4.629	0.91262	0.074636	-5.42	-	1	0.00305326	8.92662e-05	8	Q9C002
chr15_48142350_G/T	chr15	48142350	T	ENSG00000188467	ENST00000341459	stop_lost	1557	1502	501	L	tGa	tTa	G	1	SNV	SLC24A5	protein_coding	YES	MANE_Select	NM_205850.3	ENSP00000341550	-	9/9	c.1502G>T	p.Ter501LeuextTer3	7.17154331612163e-05	0	-0.145251	-0.44642	13.44	0.783379811096156	7.700841	3.68	0.645	0	0.1	1	1.68	0.96289	0.322412	-7.21	-	0	0	0	3	Q71RS6
chr15_55418568_T/C	chr15	55418568	C	ENSG00000261652	ENST00000569691	stop_lost	638	364	122	R	Tga	Cga	T	1	SNV	PIERCE2	protein_coding	YES	MANE_Select	NM_001198784.2	ENSP00000456337	-	2/2	c.364T>C	p.Ter122ArgextTer33	0.00470454427958435	0.01105	-0.095659	0.100204	18.65	0.88833547399626	NA	5.82	0.275	0.0007044	0.022	1	5.159	0.94397	0.074636	-6.65	-	5	0.00991457	0.000533653	33	H3BRN8
chr15_56428444_A/C	chr15	56428444	C	ENSG00000151575	ENST00000696102	stop_lost	1201	1176	392	Y	taA	taC	A	1	SNV	TEX9	protein_coding	YES	MANE_Select	NM_001395496.1	ENSP00000512397	-	12/12	c.1176A>C	p.Ter392TyrextTer6	0.00011699099169364	9.736e-05	-0.0402363	-0.0910226	15.49	0.874164286247216	13.71634	5.13	NA	4.684e-05	0.013	1	4.736	0.97831	0.322412	-6.18	-	0	2.67573e-05	2.36443e-05	6	Q8N6V9
chr15_56429102_C/A	chr15	56429102	A	ENSG00000138587	ENST00000260453	stop_lost	1652	1487	496	L	tGa	tTa	C	-1	SNV	MNS1	protein_coding	YES	MANE_Select	NM_018365.4	ENSP00000260453	-	10/10	c.1487G>T	p.Ter496LeuextTer16	0.00130172748586799	0.01206	-0.756833	-0.849526	10.91	0.507873463917914	2.425332	-1.62	0.15	0.0008138	0.003	0.061	0.159	0.16215	0.17398	-2.41	Benign	4	0.0118082	0.000585548	16	Q8NEH6
chr15_68194015_T/C	chr15	68194015	C	ENSG00000129007	ENST00000467889	stop_lost	547	462	154	W	tgA	tgG	T	-1	SNV	CALML4	protein_coding	YES	MANE_Select	NM_033429.3	ENSP00000419081	-	5/5	c.462A>G	p.Ter154TrpextTer17	0.000596212630244069	0.004273	-0.464002	-0.439017	16.71	0.842630150600119	7.374367	4.9	NA	0.0003072	NA	1	5.073	0.93829	0.256867	-6.97	-	0	0.00433403	0.000223947	17	Q96GE6
chr15_68946585_T/G	chr15	68946585	G	ENSG00000258484	ENST00000310673	stop_lost	1180	1051	351	E	Taa	Gaa	T	1	SNV	SPESP1	protein_coding	YES	MANE_Select	NM_145658.4	ENSP00000312284	-	2/2	c.1051T>G	p.Ter351GluextTer4	0.000101890060624586	0.001023	-0.679705	-0.805474	12.62	0.719506343028771	5.072022	2.8	0.035	7.908e-06	0.01	1	1.922	0.65704	0.080785	-4.72	-	0	0.000602933	2.00595e-05	4	Q6UW49
chr15_72752342_T/C	chr15	72752342	C	ENSG00000159322	ENST00000456471	stop_lost	1560	1493	498	W	tAg	tGg	T	-1	SNV	ADPGK	protein_coding	YES	MANE_Select	NM_001365225.1	ENSP00000397694	-	7/7	c.1493A>G	p.Ter498TrpextTer4	7.11743772241993e-05	0	-0.33078	-0.712919	12.58	0.322477168101147	3.09129	1.84	0.125	6.083e-07	0.01	0.048	0.763	0.28907	0.295142	-3.52	-	0	1.6769e-05	1.24289e-06	4	Q9BRR6
chr15_73739918_T/C	chr15	73739918	C	ENSG00000205363	ENST00000569673	stop_lost	2690	881	294	W	tAg	tGg	T	-1	SNV	INSYN1	protein_coding	YES	MANE_Select	NM_001039614.3	ENSP00000457205	-	3/3	c.881A>G	p.Ter294TrpextTer12	0	0	-0.00170182	-0.240221	17.14	0.887884762771139	8.250301	2.96	0.65	2.768e-05	0.009	0.989	0.825	0.07947	0.078448	-5.03	-	0	0.000175131	4.36089e-05	12	Q2T9L4
chr15_75639615_T/C	chr15	75639615	C	ENSG00000177971	ENST00000403490	stop_lost	610	554	185	W	tAg	tGg	T	-1	SNV	IMP3	protein_coding	YES	MANE_Select	NM_018285.4	ENSP00000385217	-	1/1	c.554A>G	p.Ter185TrpextTer18	0.000292674141113963	0.0003677	-0.187302	-0.423957	17.97	0.692967526153002	6.690298	4.87	NA	3.346e-05	0.145	1	3.309	0.96115	0.12189	-8.17	-	0	1.6665e-05	4.33893e-05	18	Q9NV31
chr15_75933102_A/T	chr15	75933102	T	ENSG00000167196	ENST00000308275	stop_lost	1298	1212	404	Y	taA	taT	A	1	SNV	FBXO22	protein_coding	YES	MANE_Select	NM_147188.3	ENSP00000307833	-	7/7	c.1212A>T	p.Ter404TyrextTer1	0.000319628865226206	0.001272	-0.327126	-0.541814	11.63	0.841548008299078	4.485053	4.06	0.265	8.03e-05	0.008	0.128	2.918	0.41144	0.295142	-6.63	-	0	0.00101626	9.95744e-05	1	Q8NEZ5
chr15_99386102_A/G	chr15	99386102	G	ENSG00000168904	ENST00000301981	stop_lost	1225	1104	368	W	tgA	tgG	A	1	SNV	LRRC28	protein_coding	YES	MANE_Select	NM_144598.5	ENSP00000304923	-	10/10	c.1104A>G	p.Ter368TrpextTer1	3.67971739770386e-05	0.006664	-0.341043	-0.265397	18.36	0.864791639359618	17.30663	5.81	0.55	0.0001442	0.012	1	6.101	0.94807	0.423528	-6.97	-	2	0.00382124	0.000225573	1	Q86X40
chr16_173598_T/C	chr16	173598	C	ENSG00000188536	ENST00000251595	stop_lost	464	427	143	Q	Taa	Caa	T	1	SNV	HBA2	protein_coding	YES	MANE_Select	NM_000517.6	ENSP00000251595	-	3/3	c.427T>C	p.Ter143GlnextTer31	8.99750640536766e-05	0.0009318	-0.15463	-0.0968585	15.22	0.84561512497359	13.21643	4.43	1	2.737e-05	0.156	1	4.118	0.97452	0.095506	-8.06	Pathogenic/Likely_pathogenic	1	0.000334582	2.23844e-05	31	P69905
chr16_1420248_A/G	chr16	1420248	G	ENSG00000174109	ENST00000442039	stop_lost	421	397	133	R	Tga	Cga	A	-1	SNV	UQCC4	protein_coding	YES	MANE_Select	NM_001272051.2	ENSP00000413100	-	2/2	c.397T>C	p.Ter133ArgextTer101	0	0.002545	-0.400321	-0.81281	12.83	0.807469069204817	1.615436	4.58	NA	0	0.009	0.003	1.522	0.08104	0.142881	-3.76	-	0	0	0	101	Q4G0I0
chr16_3658129_T/G	chr16	3658129	G	ENSG00000126602	ENST00000246957	stop_lost	2131	2115	705	C	tgA	tgC	T	-1	SNV	TRAP1	protein_coding	YES	MANE_Select	NM_016292.3	ENSP00000246957	-	18/18	c.2115A>C	p.Ter705CysextTer8	0.00156708263844959	0.0149	-0.393971	-0.326364	15.52	0.68719712448559	6.557125	4.04	0.105	0.001127	0.152	1	7.255	0.94269	0.295142	-8.75	Benign	6	0.0145789	0.000794972	8	Q12931
chr16_11273286_A/G	chr16	11273286	G	ENSG00000178257	ENST00000327157	stop_lost	344	310	104	R	Tga	Cga	A	-1	SNV	PRM3	protein_coding	YES	MANE_Select	NM_021247.3	ENSP00000325638	-	1/1	c.310T>C	p.Ter104ArgextTer27	0.0271205187707389	0.1419	NA	NA	17.47	NA	NA	NA	NA	0.01408	0.019	1	3.288	NA	NA	-4.95	-	847	0.143532	0.0113594	27	Q9NNZ6
chr16_21258783_A/G	chr16	21258783	G	ENSG00000103316	ENST00000572914	stop_lost	982	943	315	Q	Taa	Caa	A	-1	SNV	CRYM	protein_coding	YES	MANE_Select	NM_001376256.1	ENSP00000461904	-	8/8	c.943T>C	p.Ter315GlnextTer5	8.69209530626853e-05	0.0008712	-0.386013	-0.372809	17.24	0.810215427048236	11.31748	5.45	NA	4.927e-05	0.144	1	4.996	0.97974	0.262962	-5.7	Uncertain_significance	0	0.000679475	3.3465e-05	5	Q14894
chr16_28342608_T/C	chr16	28342608	C	ENSG00000198156	ENST00000695563	stop_lost	1801	1277	426	W	tAg	tGg	T	-1	SNV	NPIPB6	protein_coding	YES	MANE_Select	NM_001395275.1	ENSP00000512020	-	8/8	c.1277A>G	p.Ter426TrpextTer20	0.0014218009478673	0	-0.495466	-0.949479	2.2	0.348985864676399	0.8357986	NA	0.05	0.0002895	0.02	0	-1.811	0.00017	0.074636	-0.06	-	0	0.000474608	0.000216696	20	E9PJ23
chr16_30378436_A/T	chr16	30378436	T	ENSG00000180096	ENST00000321367	stop_lost	1136	1117	373	R	Tga	Aga	A	-1	SNV	SEPTIN1	protein_coding	YES	MANE_Select	NM_001365977.2	ENSP00000324511	-	11/11	c.1117T>A	p.Ter373ArgextTer95	0.0002803355400772	0.001675	-0.243635	-0.158119	18.54	0.846328849074132	9.212478	5.42	0.735	0.0001296	NA	0.018	0.915	0.617	0.08998	-5.92	-	1	0.00196895	0.000248502	95	Q8WYJ6
chr16_30399107_A/T	chr16	30399107	T	ENSG00000180035	ENST00000613509	stop_lost	2031	1857	619	C	tgA	tgT	A	1	SNV	ZNF48	protein_coding	YES	MANE_Select	NM_001214909.2	ENSP00000480262	-	3/3	c.1857A>T	p.Ter619CysextTer19	9.36329588014981e-05	0	-0.341391	-0.728161	14.61	0.737930192464286	5.640733	4.61	NA	1.156e-05	0.043	0.979	4.071	0.16957	0.298561	-6.38	-	0	0	0	19	Q96MX3
chr16_54283686_C/G	chr16	54283686	G	ENSG00000177508	ENST00000329734	stop_lost	2243	1506	502	Y	taG	taC	C	-1	SNV	IRX3	protein_coding	YES	MANE_Select	NM_024336.3	ENSP00000331608	-	4/4	c.1506G>C	p.Ter502TyrextTer31	3.11895702077225e-05	5.004e-05	-0.158705	-0.465745	13.17	0.818857800952419	7.153777	4.17	NA	0	0.097	0.998	1.488	0.74743	0.59774	-5.89	-	0	1.15469e-06	7.88753e-07	31	P78415
chr16_66480925_A/C	chr16	66480925	C	ENSG00000166546	ENST00000536005	stop_lost	999	780	260	C	tgA	tgC	A	1	SNV	BEAN1	protein_coding	YES	MANE_Select	NM_001178020.3	ENSP00000442793	-	5/5	c.780A>C	p.Ter260CysextTer59	6.44329896907217e-05	6.685e-05	-0.202238	-0.528278	15	0.814322952976923	6.636853	4.26	0.225	3.651e-06	0.016	0.77	1.912	0.65141	0.056701	-7.58	-	2	5.47775e-06	0.000325303	59	Q3B7T3
chr16_72112495_T/A	chr16	72112495	A	ENSG00000140829	ENST00000268482	stop_lost	3906	3682	1228	R	Tga	Aga	T	1	SNV	DHX38	protein_coding	YES	MANE_Select	NM_014003.4	ENSP00000268482	-	27/27	c.3682T>A	p.Ter1228ArgextTer89	9.36329588014981e-05	0	0.210437	0.0645015	18.8	0.943738442955768	13.31666	5.08	NA	0	0.01	1	6.719	0.97812	0.359288	-12.09	-	0	0	0	89	Q92620
chr16_72112496_G/C	chr16	72112496	C	ENSG00000140829	ENST00000268482	stop_lost	3907	3683	1228	S	tGa	tCa	G	1	SNV	DHX38	protein_coding	YES	MANE_Select	NM_014003.4	ENSP00000268482	-	27/27	c.3683G>C	p.Ter1228SerextTer89	9.36329588014981e-05	3.894e-06	-0.208778	-0.537671	14.53	0.811543701286987	9.50756	2.96	NA	0	0.01	1	1.846	0.90606	0.359288	-7.84	-	0	0	0	89	Q92620
chr16_82098435_A/G	chr16	82098435	G	ENSG00000086696	ENST00000199936	stop_lost	1335	1163	388	W	tAg	tGg	A	1	SNV	HSD17B2	protein_coding	YES	MANE_Select	NM_002153.3	ENSP00000199936	-	5/5	c.1163A>G	p.Ter388TrpextTer12	0.00831542029641362	0.05785	-0.697282	-0.731879	5.045	0.755079917617493	3.00094	0.667	0.07	0.006437	0.061	0.005	0.26	0.02201	0.218109	-1.54	-	270	0.0563363	0.00700352	12	P37059
chr17_3610562_A/G	chr17	3610562	G	ENSG00000197417	ENST00000225519	stop_lost	1466	1435	479	Q	Tag	Cag	A	-1	SNV	SHPK	protein_coding	YES	MANE_Select	NM_013276.4	ENSP00000225519	-	7/7	c.1435T>C	p.Ter479GlnextTer11	0.000562141876856037	0.0004502	-0.574039	-0.7384	14.52	0.827654515140916	5.659313	3.31	0.49	0.0002117	0.01	0.642	4.204	0.87565	0.295142	-4.78	Uncertain_significance	0	0.000438922	0.000194209	11	Q9UHJ6
chr17_3660369_G/C	chr17	3660369	C	ENSG00000040531	ENST00000046640	stop_lost	1405	1104	368	Y	taG	taC	G	1	SNV	CTNS	protein_coding	YES	MANE_Select	NM_004937.3	ENSP00000046640	-	12/12	c.1104G>C	p.Ter368TyrextTer54	0.000142348754448399	0	-0.264578	-0.436296	14.47	0.814555118794807	2.611274	4.22	NA	0	0.119	0.914	1.037	0.83829	0.184171	-7.04	-	0	1.33419e-05	6.19556e-07	54	O60931
chr17_34928049_C/A	chr17	34928049	A	ENSG00000132141	ENST00000314144	stop_lost	1659	1592	531	L	tGa	tTa	C	-1	SNV	CCT6B	protein_coding	YES	MANE_Select	NM_006584.4	ENSP00000327191	-	14/14	c.1592G>T	p.Ter531LeuextTer1	0.00369103665702564	0.004435	-0.412187	-0.36071	15.21	0.779764301224257	10.1494	3.18	0.465	0.00403	0.193	1	4.4	0.94914	0.294411	-6.93	-	12	0.00543531	0.00411285	1	Q92526
chr17_35764617_G/C	chr17	35764617	C	ENSG00000270806	ENST00000605587	stop_lost	579	524	175	S	tGa	tCa	G	1	SNV	C17orf50	protein_coding	YES	MANE_Select	NM_145272.4	ENSP00000475146	-	3/3	c.524G>C	p.Ter175SerextTer72	0.000292977553412062	0.003568	NA	NA	5.846	NA	NA	NA	NA	0.0002569	0.007	0.006	0.183	0.36275	0.199473	-1.45	-	0	0.00344741	0.000169212	72	Q8WW18
chr17_38322595_A/C	chr17	38322595	C	ENSG00000278845	ENST00000613675	stop_lost	937	921	307	C	tgA	tgC	A	1	SNV	MRPL45	protein_coding	YES	MANE_Select	NM_032351.6	ENSP00000484903	-	8/8	c.921A>C	p.Ter307CysextTer1	0.000440553112448205	0.001272	NA	NA	15.16	NA	NA	NA	NA	0.0002403	0.009	0.96	1.983	0.83148	0.295142	-5.12	-	1	0.00163458	0.000228464	1	-
chr17_40456581_T/A	chr17	40456581	A	ENSG00000141753	ENST00000269593	stop_lost	1061	775	259	R	Tga	Aga	T	1	SNV	IGFBP4	protein_coding	YES	MANE_Select	NM_001552.3	ENSP00000269593	-	4/4	c.775T>A	p.Ter259ArgextTer28	0	0.001272	0.128996	-0.0524832	18.16	0.875210232556761	11.88332	5.29	NA	0	0.045	1	2.905	0.96142	0.359288	-8.44	-	0	2.23105e-05	6.20411e-07	28	P22692
chr17_40766515_T/A	chr17	40766515	A	ENSG00000186393	ENST00000335552	stop_lost	1495	1407	469	Y	taA	taT	T	-1	SNV	KRT26	protein_coding	YES	MANE_Select	NM_181539.5	ENSP00000334798	-	8/8	c.1407A>T	p.Ter469TyrextTer1	7.11743772241993e-05	3.343e-05	-0.300236	-0.669045	0.906	0.813347439674018	2.921514	-0.0554	NA	0	0.005	0	-0.442	0.06968	0.061011	-1.62	-	0	0.0001703	1.26246e-06	1	Q7Z3Y9
chr17_42850348_G/C	chr17	42850348	C	ENSG00000131480	ENST00000253799	stop_lost	2318	2271	757	Y	taG	taC	G	1	SNV	AOC2	protein_coding	YES	MANE_Select	NM_009590.4	ENSP00000253799	-	4/4	c.2271G>C	p.Ter757TyrextTer2	0.000215982721382289	6.685e-05	-0.63627	-0.845758	0.471	0.568978786503292	2.069684	-3.11	0.225	1.582e-05	0.008	0.017	0.085	0.03238	0.085967	-4.82	-	0	0.000167673	6.41475e-05	2	O75106
chr17_43861910_A/G	chr17	43861910	G	ENSG00000161649	ENST00000317310	stop_lost	1039	998	333	W	tAg	tGg	A	1	SNV	CD300LG	protein_coding	YES	MANE_Select	NM_145273.4	ENSP00000321005	-	7/7	c.998A>G	p.Ter333TrpextTer11	0.000627737226277372	0.001272	-0.618062	-0.71102	10.57	0.783348303767853	5.271739	4.18	NA	8.091e-05	0.004	0.579	2.11	0.40513	0.06567	-4.31	-	2	0.000976589	4.80012e-05	11	Q6UXG3
chr17_49838644_A/C	chr17	49838644	C	ENSG00000176358	ENST00000436235	stop_lost	374	322	108	E	Taa	Gaa	A	-1	SNV	TAC4	protein_coding	YES	MANE_Select	NM_001077506.2	ENSP00000399702	-	5/5	c.322T>G	p.Ter108GluextTer22	0.00294092119933504	0.02687	-0.566445	-0.564805	6.943	0.696529855938907	3.998288	0.904	0.04	0.002144	0.208	0.972	0.978	0.65841	0.078448	-4.87	Benign	38	0.0299669	0.0016254	22	Q86UU9
chr17_53825053_T/A	chr17	53825053	A	ENSG00000141200	ENST00000268919	stop_lost	2127	2020	674	R	Tga	Aga	T	1	SNV	KIF2B	protein_coding	YES	MANE_Select	NM_032559.5	ENSP00000268919	-	1/1	c.2020T>A	p.Ter674ArgextTer39	0.000111284219897619	0	-0.305625	-0.676786	10.22	0.719605226089106	3.399925	1.33	NA	0	0.034	0.491	0.903	0.07123	0.061011	-3.52	-	0	2.23065e-05	6.24818e-07	39	Q8N4N8
chr17_60431265_A/T	chr17	60431265	T	ENSG00000141371	ENST00000269127	stop_lost	814	710	237	L	tAa	tTa	A	1	SNV	CHCT1	protein_coding	YES	MANE_Select	NM_181707.3	ENSP00000269127	-	6/6	c.710A>T	p.Ter237LeuextTer41	0.000299043062200957	0.0001376	-0.477081	-0.730735	2.481	0.790350714821103	2.438857	0.845	NA	6.205e-05	0.012	0.01	0.381	0.03868	0.078448	-1.66	-	0	0.000119181	4.06722e-05	41	Q86WR6
chr17_63872128_A/G	chr17	63872128	G	ENSG00000213218	ENST00000392886	stop_lost	715	652	218	Q	Tag	Cag	A	-1	SNV	CSH2	protein_coding	YES	MANE_Select	NM_020991.4	ENSP00000376623	-	5/5	c.652T>C	p.Ter218GlnextTer?	0.00397266804385826	0.004565	-0.362703	-0.29227	16.91	0.667614649101019	8.406355	3.97	0.45	0.003854	0.303	1	6.012	0.97926	0.06567	-5.72	Benign	70	0.00496296	0.00424942	?	P0DML3
chr17_63895023_T/G	chr17	63895023	G	ENSG00000136488	ENST00000316193	stop_lost	716	653	218	S	tAg	tCg	T	-1	SNV	CSH1	protein_coding	YES	MANE_Select	NM_001317.6	ENSP00000316416	-	5/5	c.653A>C	p.Ter218SerextTer4	0.000268528464017186	0.0008653	-0.517721	-0.572794	15.27	0.670297642878496	5.260096	1.47	0.165	9.307e-05	0.132	0.992	2.409	0.62052	0.078448	-5.91	-	3	0.000645144	5.88972e-05	4	P0DML2
chr17_81902747_G/C	chr17	81902747	C	ENSG00000183979	ENST00000333383	stop_lost	417	377	126	S	tGa	tCa	G	1	SNV	NPB	protein_coding	YES	MANE_Select	NM_148896.5	ENSP00000332766	-	2/2	c.377G>C	p.Ter126SerextTer41	4.52263579213966e-05	0.003817	-0.271604	-0.545051	13.44	0.8267604628954	6.024354	3.61	NA	4.684e-05	0.135	1	1.63	0.88962	0.184171	-6.92	-	0	0.000330469	3.67494e-05	41	Q8NG41
chr18_13124770_A/T	chr18	13124770	T	ENSG00000101639	ENST00000506447	stop_lost	7694	7614	2538	Y	taA	taT	A	1	SNV	CEP192	protein_coding	YES	MANE_Select	NM_032142.4	ENSP00000427550	-	45/45	c.7614A>T	p.Ter2538TyrextTer7	8.54408749145591e-05	0.008598	-0.58976	-0.613528	1.961	0.758156115385595	3.165586	0.0555	0.01	0.0003443	0.163	0.006	0.498	0.07735	0.295142	-2.29	-	14	0.00917087	0.000543247	7	Q8TEP8
chr18_50729852_T/C	chr18	50729852	C	ENSG00000141639	ENST00000400384	stop_lost	2789	1762	588	R	Tga	Cga	T	1	SNV	MAPK4	protein_coding	YES	MANE_Select	NM_002747.4	ENSP00000383234	-	6/6	c.1762T>C	p.Ter588ArgextTer40	9.36329588014981e-05	0.001272	0.151389	-0.0203165	18.03	0.836493115318749	13.59043	5.5	0.835	3.042e-06	0.312	1	2.423	0.89457	0.078448	-8.16	-	0	0.000165673	3.10817e-06	40	P31152
chr18_57550712_T/G	chr18	57550712	G	ENSG00000066926	ENST00000262093	stop_lost	1354	1272	424	C	tgA	tgC	T	-1	SNV	FECH	protein_coding	YES	MANE_Select	NM_000140.5	ENSP00000262093	-	11/11	c.1272A>C	p.Ter424CysextTer26	0.000668764752163651	0	0.0521783	-0.162826	18.82	0.71206988366173	15.47595	5.84	0.91	0	0.1	1	6.364	0.92735	0.295142	-10.16	-	0	0.00348432	0.000518208	26	P22830
chr18_63723397_T/G	chr18	63723397	G	ENSG00000206072	ENST00000544088	stop_lost	1239	1177	393	E	Taa	Gaa	T	1	SNV	SERPINB11	protein_coding	YES	MANE_Select	NM_001370475.1	ENSP00000441497	-	8/8	c.1177T>G	p.Ter393GluextTer43	0.00125491190264926	0.01059	-0.640053	-0.684206	15.16	0.827335880671827	10.73059	5.46	0	0.000702	0.133	0.972	2.603	0.87841	0.053691	-7.36	-	1	0.0100632	0.000497352	43	Q96P15
chr18_79970449_T/G	chr18	79970449	G	ENSG00000226742	ENST00000451882	stop_lost	316	223	75	E	Taa	Gaa	T	1	SNV	HSBP1L1	protein_coding	YES	MANE_Select	NM_001136180.2	ENSP00000414236	-	4/4	c.223T>G	p.Ter75GluextTer16	3.11895702077225e-05	3.342e-05	-0.547686	-1.02449	1.974	0.568771754444305	2.319987	-0.411	NA	0	0.004	0.008	0.75	0.02469	0.184171	-1.46	-	0	0	0	16	C9JCN9
chr19_1783028_T/C	chr19	1783028	C	ENSG00000130270	ENST00000310127	stop_lost	4142	3903	1301	W	tgA	tgG	T	-1	SNV	ATP8B3	protein_coding	YES	MANE_Select	NM_138813.4	ENSP00000311336	-	29/29	c.3903A>G	p.Ter1301TrpextTer245	0.0558632997647495	0.193	-0.736463	-0.686835	3.356	0.479635220591879	1.558977	-0.957	0.02	0.05294	0.022	0	-1.168	0.00083	0.360735	1.12	-	3416	0.191646	0.053846	245	O60423
chr19_4360002_A/C	chr19	4360002	C	ENSG00000008382	ENST00000599840	stop_lost	1538	1506	502	C	tgA	tgC	A	1	SNV	MPND	protein_coding	YES	MANE_Select	NM_001300862.2	ENSP00000471735	-	13/13	c.1506A>C	p.Ter502CysextTer19	0.000197303518579415	0.0005654	-0.351221	-0.344758	18.01	0.740938920994456	9.358252	4.18	0.83	3.224e-05	0.017	1	5.441	0.9845	0.256867	-9.77	-	0	0.000437123	2.24436e-05	19	-
chr19_8490189_T/G	chr19	8490189	G	ENSG00000133246	ENST00000423345	stop_lost	2062	2013	671	Y	taA	taC	T	-1	SNV	PRAM1	protein_coding	YES	MANE_Select	NM_032152.5	ENSP00000408342	-	10/10	c.2013A>C	p.Ter671TyrextTer3	6.83573723426072e-05	0.001025	-0.641775	-0.698007	7.689	0.658675654259833	2.858528	0.253	0	9.124e-06	0.182	0.122	0.69	0.16614	0.069865	-4.37	-	0	0.000702279	1.96406e-05	3	Q96QH2
chr19_11166560_A/G	chr19	11166560	G	ENSG00000197256	ENST00000586659	stop_lost	2893	2554	852	Q	Tag	Cag	A	-1	SNV	KANK2	protein_coding	YES	MANE_Select	NM_001136191.3	ENSP00000465650	-	13/13	c.2554T>C	p.Ter852GlnextTer2	2.82230751862723e-05	0.001272	-0.154488	-0.459688	14.54	0.852035801402876	6.608389	3.1	0.41	1.886e-05	0.096	0.975	3.279	0.74734	0.295142	-7.15	Uncertain_significance	0	0.000494886	2.54046e-05	2	Q63ZY3
chr19_12349703_A/T	chr19	12349703	T	ENSG00000198342	ENST00000242804	stop_lost	2515	1882	628	K	Taa	Aaa	A	-1	SNV	ZNF442	protein_coding	YES	MANE_Select	NM_030824.3	ENSP00000242804	-	6/6	c.1882T>A	p.Ter628LysextTer7	0.00143806667718911	0.002206	-0.707255	-0.824077	2.837	0.835089679763869	2.526594	0.195	0.055	0.0009447	0.01	0	-1.57	0.00307	0.078448	-1.26	-	5	0.00437563	0.000987704	7	Q9H7R0
chr19_12390467_T/A	chr19	12390467	A	ENSG00000196466	ENST00000430385	stop_lost	2132	1931	644	L	tAg	tTg	T	-1	SNV	ZNF799	protein_coding	YES	MANE_Select	NM_001080821.3	ENSP00000411084	-	4/4	c.1931A>T	p.Ter644LeuextTer4	8.47505508785807e-05	0.001294	-0.616829	-0.735514	0.911	0.801980823660543	2.075235	-1.69	0.04	8.882e-05	0.002	0	-1.591	0.02935	0.106106	-1.29	-	1	0.000835716	0.000100463	4	Q96GE5
chr19_12430157_T/A	chr19	12430157	A	ENSG00000180855	ENST00000301547	stop_lost	2122	2015	672	L	tAg	tTg	T	-1	SNV	ZNF443	protein_coding	YES	MANE_Select	NM_005815.5	ENSP00000301547	-	4/4	c.2015A>T	p.Ter672LeuextTer4	0.209953280520008	0.3824	-0.824557	-0.813376	1.537	0.578245508848783	2.00461	-1.27	0.025	0.2295	0	0	-1.613	0.00435	0.106106	-1.71	-	39560	0.368832	0.21198	4	Q9Y2A4
chr19_12804301_T/C	chr19	12804301	C	ENSG00000284491	ENST00000639810	stop_lost	349	346	116	R	Tga	Cga	T	1	SNV	THSD8	protein_coding	YES	MANE_Select	NM_001386800.1	ENSP00000491231	-	2/2	c.346T>C	p.Ter116ArgextTer?	0.00374479889042996	0.0173	NA	NA	17.41	0.716680099352022	NA	5.2	NA	0	NA	0.977	2.099	0.87149	0.056701	-6.44	-	11	0.0168698	0.00216508	?	A0A1W2PP97
chr19_18929445_A/G	chr19	18929445	G	ENSG00000051128	ENST00000392351	stop_lost	1318	1084	362	R	Tga	Cga	A	-1	SNV	HOMER3	protein_coding	YES	MANE_Select	NM_004838.4	ENSP00000376162	-	10/10	c.1084T>C	p.Ter362ArgextTer7	5.93049460324991e-05	0.00558	-0.497398	-0.483807	16.55	0.878627001515151	6.238992	4.04	0.59	4.387e-05	0.067	0.996	2.919	0.76943	0.256867	-6.41	-	5	0.00884916	0.000253603	7	Q9NSC5
chr19_19934818_G/C	chr19	19934818	C	ENSG00000184635	ENST00000343769	stop_lost	2006	1863	621	Y	taG	taC	G	1	SNV	ZNF93	protein_coding	YES	MANE_Select	NM_031218.4	ENSP00000342002	-	4/4	c.1863G>C	p.Ter621TyrextTer19	0.000767606985223565	0	-0.50248	-0.959554	0.624	0.698228627288719	2.101416	-1.63	0.08	0	0	0	-0.587	8e-05	0.256867	2.97	-	0	8.47417e-05	1.60383e-05	19	P35789
chr19_20198102_A/G	chr19	20198102	G	ENSG00000256229	ENST00000335117	stop_lost	1509	1392	464	W	tgA	tgG	A	1	SNV	ZNF486	protein_coding	YES	MANE_Select	NM_052852.4	ENSP00000335042	-	4/4	c.1392A>G	p.Ter464TrpextTer11	9.36329588014981e-05	7.503e-05	-0.489861	-0.704759	0.473	0.745206266338275	2.211083	0.85	0.32	9.733e-06	0	0	-1.136	0.03716	0.099367	1.07	-	0	0.000120909	5.78144e-06	11	Q96H40
chr19_21538076_T/C	chr19	21538076	C	ENSG00000197013	ENST00000358491	stop_lost	2193	2023	675	Q	Taa	Caa	T	1	SNV	ZNF429	protein_coding	YES	MANE_Select	NM_001001415.4	ENSP00000351280	-	4/4	c.2023T>C	p.Ter675GlnextTer27	0.000796080832823025	0.001223	-0.492035	-0.94455	1.653	0.36551200244392	1.493776	-1.43	0	5.307e-05	0	0	-0.473	0.00239	0.074636	-0.5	-	0	0.000890152	5.09971e-05	27	Q86V71
chr19_21971191_C/G	chr19	21971191	G	ENSG00000160321	ENST00000397126	stop_lost	3992	3843	1281	Y	taG	taC	C	-1	SNV	ZNF208	protein_coding	YES	MANE_Select	NM_007153.3	ENSP00000380315	-	4/4	c.3843G>C	p.Ter1281TyrextTer158	0.00700246677806955	0.004918	-0.54273	-1.01737	0.085	0.332824874316394	0.6913708	-5.69	0	1.886e-05	0.002	0	-0.518	7e-05	0.061011	-0.37	not_provided	0	0.00248307	0.000249375	158	O43345
chr19_32879164_A/G	chr19	32879164	G	ENSG00000121289	ENST00000305768	stop_lost	2434	2350	784	Q	Tag	Cag	A	-1	SNV	CEP89	protein_coding	YES	MANE_Select	NM_032816.5	ENSP00000306105	-	19/19	c.2350T>C	p.Ter784GlnextTer8	0.314028453388419	0.353	-0.897704	-0.918446	5.302	0.598518965079735	1.305113	1.07	0.065	0.3036	0.007	0.054	0.919	3e-04	0.162113	4.72	Benign	89061	0.364322	0.321048	8	Q96ST8
chr19_35716750_T/A	chr19	35716750	A	ENSG00000011590	ENST00000392197	stop_lost	1749	1462	488	R	Tga	Aga	T	1	SNV	ZBTB32	protein_coding	YES	MANE_Select	NM_014383.3	ENSP00000376035	-	7/7	c.1462T>A	p.Ter488ArgextTer23	0.000340475758126021	0.0003008	-0.0945423	-0.358094	18.17	0.854967073891146	4.863655	2.11	0.57	4.866e-05	0.049	0.008	-0.009	0.08577	0.08998	-5.17	-	1	9.41853e-06	5.8162e-05	23	Q9Y2Y4
chr19_36891494_A/T	chr19	36891494	T	ENSG00000185869	ENST00000391711	stop_lost	1662	1297	433	R	Tga	Aga	A	-1	SNV	ZNF829	protein_coding	YES	MANE_Select	NM_001037232.4	ENSP00000429266	-	6/6	c.1297T>A	p.Ter433ArgextTer5	6.29279097865485e-05	0.00127	-0.435839	-0.44927	12.76	0.897179988858593	4.479239	2.59	0.03	0.000101	0.008	0	0.161	0.05929	0.106106	-2.34	-	1	0.00125979	7.126e-05	5	Q3KNS6
chr19_39519146_T/G	chr19	39519146	G	ENSG00000186838	ENST00000335426	stop_lost	1113	1039	347	E	Tag	Gag	T	1	SNV	SELENOV	protein_coding	YES	MANE_Select	NM_182704.2	ENSP00000333956	-	5/6	c.1039T>G	p.Ter347GluextTer?	0.000208706022659511	0.0004915	-0.565829	-0.641899	10.29	0.765524430006276	4.336756	2.22	0.02	2.494e-05	NA	0.875	0.783	0.451	0.181887	-5.58	-	0	0.00045457	2.47945e-05	?	P59797
chr19_41837145_A/G	chr19	41837145	G	ENSG00000273111	ENST00000609812	stop_lost	1965	739	247	R	Tga	Cga	A	-1	SNV	LYPD4	protein_coding	YES	MANE_Select	NM_173506.7	ENSP00000476510	-	5/5	c.739T>C	p.Ter247ArgextTer?	0.000108701559867384	0.0004541	-0.440185	-0.540071	15.4	0.762620168896719	4.007738	2.97	0.175	4.076e-05	0.257	0.086	2.092	0.0846	0.06567	-3.77	-	0	0.000466443	2.35453e-05	?	Q6UWN0
chr19_42226414_T/G	chr19	42226414	G	ENSG00000167625	ENST00000301215	stop_lost	2195	2011	671	G	Tga	Gga	T	1	SNV	ZNF526	protein_coding	YES	MANE_Select	NM_133444.3	ENSP00000301215	-	3/3	c.2011T>G	p.Ter671GlyextTer3	6.75432276657061e-05	6.685e-05	-0.144706	-0.335578	6.317	0.711729199371234	5.975546	4.35	0.55	7.482e-05	0.007	0.993	1.214	0.76623	0.295142	-5.64	-	0	0.000164366	7.80629e-05	3	Q8TF50
chr19_43648892_A/G	chr19	43648892	G	ENSG00000011422	ENST00000340093	stop_lost	1055	1006	336	Q	Taa	Caa	A	-1	SNV	PLAUR	protein_coding	YES	MANE_Select	NM_002659.4	ENSP00000339328	-	7/7	c.1006T>C	p.Ter336GlnextTer2	0.000306905141669206	0.003817	-0.405453	-0.405622	16.3	0.749878873644745	8.760233	3.84	0.2	0.0003711	0.396	1	2.096	0.70045	0.295142	-2.81	-	4	0.00191304	0.000290076	2	Q03405
chr19_45306752_A/G	chr19	45306752	G	ENSG00000104879	ENST00000221476	stop_lost	1217	1144	382	Q	Tag	Cag	A	-1	SNV	CKM	protein_coding	YES	MANE_Select	NM_001824.5	ENSP00000221476	-	8/8	c.1144T>C	p.Ter382GlnextTer87	0.0011168341067877	0.001328	-0.330915	-0.298553	16.49	0.858040458820986	18.49634	5.49	0.92	0.0008425	0.055	1	8.92	0.98129	0.045349	-10.64	Likely_benign	4	0.00105932	0.00103279	87	P06732
chr19_46120331_T/A	chr19	46120331	A	ENSG00000188624	ENST00000341415	stop_lost	416	377	126	L	tAa	tTa	T	-1	SNV	IGFL3	protein_coding	YES	MANE_Select	NM_207393.2	ENSP00000344860	-	4/4	c.377A>T	p.Ter126LeuextTer33	2.82294489611563e-05	0.001272	-0.285926	-0.64849	4.727	0.549472608593115	2.382511	0.113	0.185	1.338e-05	0.001	0.017	0.201	0.0039	0.078448	-0.1	-	1	0.000495704	1.24137e-05	33	Q6UXB1
chr19_48629773_A/G	chr19	48629773	G	ENSG00000063176	ENST00000245222	stop_lost	2116	1965	655	W	tgA	tgG	A	1	SNV	SPHK2	protein_coding	YES	MANE_Select	NM_020126.5	ENSP00000245222	-	7/7	c.1965A>G	p.Ter655TrpextTer2	7.11743772241993e-05	0.0003877	-0.514647	-0.595063	15.2	0.705119505152455	4.552265	3.77	0.17	0.0001466	0.309	0.017	2.449	0.18212	0.283894	-2.27	-	0	0.000581003	2.11096e-05	2	Q9NRA0
chr19_49035611_T/G	chr19	49035611	G	ENSG00000267631	ENST00000301407	stop_lost	651	467	156	S	tAg	tCg	T	-1	SNV	CGB1	protein_coding	YES	MANE_Select	NM_033377.2	ENSP00000301407	-	3/3	c.467A>C	p.Ter156SerextTer8	0.0199688594783963	0	-0.822529	-0.953329	5.719	0.756183159370511	1.728599	1.28	0.02	0.002886	0.005	0.001	0.348	3e-04	0.053691	1.26	-	675	0.0968824	0.00583871	8	A6NKQ9
chr19_50819194_T/G	chr19	50819194	G	ENSG00000167748	ENST00000301420	stop_lost	828	789	263	C	tgA	tgC	T	-1	SNV	KLK1	protein_coding	YES	MANE_Select	NM_002257.4	ENSP00000301420	-	5/5	c.789A>C	p.Ter263CysextTer10	0	0.00129	-0.511931	-0.515393	17.93	0.653810547695556	4.782599	2.49	0.325	5.536e-05	0.104	0.985	2.423	0.85544	0.235384	-6.75	-	0	0.00164061	9.62141e-05	10	P06870
chr19_51872532_T/G	chr19	51872532	G	ENSG00000161551	ENST00000638348	stop_lost	2807	1458	486	Y	taA	taC	T	-1	SNV	ZNF577	protein_coding	YES	MANE_Select	NM_001370449.1	ENSP00000491936	-	6/6	c.1458A>C	p.Ter486TyrextTer3	0.000213435782508938	0.00114	-0.558421	-0.615443	9.504	0.796788497443498	3.066803	1.96	0.005	8.705e-05	0.016	0.06	1.483	0.09333	0.156188	-1.72	-	0	0.00117634	6.21234e-05	3	Q9BSK1
chr19_51964856_A/G	chr19	51964856	G	ENSG00000256683	ENST00000243644	stop_lost	1839	1597	533	Q	Tag	Cag	A	-1	SNV	ZNF350	protein_coding	YES	MANE_Select	NM_021632.4	ENSP00000243644	-	5/5	c.1597T>C	p.Ter533GlnextTer16	0.000649960280205099	0.002418	-0.573841	-0.603227	5.349	0.411016397434379	2.425603	0.961	0.09	2.494e-05	0.042	0	0.368	0.10573	0.156188	-0.65	-	3	0.00600197	0.00025433	16	Q9GZX5
chr19_52949821_A/G	chr19	52949821	G	ENSG00000180257	ENST00000444460	stop_lost	2124	1954	652	Q	Taa	Caa	A	-1	SNV	ZNF816	protein_coding	YES	MANE_Select	NM_001202457.3	ENSP00000403266	-	4/4	c.1954T>C	p.Ter652GlnextTer1	8.68130914141853e-05	0.002232	-0.616919	-0.740721	2.168	0.638032280112526	2.899527	0.792	0.055	2.19e-05	0.002	0.001	0.375	0.09466	0.163922	-1.67	-	0	0.000334359	1.92129e-05	1	Q0VGE8
chr19_54510567_T/A	chr19	54510567	A	ENSG00000167618	ENST00000301202	stop_lost	545	457	153	R	Tga	Aga	T	1	SNV	LAIR2	protein_coding	YES	MANE_Select	NM_002288.6	ENSP00000301202	-	5/5	c.457T>A	p.Ter153ArgextTer?	0.0663139681905903	0.07433	-0.799263	-0.864157	3.262	0.648343139182642	2.225216	-0.424	0.045	0.04547	0.007	0.003	-0.458	0.00163	0.078448	-1.52	-	2808	0.0524434	0.048404	?	Q6ISS4
chr19_54752517_T/A	chr19	54752517	A	ENSG00000243772	ENST00000342376	stop_lost	1057	1024	342	R	Tga	Aga	T	1	SNV	KIR2DL3	protein_coding	YES	MANE_Select	NM_015868.3	ENSP00000342215	-	8/8	c.1024T>A	p.Ter342ArgextTer8	0.0954167346273039	0.3028	-0.481943	-0.930054	4.524	0.761375770191925	1.698415	0.635	0	0.003355	0.065	0.002	0.816	2e-05	0.061011	2.34	-	1481	0.0540062	0.00559435	8	P43628
chr19_54830273_T/C	chr19	54830273	C	ENSG00000167633	ENST00000391728	stop_lost	1366	1333	445	R	Tga	Cga	T	1	SNV	KIR3DL1	protein_coding	YES	MANE_Select	NM_013289.4	ENSP00000375608	-	9/9	c.1333T>C	p.Ter445ArgextTer11	0.000595541943168283	0.3184	-0.434208	-0.624817	0.226	0.773278108111785	2.547871	0.736	0.215	9.8e-05	0.229	0	-1.049	0.00922	0.061011	-3.22	-	9	0.00699228	0.000616171	11	P43629
chr19_55159062_T/C	chr19	55159062	C	ENSG00000167646	ENST00000524407	stop_lost	1721	1626	542	W	tgA	tgG	T	-1	SNV	DNAAF3	protein_coding	YES	MANE_Select	NM_001256715.2	ENSP00000432046	-	12/12	c.1626A>G	p.Ter542TrpextTer4	0.000257731958762887	0.001659	-0.74829	-0.866658	7.123	0.798556814334955	2.552008	-1.98	0.09	0.0001089	0.017	0.001	0.2	0.01577	0.114469	-1.58	Uncertain_significance	0	0.00157664	8.55092e-05	4	Q8N9W5
chr19_55987913_G/C	chr19	55987913	C	ENSG00000179709	ENST00000291971	stop_lost	3218	3147	1049	Y	taG	taC	G	1	SNV	NLRP8	protein_coding	YES	MANE_Select	NM_176811.2	ENSP00000291971	-	10/10	c.3147G>C	p.Ter1049TyrextTer10	0.727471616646427	0.7803	-0.968647	-1.02035	0.046	0.507483836480081	0.863954	0.372	0.01	0.7356	0.012	0	-1.258	0.00013	0.053691	0.71	-	438626	0.793224	0.738048	10	Q86W28
chr19_56088025_A/G	chr19	56088025	G	ENSG00000142409	ENST00000610935	stop_lost	1281	1147	383	Q	Tag	Cag	A	-1	SNV	ZNF787	protein_coding	YES	MANE_Select	NM_001002836.4	ENSP00000478557	-	3/3	c.1147T>C	p.Ter383GlnextTer59	0	0.002222	-0.318511	-0.695296	14.12	0.753576655195594	4.96916	2.95	NA	0	0	0	-0.073	0.03096	0.092769	-2.68	-	0	0	0	59	Q6DD87
chr19_56578581_T/C	chr19	56578581	C	ENSG00000197016	ENST00000330619	stop_lost	2881	2152	718	Q	Tag	Cag	T	1	SNV	ZNF470	protein_coding	YES	MANE_Select	NM_001001668.4	ENSP00000333223	-	6/6	c.2152T>C	p.Ter718GlnextTer8	0.000352459534934162	0.004023	-0.68118	-0.75335	10.7	0.777957974927642	4.320486	2.85	0.01	0.00025	0.006	0.002	1.171	0.10063	0.322412	-2.97	-	2	0.00298495	0.000156567	8	Q6ECI4
chr19_57507422_T/G	chr19	57507422	G	ENSG00000152439	ENST00000282292	stop_lost	1470	1327	443	G	Tga	Gga	T	1	SNV	ZNF773	protein_coding	YES	MANE_Select	NM_198542.3	ENSP00000282292	-	4/4	c.1327T>G	p.Ter443GlyextTer2	3.03137472843935e-05	0.001272	-0.736377	-0.925617	0.015	0.336021307004263	1.75551	-1.76	0.01	3.954e-05	0.002	0	-4.289	0.0143	0.156188	-1.49	-	1	0.00101902	5.56055e-05	2	Q6PK81
chr19_57642179_T/C	chr19	57642179	C	ENSG00000121417	ENST00000240731	stop_lost	1911	1732	578	Q	Tag	Cag	T	1	SNV	ZNF211	protein_coding	YES	MANE_Select	NM_006385.5	ENSP00000240731	-	4/4	c.1732T>C	p.Ter578GlnextTer3	0	0.001272	-0.294145	-0.660295	6.428	0.705217644983133	3.472866	2.95	0.35	6.083e-07	0.056	0.044	1.288	0.10727	0.156188	-3.32	-	0	0.000167001	6.25324e-07	3	Q13398
chr19_58347022_T/A	chr19	58347022	A	ENSG00000121410	ENST00000263100	stop_lost	1543	1488	496	C	tgA	tgT	T	-1	SNV	A1BG	protein_coding	YES	MANE_Select	NM_130786.4	ENSP00000263100	-	8/8	c.1488A>T	p.Ter496CysextTer83	0.00011125945705385	0	-0.279676	-0.639512	8.052	0.678870532727342	4.360713	3.04	0.575	6.083e-07	0.042	0.146	0.962	0.48633	0.255962	-5.29	-	0	0	6.19585e-07	83	P04217
chr2_26456517_A/C	chr2	26456517	C	ENSG00000157856	ENST00000288710	stop_lost	2293	2223	741	C	tgA	tgC	A	1	SNV	DRC1	protein_coding	YES	MANE_Select	NM_145038.5	ENSP00000288710	-	17/17	c.2223A>C	p.Ter741CysextTer13	0.000511712531271321	0.004847	-0.603199	-0.638963	11.27	0.78355441158505	3.377331	0.409	0.085	0.0003388	0.037	0.061	0.375	0.13728	0.074636	-2.26	Benign/Likely_benign	4	0.00454412	0.000230473	13	Q96MC2
chr2_27650198_T/C	chr2	27650198	C	ENSG00000198522	ENST00000610189	stop_lost	1132	1123	375	Q	Tag	Cag	T	1	SNV	GPN1	protein_coding	YES	MANE_Select	NM_007266.4	ENSP00000476446	-	14/14	c.1123T>C	p.Ter375GlnextTer10	9.00616922591975e-05	0.0002006	-0.183342	-0.501135	12.28	0.615373974988447	3.867657	2.12	0.47	3.042e-05	0.114	0.926	1.876	0.70619	0.322412	-4.95	-	0	2.71186e-05	2.76671e-05	10	Q9HCN4
chr2_71686490_T/G	chr2	71686490	G	ENSG00000135636	ENST00000410020	stop_lost	6502	6358	2120	G	Tga	Gga	T	1	SNV	DYSF	protein_coding	YES	MANE_Select	NM_001130987.2	ENSP00000386881	-	56/56	c.6358T>G	p.Ter2120GlyextTer33	7.11743772241993e-05	0	0.0342978	-0.18851	13.06	0.745382350222101	11.65803	4.92	0.26	0	0.516	1	2.136	0.9169	0.295142	-6.77	Uncertain_significance	0	0	0	33	O75923
chr2_85394893_T/G	chr2	85394893	G	ENSG00000042493	ENST00000263867	stop_lost	1110	1047	349	C	tgA	tgC	T	-1	SNV	CAPG	protein_coding	YES	MANE_Select	NM_001747.4	ENSP00000263867	-	10/10	c.1047A>C	p.Ter349CysextTer?	0.000223713646532438	0	0.0244234	-0.202694	18.19	0.866376893045295	12.84211	4.52	0.915	1.825e-06	0.618	1	6.774	0.97056	0.464309	-10.84	-	0	8.49172e-07	1.67553e-05	?	P40121
chr2_85608947_A/G	chr2	85608947	G	ENSG00000168887	ENST00000306336	stop_lost	581	499	167	R	Tga	Cga	A	-1	SNV	C2orf68	protein_coding	YES	MANE_Select	NM_001013649.4	ENSP00000304410	-	4/4	c.499T>C	p.Ter167ArgextTer3	9.36329588014981e-05	2.501e-05	-0.224173	-0.559786	17.66	0.83952591490588	4.818558	4.24	0.295	6.083e-07	0.002	1	2.546	0.78746	0.256867	-6.94	-	0	1.66633e-05	6.19533e-07	3	Q2NKX9
chr2_99150834_A/G	chr2	99150834	G	ENSG00000273045	ENST00000650052	stop_lost	792	276	92	W	tgA	tgG	A	1	SNV	C2orf15	protein_coding	YES	MANE_Select	NM_144706.4	ENSP00000497775	-	4/4	c.276A>G	p.Ter92TrpextTer16	0	0.001075	-0.237631	-0.27314	16.74	0.874837315234088	10.51485	4.74	0.27	1.277e-05	NA	1	3.909	0.86786	0.162113	-5.3	-	0	0.000330438	1.90293e-05	16	Q8WU43
chr2_111117814_T/C	chr2	111117814	C	ENSG00000153093	ENST00000439055	stop_lost	1965	1741	581	Q	Taa	Caa	T	1	SNV	ACOXL	protein_coding	YES	MANE_Select	NM_001142807.4	ENSP00000407761	-	18/18	c.1741T>C	p.Ter581GlnextTer144	0.00255431971029488	0.02045	-0.425805	-0.368159	13.2	0.808686475802642	3.926398	2.82	0.315	0.001454	0.04	0.009	0.52	0.05027	0.162408	-4.08	-	16	0.0206008	0.00112637	144	Q9NUZ1
chr2_112738824_T/G	chr2	112738824	G	ENSG00000169607	ENST00000302450	stop_lost	2248	2237	746	S	tAa	tCa	T	-1	SNV	CKAP2L	protein_coding	YES	MANE_Select	NM_152515.5	ENSP00000305204	-	9/9	c.2237A>C	p.Ter746SerextTer15	7.11743772241993e-05	9.269e-06	-0.112961	-0.400037	7.985	0.851203771441472	7.239482	4.18	0.655	0	0.009	1	2.696	0.93998	0.322412	-6.93	-	0	0	0	15	Q8IYA6
chr2_132148133_A/G	chr2	132148133	G	ENSG00000163046	ENST00000409867	stop_lost	1022	775	259	Q	Tag	Cag	A	-1	SNV	ANKRD30BL	protein_coding	YES	MANE_Select	NM_001358416.1	ENSP00000386398	-	6/6	c.775T>C	p.Ter259GlnextTer29	0.109223502113201	0	-0.461757	-0.901058	1.273	0.701973047883764	0.7317521	0.109	0.365	0	0.005	0.046	0.224	0.00457	0.078448	0.35	-	0	8.63261e-07	6.3293e-07	29	A7E2S9
chr2_135168781_A/G	chr2	135168781	G	ENSG00000115839	ENST00000264158	stop_lost	2962	2946	982	W	tgA	tgG	A	1	SNV	RAB3GAP1	protein_coding	YES	MANE_Select	NM_012233.3	ENSP00000264158	-	24/24	c.2946A>G	p.Ter982TrpextTer3	0.000394425453589272	0.0006036	-0.578814	-0.754945	10.91	0.76380172284286	3.287774	-2.19	0.14	0.0004764	0.074	0.976	2.711	0.71283	0.295142	-6.66	Uncertain_significance	0	0.000602463	0.00047503	3	Q15042
chr2_149214710_A/G	chr2	149214710	G	ENSG00000150556	ENST00000409642	stop_lost	793	624	208	W	tgA	tgG	A	1	SNV	LYPD6B	protein_coding	YES	MANE_Select	NM_177964.5	ENSP00000387077	-	7/7	c.624A>G	p.Ter208TrpextTer5	6.75401864109145e-05	0.0001126	-0.30004	-0.585898	15.96	0.77446159499585	10.74348	5.78	0.495	2.981e-05	0.05	0.998	6.192	0.96926	0.162113	-6.37	-	0	8.33306e-05	2.41665e-05	5	Q8NI32
chr2_151379531_T/A	chr2	151379531	A	ENSG00000123610	ENST00000243347	stop_lost	907	832	278	K	Taa	Aaa	T	1	SNV	TNFAIP6	protein_coding	YES	MANE_Select	NM_007115.4	ENSP00000243347	-	6/6	c.832T>A	p.Ter278LysextTer6	0.00283990060347888	0	-0.121726	-0.412627	16.37	0.687614984610745	10.51691	5.56	0.635	0	0.059	1	5.523	0.97854	0.053691	-8.15	-	0	0.000279486	0.000127126	6	P98066
chr2_176100758_T/C	chr2	176100758	C	ENSG00000170178	ENST00000406506	stop_lost	818	811	271	Q	Tag	Cag	T	1	SNV	HOXD12	protein_coding	YES	MANE_Select	NM_021193.4	ENSP00000385586	-	2/2	c.811T>C	p.Ter271GlnextTer26	5.08440105755542e-05	0.001581	-0.0340227	-0.11419	17.82	0.896249025180699	18.06916	5.76	0.72	2.86e-05	0.096	1	5.514	0.99063	0.220437	-8.4	-	0	0.000111562	2.54956e-05	26	P35452
chr2_184939026_G/C	chr2	184939026	C	ENSG00000170396	ENST00000302277	stop_lost	4061	3630	1210	Y	taG	taC	G	1	SNV	ZNF804A	protein_coding	YES	MANE_Select	NM_194250.2	ENSP00000303252	-	4/4	c.3630G>C	p.Ter1210TyrextTer4	0.000173656334114787	0.01088	-0.478583	-0.582497	9.611	0.813329148700055	5.718283	4.1	0.405	9.55e-05	0.227	0.995	2.103	0.9194	0.164513	-6.21	-	1	0.000512843	9.36641e-05	4	Q7Z570
chr2_189666109_T/C	chr2	189666109	C	ENSG00000286053	ENST00000607829	stop_lost	351	289	97	Q	Tag	Cag	T	1	SNV	ASDURF	protein_coding	YES	MANE_Select	NM_001353493.2	ENSP00000475224	-	4/4	c.289T>C	p.Ter97GlnextTer3	0.000208044382801664	0.002814	-0.497815	-0.488134	11.82	0.677725682946774	NA	3.25	0.175	0.0001722	0.122	1	1.734	0.9357	0.322412	-4.25	-	11	0.00985772	0.000277793	3	L0R819
chr2_207613048_A/G	chr2	207613048	G	ENSG00000144401	ENST00000411432	stop_lost	1017	655	219	Q	Taa	Caa	A	-1	SNV	METTL21A	protein_coding	YES	MANE_Select	NM_001127395.5	ENSP00000415115	-	4/4	c.655T>C	p.Ter219GlnextTer15	0.00050312797391535	0.003817	-0.243921	-0.173593	17.96	0.813933999853581	17.1449	4.76	0.82	0.0004033	0.132	1	7.915	0.99662	0.322412	-7.87	-	2	0.00382742	0.000365961	15	Q8WXB1
chr2_221426028_T/G	chr2	221426028	G	ENSG00000116106	ENST00000281821	stop_lost	3017	2961	987	C	tgA	tgC	T	-1	SNV	EPHA4	protein_coding	YES	MANE_Select	NM_004438.5	ENSP00000281821	-	17/18	c.2961A>C	p.Ter987CysextTer5	3.28817572011048e-05	2.781e-05	-0.0727758	-0.160786	18.34	0.787667619060655	23.03587	6.17	0.845	2.433e-06	0.414	1	7.674	0.99715	0.295142	-9.67	-	0	1.66656e-05	1.23933e-06	5	P54764
chr2_232535310_T/G	chr2	232535310	G	ENSG00000135902	ENST00000258385	stop_lost	1608	1552	518	E	Tag	Gag	T	1	SNV	CHRND	protein_coding	YES	MANE_Select	NM_000751.3	ENSP00000258385	-	12/12	c.1552T>G	p.Ter518GluextTer13	7.11743772241993e-05	9.306e-05	-0.256358	-0.305693	17.38	0.842642472873199	14.28129	5.13	0.695	0	0.093	1	7.095	0.97159	0.038988	-11.8	Uncertain_significance	0	0.000111388	4.95913e-06	13	Q07001
chr2_241894214_C/G	chr2	241894214	G	ENSG00000216921	ENST00000404031	stop_lost	382	287	96	S	tGa	tCa	C	-1	SNV	FAM240C	protein_coding	YES	MANE_Select	NM_001382368.1	ENSP00000490626	-	3/3	c.287G>C	p.Ter96SerextTer46	0.00190942582442268	0.001872	NA	NA	3.291	0.659622703933271	5.020755	2.02	0.37	0.0003254	NA	0.182	0.32	0.46064	0.078448	-3.59	-	3	0.000665557	0.00040157	46	A0A1B0GVR7
chr20_259305_A/C	chr20	259305	C	ENSG00000186458	ENST00000382376	stop_lost	342	287	96	S	tAa	tCa	A	1	SNV	DEFB132	protein_coding	YES	MANE_Select	NM_207469.3	ENSP00000371813	-	2/2	c.287A>C	p.Ter96SerextTer1	0.00127071061289624	0.001484	-0.744754	-0.848422	0.807	0.373136815230515	2.128051	-0.491	0	0.001214	0.011	0	-0.311	0.00495	0.095506	1.46	-	2	0.00166279	0.00150127	1	Q7Z7B7
chr20_1566156_C/G	chr20	1566156	G	ENSG00000101307	ENST00000381605	stop_lost	1261	1196	399	S	tGa	tCa	C	-1	SNV	SIRPB1	protein_coding	YES	MANE_Select	NM_006065.5	ENSP00000371018	-	5/6	c.1196G>C	p.Ter399SerextTer12	0.00031768507424754	0.008906	-0.735544	-0.830173	10.97	0.865193727381632	3.445938	1.2	0.065	0.0005116	0.031	0.004	0.722	0.06881	0.078448	-1.62	-	2	0.00430321	0.0004471	12	O00241
chr20_2483161_T/G	chr20	2483161	G	ENSG00000088876	ENST00000278772	stop_lost	2071	1800	600	C	tgA	tgC	T	-1	SNV	ZNF343	protein_coding	YES	MANE_Select	NM_024325.6	ENSP00000278772	-	6/6	c.1800A>C	p.Ter600CysextTer14	4.27313904794462e-05	0.00372	-0.642505	-0.736224	1.128	0.699926011354641	2.338709	0.663	0.26	5.535e-05	0.012	0	-1.946	0.09379	0.295142	-3.6	-	0	0.000780867	7.9906e-05	14	Q6P1L6
chr20_5302041_C/A	chr20	5302041	A	ENSG00000101292	ENST00000678254	stop_lost	1623	1154	385	L	tGa	tTa	C	-1	SNV	PROKR2	protein_coding	YES	MANE_Select	NM_144773.4	ENSP00000504128	-	3/3	c.1154G>T	p.Ter385LeuextTer43	6.30086127926871e-05	0.0009083	-0.451909	-0.514648	11.77	0.689589458714009	4.61817	0.378	0.09	6.631e-05	0.397	0.951	0.444	0.91496	0.164513	-8.7	Uncertain_significance	0	0.000813138	3.96686e-05	43	Q8NFJ6
chr20_18142356_G/C	chr20	18142356	C	ENSG00000232838	ENST00000432901	stop_lost	338	245	82	S	tGa	tCa	G	1	SNV	PET117	protein_coding	YES	MANE_Select	NM_001164811.2	ENSP00000397881	-	2/2	c.245G>C	p.Ter82SerextTer41	0	0.001272	-0.392071	-0.80096	14.86	0.861926308707399	9.07622	3.12	0.485	4.866e-06	0.011	1	3.478	0.92288	0.322412	-6.18	-	0	0.000334001	3.2553e-06	41	Q6UWS5
chr20_36255744_A/C	chr20	36255744	C	ENSG00000131043	ENST00000320849	stop_lost	1228	1154	385	S	tAa	tCa	A	1	SNV	AAR2	protein_coding	YES	MANE_Select	NM_001271874.2	ENSP00000313674	-	4/4	c.1154A>C	p.Ter385SerextTer64	0.000247647350173353	0.0004627	-0.391699	-0.502866	8.872	0.573148878010241	4.400559	1.13	0.92	7.543e-05	0.013	0.999	0.852	0.96729	0.295142	-6.08	-	0	0.000283362	5.57633e-05	64	Q9Y312
chr20_45123846_T/A	chr20	45123846	A	ENSG00000168703	ENST00000372785	stop_lost	354	336	112	C	tgA	tgT	T	-1	SNV	WFDC12	protein_coding	YES	MANE_Select	NM_080869.2	ENSP00000361871	-	3/3	c.336A>T	p.Ter112CysextTer69	0.00013869625520111	0.00172	-0.724855	-0.818284	4.167	0.471413037335297	2.903206	1.75	0.325	7.786e-05	0.005	0	0.008	0.01493	0.06567	-1.48	-	0	0.00191179	0.000128345	69	Q8WWY7
chr21_30561100_A/G	chr21	30561100	G	ENSG00000244362	ENST00000334849	stop_lost	215	190	64	R	Tga	Cga	A	-1	SNV	KRTAP19-7	protein_coding	YES	MANE_Select	NM_181614.3	ENSP00000334696	-	1/1	c.190T>C	p.Ter64ArgextTer4	7.11743772241993e-05	0.000186	-0.245589	-0.260547	13.97	0.776321361021898	6.686474	3.98	0.255	2.433e-06	0.011	0.989	2.36	0.82426	0.061011	-5.07	-	0	0.000245185	6.81635e-06	4	Q3SYF9
chr21_42372764_A/G	chr21	42372764	G	ENSG00000160183	ENST00000644384	stop_lost	1522	1360	454	R	Tga	Cga	A	-1	SNV	TMPRSS3	protein_coding	YES	MANE_Select	NM_001256317.3	ENSP00000494414	-	13/13	c.1360T>C	p.Ter454ArgextTer9	0.000292024539877301	0.002966	-0.582617	-0.612716	10.3	0.804066112827079	6.631083	3.7	0.11	0.0002287	0.143	1	2.361	0.79523	0.262962	-5.29	Conflicting_classifications_of_pathogenicity	0	0.0032283	0.000167914	9	P57727
chr21_44574964_A/C	chr21	44574964	C	ENSG00000215454	ENST00000400374	stop_lost	1236	1206	402	C	tgA	tgC	A	1	SNV	KRTAP10-4	protein_coding	YES	MANE_Select	NM_198687.2	ENSP00000383225	-	1/1	c.1206A>C	p.Ter402CysextTer10	0.0262056636736684	0.2156	-0.642388	-0.551702	8.646	0.610600552789299	5.159361	4.38	0.09	0.02574	0	0	0.111	0.05915	0.056701	5.79	-	1946	0.215675	0.0221488	10	P60372
chr22_32190774_A/T	chr22	32190774	T	ENSG00000128253	ENST00000652607	stop_lost	1601	1135	379	K	Taa	Aaa	A	-1	SNV	RFPL2	protein_coding	YES	MANE_Select	NM_001394555.1	ENSP00000498332	-	5/5	c.1135T>A	p.Ter379LysextTer11	0.00743494423791822	1.251e-05	-0.504368	-0.962266	0.073	0.234337986876794	0.8645105	-1.16	0.11	0	0.01	0	-5.324	0.00161	0.074636	-0.4	-	0	0	0	11	O75678
chr22_36191077_A/C	chr22	36191077	C	ENSG00000100336	ENST00000683024	stop_lost	1120	1045	349	E	Tag	Gag	A	-1	SNV	APOL4	protein_coding	YES	MANE_Select	NM_001386885.1	ENSP00000507418	-	4/4	c.1045T>G	p.Ter349GluextTer33	0.000460405156537753	0.001272	-0.634353	-0.961808	0.224	0.590143113540154	1.445384	-3.45	0	0.0001484	0.016	0	-1.023	0.00802	0.078448	-0.23	-	0	3.9337e-05	0.000154962	33	Q9BPW4
chr22_40826539_T/G	chr22	40826539	G	ENSG00000100380	ENST00000216218	stop_lost	1208	1109	370	S	tAa	tCa	T	-1	SNV	ST13	protein_coding	YES	MANE_Select	NM_003932.5	ENSP00000216218	-	12/12	c.1109A>C	p.Ter370SerextTer6	0.000811688311688312	0.005061	-0.456204	-0.426853	11.67	0.72000259958582	6.831459	4.65	0.75	0.000295	0.096	1	4.128	0.98058	0.295142	-7.97	-	0	0.00438948	0.000215294	6	P50502
chr22_42078071_T/C	chr22	42078071	C	ENSG00000177096	ENST00000321753	stop_lost	968	778	260	Q	Taa	Caa	T	1	SNV	PHETA2	protein_coding	YES	MANE_Select	NM_001002034.3	ENSP00000312753	-	3/3	c.778T>C	p.Ter260GlnextTer5	5.26057375324402e-05	0.000215	-0.316408	-0.287873	12.57	0.738751372792152	5.094539	4.31	0.52	0.0001131	0.019	0.02	0.386	0.20786	0.295142	-2.4	-	1	0.00101884	0.00012437	5	Q6ICB4
chr22_42086183_T/G	chr22	42086183	G	ENSG00000184983	ENST00000498737	stop_lost	415	387	129	C	tgA	tgC	T	-1	SNV	NDUFA6	protein_coding	YES	MANE_Select	NM_002490.6	ENSP00000418842	-	3/3	c.387A>C	p.Ter129CysextTer13	0.000115919629057187	0.0004356	-0.24387	-0.215815	18.09	0.769978982018336	14.24403	6.17	0.865	2.859e-05	0.035	1	7.574	0.97173	0.434959	-10.38	Uncertain_significance	0	0.000452935	2.23013e-05	13	P56556
chr22_43039778_A/G	chr22	43039778	G	ENSG00000100271	ENST00000266254	stop_lost	1474	1270	424	R	Tga	Cga	A	-1	SNV	TTLL1	protein_coding	YES	MANE_Select	NM_012263.5	ENSP00000266254	-	11/11	c.1270T>C	p.Ter424ArgextTer17	0	0.001488	-0.167283	-0.0130748	19.13	0.813490242252545	13.82837	4.44	0.79	1.825e-05	0.232	1	8.782	0.98431	0.252514	-8.92	-	0	0.00183552	5.21911e-05	17	O95922
chr22_44862593_T/G	chr22	44862593	G	ENSG00000241484	ENST00000356099	stop_lost	1424	1300	434	E	Tag	Gag	T	1	SNV	ARHGAP8	protein_coding	YES	MANE_Select	NM_181335.3	ENSP00000348407	-	12/12	c.1300T>G	p.Ter434GluextTer33	0	0.002399	-0.767247	-0.8689	3.476	0.550906174665103	3.038642	1.76	0.31	1.886e-05	0.05	0	0.224	0.0363	0.262962	-1.91	-	0	0.0033293	9.60725e-05	33	P85298
chr22_50217367_T/G	chr22	50217367	G	ENSG00000073169	ENST00000380903	stop_lost	2034	2008	670	E	Taa	Gaa	T	1	SNV	SELENOO	protein_coding	YES	MANE_Select	NM_031454.2	ENSP00000370288	-	9/9	c.2008T>G	p.Ter670GluextTer?	0	0.002551	-0.21287	-0.543549	15.3	0.753763139654517	6.71156	4.32	0.22	4.258e-06	NA	1	5.622	0.96457	0.256867	-10.72	-	1	0.00148564	8.06148e-06	?	Q9BVL4
chr22_50489856_A/T	chr22	50489856	T	ENSG00000100253	ENST00000216075	stop_lost	897	858	286	C	tgA	tgT	A	1	SNV	MIOX	protein_coding	YES	MANE_Select	NM_017584.6	ENSP00000216075	-	10/10	c.858A>T	p.Ter286CysextTer11	9.36329588014981e-05	0	0.00539564	-0.230026	15.3	0.752396284528479	11.55127	4.18	0.725	3.042e-06	0.05	1	7.082	0.98307	0.078448	-10.85	-	0	0	0	11	Q9UGB7
chr3_9838018_A/C	chr3	9838018	C	ENSG00000156990	ENST00000383820	stop_lost	1048	1030	344	E	Tag	Gag	A	-1	SNV	RPUSD3	protein_coding	YES	MANE_Select	NM_173659.5	ENSP00000373331	-	9/9	c.1030T>G	p.Ter344GluextTer6	0.000270953757225433	0.0004012	-0.507694	-0.833882	2.243	0.805763981831787	2.455382	-3.52	0.045	4.501e-05	NA	0	-0.166	0.07771	0.322412	-1.57	-	1	9.54675e-06	6.27034e-05	6	Q6P087
chr3_17089910_T/G	chr3	17089910	G	ENSG00000154822	ENST00000615277	stop_lost	3467	3382	1128	G	Tga	Gga	T	1	SNV	PLCL2	protein_coding	YES	MANE_Select	NM_001144382.2	ENSP00000478458	-	6/6	c.3382T>G	p.Ter1128GlyextTer5	0.00291635428201971	0.02632	-0.504621	-0.477358	14.18	0.668083500057661	8.416221	5.91	0.625	0.002043	0.057	1	4.307	0.83597	0.295142	-6.64	Benign	31	0.0258591	0.00140726	5	Q9UPR0
chr3_19534099_A/G	chr3	19534099	G	ENSG00000183960	ENST00000328405	stop_lost	3534	3324	1108	W	tgA	tgG	A	1	SNV	KCNH8	protein_coding	YES	MANE_Select	NM_144633.3	ENSP00000328813	-	16/16	c.3324A>G	p.Ter1108TrpextTer2	0.000181332629982526	0.0004011	-0.2399	-0.284817	16.72	0.840421042922504	15.58523	5.61	0.415	8.214e-05	0.027	1	5.152	0.9476	0.164513	-5.59	-	0	0.000317981	7.28984e-05	2	Q96L42
chr3_25794492_T/C	chr3	25794492	C	ENSG00000151093	ENST00000280701	stop_lost	1467	1378	460	Q	Tag	Cag	T	1	SNV	OXSM	protein_coding	YES	MANE_Select	NM_017897.3	ENSP00000280701	-	3/3	c.1378T>C	p.Ter460GlnextTer3	0.0163197214767535	0.1425	-0.231605	0.0126704	14.61	0.854354956230239	15.23006	5.13	0.155	0.01056	0.002	1	7.077	0.99163	0.156188	-8.53	-	752	0.143131	0.00781814	3	Q9NWU1
chr3_36715330_A/C	chr3	36715330	C	ENSG00000163673	ENST00000636136	stop_lost	2742	2452	818	E	Tag	Gag	A	-1	SNV	DCLK3	protein_coding	YES	MANE_Select	NM_001394672.2	ENSP00000489900	-	5/5	c.2452T>G	p.Ter818GluextTer27	0.000415980032958418	0.003883	-0.751108	-0.854428	5.384	0.707859069969409	3.601643	2.71	0.375	0.0002853	0.009	0.075	1.539	0.1787	0.074636	-2.23	-	0	0.00358418	0.00019701	27	-
